; generated by PrusaSlicer 2.8.0+win64 on 2024-09-05 at 16:53:36 UTC


;
;
; 

; external perimeters extrusion width = 0.45mm
; perimeters extrusion width = 0.45mm
; infill extrusion width = 0.45mm
; solid infill extrusion width = 0.45mm
; top infill extrusion width = 0.40mm
; support material extrusion width = 0.35mm
; first layer extrusion width = 0.42mm

; external perimeters extrusion width = 0.45mm
; perimeters extrusion width = 0.45mm
; infill extrusion width = 0.45mm
; solid infill extrusion width = 0.45mm
; top infill extrusion width = 0.40mm
; support material extrusion width = 0.35mm
; first layer extrusion width = 0.42mm

; external perimeters extrusion width = 0.45mm
; perimeters extrusion width = 0.45mm
; infill extrusion width = 0.45mm
; solid infill extrusion width = 0.45mm
; top infill extrusion width = 0.40mm
; support material extrusion width = 0.35mm
; first layer extrusion width = 0.42mm

; external perimeters extrusion width = 0.45mm
; perimeters extrusion width = 0.45mm
; infill extrusion width = 0.45mm
; solid infill extrusion width = 0.45mm
; top infill extrusion width = 0.40mm
; support material extrusion width = 0.35mm
; first layer extrusion width = 0.42mm

; external perimeters extrusion width = 0.45mm
; perimeters extrusion width = 0.45mm
; infill extrusion width = 0.45mm
; solid infill extrusion width = 0.45mm
; top infill extrusion width = 0.40mm
; support material extrusion width = 0.35mm
; first layer extrusion width = 0.42mm

; external perimeters extrusion width = 0.45mm
; perimeters extrusion width = 0.45mm
; infill extrusion width = 0.45mm
; solid infill extrusion width = 0.45mm
; top infill extrusion width = 0.40mm
; support material extrusion width = 0.35mm
; first layer extrusion width = 0.42mm

;TYPE:Custom
M82 ;absolute extrusion mode
M140 S0
M104 S0 
START_PRINT EXTRUDER_TEMP=260 BED_TEMP=100
G92 E0
G92 E0
G1 F2400 E-0.5
G21 ; set units to millimeters
G90 ; use absolute coordinates
M82 ; use absolute distances for extrusion
G92 E0
; Filament gcode
M107
;LAYER_CHANGE
;Z:0.2
;HEIGHT:0.2
G1 E-2 F2400
G1 Z.6 F30000
G92 E0
G1 X99.362 Y101.89
G1 Z.2
G1 E2 F2400
G92 E0
;TYPE:Perimeter
;WIDTH:0.419999
G1 F5452
G1 X99.638 Y102.262 E.01452
G1 X99.852 Y102.699 E.02978
G1 X99.986 Y103.176 E.04531
G1 X100.031 Y103.663 E.06064
G1 X100.031 Y103.913 E.06848
G1 X99.942 Y104.397 E.08391
G1 X99.765 Y104.86 E.09945
G1 X99.51 Y105.278 E.1148
G1 X99.181 Y105.648 E.13032
G1 X98.792 Y105.949 E.14574
G1 X98.355 Y106.176 E.16118
G1 X97.881 Y106.32 E.17671
G1 X97.392 Y106.376 E.19214
G1 X96.901 Y106.343 E.20757
G1 X96.421 Y106.22 E.22311
G1 X95.976 Y106.014 E.23849
G1 X95.571 Y105.729 E.25402
G1 X95.227 Y105.377 E.26945
G1 X94.952 Y104.968 E.2849
G1 X94.755 Y104.514 E.30042
G1 X94.644 Y104.035 E.31584
G1 X94.622 Y103.54 E.33138
G1 X94.688 Y103.055 E.34673
G1 X94.843 Y102.584 E.36228
G1 X95.08 Y102.153 E.3777
G1 X95.39 Y101.771 E.39313
G1 X95.767 Y101.449 E.40868
G1 X96.194 Y101.203 E.42413
G1 X96.658 Y101.038 E.43957
G1 X97.16 Y100.958 E.45551
G1 X97.636 Y100.982 E.47045
G1 X98.116 Y101.082 E.48582
G1 X98.573 Y101.268 E.50129
G1 X98.986 Y101.532 E.51666
G1 X99.322 Y101.845 E.53106
G1 X99.322 Y101.845 F30000
G1 X99.634 Y101.624
;TYPE:External perimeter
G1 F5452
G1 X99.815 Y101.827 E.53959
G1 X100.105 Y102.304 E.55709
G1 X100.306 Y102.831 E.57477
G1 X100.408 Y103.383 E.59237
G1 X100.408 Y103.663 E.60115
G1 X100.408 Y103.947 E.61005
G1 X100.306 Y104.499 E.62765
G1 X100.105 Y105.026 E.64533
G1 X99.815 Y105.503 E.66283
G1 X99.439 Y105.924 E.68053
G1 X98.996 Y106.268 E.69812
G1 X98.498 Y106.527 E.71572
G1 X97.958 Y106.691 E.73341
G1 X97.4 Y106.755 E.75102
G1 X96.84 Y106.716 E.76862
G1 X96.294 Y106.576 E.78629
G1 X95.787 Y106.342 E.8038
G1 X95.326 Y106.017 E.82149
G1 X94.934 Y105.616 E.83907
G1 X94.62 Y105.15 E.85669
G1 X94.395 Y104.633 E.87437
G1 X94.269 Y104.086 E.89197
G1 X94.243 Y103.523 E.90964
G1 X94.319 Y102.969 E.92717
G1 X94.496 Y102.434 E.94484
G1 X94.766 Y101.941 E.96246
G1 X95.12 Y101.506 E.98004
G1 X95.549 Y101.14 E.99772
G1 X96.035 Y100.859 E1.01532
G1 X96.564 Y100.671 E1.03292
G1 X97.396 Y100.575 E1.05918
G1 X97.958 Y100.639 E1.07691
G1 X98.498 Y100.804 E1.09461
G1 X98.996 Y101.062 E1.1122
G1 X99.439 Y101.406 E1.12979
G1 X99.594 Y101.579 E1.13707
G1 X99.845 Y101.891 F30000
G1 X99.701 Y102.621
;TYPE:Solid infill
;WIDTH:0.444788
G1 F5452
G1 X98.912 Y101.833 E1.17433
G1 X98.639 Y101.62 E1.1859
G1 X98.247 Y101.417 E1.20065
G1 X97.796 Y101.285 E1.21635
G1 X99.701 Y103.19 E1.30637
G1 X99.748 Y103.443 E1.31497
G1 X99.748 Y103.805 E1.32707
G1 X97.184 Y101.24 E1.44826
G1 X96.699 Y101.324 E1.46471
G1 X99.672 Y104.297 E1.6052
G1 X99.518 Y104.712 E1.61999
G1 X96.284 Y101.478 E1.77282
G1 X95.925 Y101.687 E1.7867
G1 X99.307 Y105.069 E1.94652
G1 X99.045 Y105.375 E1.95998
G1 X95.618 Y101.948 E2.12193
G1 X95.359 Y102.257 E2.1354
G1 X98.736 Y105.635 E2.29501
G1 X98.639 Y105.71 E2.29911
G1 X98.378 Y105.845 E2.30893
G1 X95.149 Y102.616 E2.46152
G1 X95.104 Y102.698 E2.46465
G1 X94.994 Y103.03 E2.47634
G1 X97.964 Y105.999 E2.61667
G1 X97.823 Y106.042 E2.6216
G1 X97.478 Y106.082 E2.63321
G1 X94.911 Y103.514 E2.75454
G1 X94.925 Y103.996 E2.77065
G1 X94.956 Y104.128 E2.77518
G1 X96.871 Y106.043 E2.86568
G1 X96.516 Y105.952 E2.87793
G1 X96.118 Y105.769 E2.89257
G1 X95.814 Y105.554 E2.90501
G1 X94.958 Y104.699 E2.94544
G1 E.94544 F2400
G92 E0
G1 X94.958 Y104.699 Z.6 F30000
G92 E0
G1 X112.028 Y101.89
G1 Z.2
G1 E2 F2400
;TYPE:Perimeter
;WIDTH:0.419999
G1 F5452
G1 X112.304 Y102.262 E2.01452
G1 X112.518 Y102.699 E2.02978
G1 X112.653 Y103.176 E2.04532
G1 X112.697 Y103.663 E2.06065
G1 X112.697 Y103.913 E2.06849
G1 X112.608 Y104.397 E2.08392
G1 X112.431 Y104.86 E2.09946
G1 X112.177 Y105.278 E2.1148
G1 X111.847 Y105.648 E2.13034
G1 X111.458 Y105.949 E2.14576
G1 X111.021 Y106.176 E2.1612
G1 X110.547 Y106.32 E2.17673
G1 X110.058 Y106.376 E2.19216
G1 X109.567 Y106.343 E2.20759
G1 X109.087 Y106.22 E2.22313
G1 X108.643 Y106.015 E2.23846
G1 X108.238 Y105.729 E2.25401
G1 X107.894 Y105.377 E2.26944
G1 X107.619 Y104.968 E2.28489
G1 X107.421 Y104.514 E2.30042
G1 X107.31 Y104.035 E2.31584
G1 X107.288 Y103.54 E2.33138
G1 X107.355 Y103.055 E2.34673
G1 X107.51 Y102.584 E2.36228
G1 X107.746 Y102.153 E2.37769
G1 X108.057 Y101.771 E2.39313
G1 X108.434 Y101.449 E2.40868
G1 X108.86 Y101.203 E2.4241
G1 X109.324 Y101.038 E2.43954
G1 X109.826 Y100.958 E2.45548
G1 X110.303 Y100.982 E2.47045
G1 X110.783 Y101.082 E2.48582
G1 X111.24 Y101.268 E2.50129
G1 X111.652 Y101.532 E2.51663
G1 X111.988 Y101.845 E2.53103
G1 X111.988 Y101.845 F30000
G1 X112.3 Y101.624
;TYPE:External perimeter
G1 F5452
G1 X112.481 Y101.827 E2.53956
G1 X112.771 Y102.304 E2.55706
G1 X112.972 Y102.831 E2.57474
G1 X113.074 Y103.383 E2.59234
G1 X113.074 Y103.663 E2.60112
G1 X113.074 Y103.947 E2.61002
G1 X112.972 Y104.499 E2.62762
G1 X112.771 Y105.026 E2.6453
G1 X112.481 Y105.503 E2.6628
G1 X112.105 Y105.924 E2.6805
G1 X111.662 Y106.268 E2.69809
G1 X111.164 Y106.527 E2.71569
G1 X110.624 Y106.691 E2.73338
G1 X110.067 Y106.755 E2.75096
G1 X109.507 Y106.716 E2.76856
G1 X108.96 Y106.576 E2.78626
G1 X108.453 Y106.342 E2.80377
G1 X107.992 Y106.017 E2.82146
G1 X107.6 Y105.616 E2.83904
G1 X107.287 Y105.15 E2.85664
G1 X107.062 Y104.633 E2.87432
G1 X106.935 Y104.086 E2.89193
G1 X106.91 Y103.523 E2.9096
G1 X106.986 Y102.969 E2.92713
G1 X107.162 Y102.434 E2.94479
G1 X107.432 Y101.941 E2.96241
G1 X107.786 Y101.506 E2.97999
G1 X108.215 Y101.14 E2.99767
G1 X108.701 Y100.859 E3.01527
G1 X109.23 Y100.671 E3.03287
G1 X110.062 Y100.575 E3.05913
G1 X110.624 Y100.639 E3.07686
G1 X111.164 Y100.804 E3.09456
G1 X111.662 Y101.062 E3.11215
G1 X112.105 Y101.406 E3.12974
G1 X112.26 Y101.579 E3.13702
G1 X112.511 Y101.891 F30000
G1 X112.368 Y102.621
;TYPE:Solid infill
;WIDTH:0.444788
G1 F5452
G1 X111.579 Y101.833 E3.17428
G1 X111.305 Y101.62 E3.18588
G1 X110.914 Y101.417 E3.2006
G1 X110.463 Y101.285 E3.2163
G1 X112.368 Y103.19 E3.30632
G1 X112.414 Y103.443 E3.31491
G1 X112.414 Y103.805 E3.32701
G1 X109.85 Y101.24 E3.4482
G1 X109.365 Y101.324 E3.46465
G1 X112.339 Y104.297 E3.60517
G1 X112.185 Y104.712 E3.61996
G1 X108.95 Y101.478 E3.77281
G1 X108.591 Y101.687 E3.78669
G1 X111.973 Y105.069 E3.94651
G1 X111.711 Y105.375 E3.95997
G1 X108.284 Y101.948 E4.12192
G1 X108.025 Y102.257 E4.13539
G1 X111.402 Y105.635 E4.295
G1 X111.305 Y105.71 E4.2991
G1 X111.045 Y105.845 E4.30889
G1 X107.815 Y102.616 E4.46151
G1 X107.77 Y102.698 E4.46464
G1 X107.661 Y103.03 E4.47632
G1 X110.631 Y105.999 E4.61665
G1 X110.49 Y106.042 E4.62158
G1 X110.145 Y106.082 E4.63319
G1 X107.577 Y103.514 E4.75454
G1 X107.592 Y103.996 E4.77065
G1 X107.622 Y104.128 E4.77517
G1 X109.538 Y106.043 E4.86569
G1 X109.182 Y105.952 E4.87797
G1 X108.784 Y105.769 E4.89261
G1 X108.48 Y105.554 E4.90505
G1 X107.625 Y104.699 E4.94545
G1 E2.94545 F2400
G92 E0
G1 X107.625 Y104.699 Z.6 F30000
G92 E0
G1 X124.694 Y101.89
G1 Z.2
G1 E2 F2400
;TYPE:Perimeter
;WIDTH:0.419999
G1 F5452
G1 X124.97 Y102.262 E2.01452
G1 X125.185 Y102.699 E2.02979
G1 X125.319 Y103.176 E2.04532
G1 X125.363 Y103.663 E2.06065
G1 X125.363 Y103.913 E2.06849
G1 X125.274 Y104.397 E2.08392
G1 X125.097 Y104.86 E2.09946
G1 X124.843 Y105.278 E2.1148
G1 X124.513 Y105.648 E2.13034
G1 X124.124 Y105.949 E2.14576
G1 X123.687 Y106.176 E2.1612
G1 X123.214 Y106.32 E2.1767
G1 X122.724 Y106.376 E2.19216
G1 X122.233 Y106.343 E2.20759
G1 X121.753 Y106.22 E2.22313
G1 X121.309 Y106.015 E2.23846
G1 X120.904 Y105.729 E2.25401
G1 X120.56 Y105.377 E2.26944
G1 X120.285 Y104.968 E2.28489
G1 X120.088 Y104.514 E2.30041
G1 X119.977 Y104.035 E2.31583
G1 X119.954 Y103.54 E2.33137
G1 X120.021 Y103.055 E2.34672
G1 X120.176 Y102.584 E2.36227
G1 X120.412 Y102.153 E2.37768
G1 X120.723 Y101.771 E2.39312
G1 X121.1 Y101.449 E2.40867
G1 X121.526 Y101.203 E2.42409
G1 X121.99 Y101.038 E2.43953
G1 X122.492 Y100.958 E2.45547
G1 X122.969 Y100.982 E2.47044
G1 X123.449 Y101.082 E2.48581
G1 X123.906 Y101.268 E2.50128
G1 X124.319 Y101.532 E2.51665
G1 X124.654 Y101.845 E2.53102
G1 X124.654 Y101.845 F30000
G1 X124.966 Y101.624
;TYPE:External perimeter
G1 F5452
G1 X125.147 Y101.827 E2.53955
G1 X125.437 Y102.304 E2.55705
G1 X125.639 Y102.831 E2.57475
G1 X125.74 Y103.383 E2.59234
G1 X125.74 Y103.663 E2.60112
G1 X125.74 Y103.947 E2.61002
G1 X125.639 Y104.499 E2.62761
G1 X125.437 Y105.026 E2.64531
G1 X125.147 Y105.503 E2.66281
G1 X124.772 Y105.924 E2.68049
G1 X124.328 Y106.268 E2.6981
G1 X123.83 Y106.527 E2.7157
G1 X123.291 Y106.691 E2.73336
G1 X122.733 Y106.755 E2.75097
G1 X122.173 Y106.716 E2.76857
G1 X121.626 Y106.576 E2.78627
G1 X121.12 Y106.342 E2.80375
G1 X120.659 Y106.017 E2.82144
G1 X120.266 Y105.616 E2.83904
G1 X119.953 Y105.15 E2.85664
G1 X119.728 Y104.633 E2.87432
G1 X119.601 Y104.086 E2.89193
G1 X119.576 Y103.523 E2.9096
G1 X119.652 Y102.969 E2.92713
G1 X119.829 Y102.434 E2.9448
G1 X120.098 Y101.941 E2.96241
G1 X120.452 Y101.506 E2.97999
G1 X120.882 Y101.14 E2.99769
G1 X121.368 Y100.859 E3.01529
G1 X121.897 Y100.671 E3.03289
G1 X122.729 Y100.575 E3.05915
G1 X123.291 Y100.639 E3.07688
G1 X123.83 Y100.804 E3.09455
G1 X124.328 Y101.062 E3.11214
G1 X124.772 Y101.406 E3.12975
G1 X124.926 Y101.579 E3.13701
G1 X125.177 Y101.891 F30000
G1 X125.034 Y102.621
;TYPE:Solid infill
;WIDTH:0.444788
G1 F5452
G1 X124.245 Y101.833 E3.17427
G1 X123.971 Y101.62 E3.18587
G1 X123.58 Y101.417 E3.20059
G1 X123.129 Y101.285 E3.21629
G1 X125.034 Y103.19 E3.30631
G1 X125.081 Y103.443 E3.31491
G1 X125.081 Y103.805 E3.32701
G1 X122.516 Y101.24 E3.44822
G1 X122.031 Y101.324 E3.46467
G1 X125.005 Y104.297 E3.60519
G1 X124.851 Y104.712 E3.61998
G1 X121.617 Y101.478 E3.77281
G1 X121.257 Y101.687 E3.78672
G1 X124.639 Y105.069 E3.94654
G1 X124.378 Y105.375 E3.95998
G1 X120.951 Y101.948 E4.12193
G1 X120.692 Y102.257 E4.1354
G1 X124.069 Y105.635 E4.29501
G1 X123.971 Y105.71 E4.29913
G1 X123.711 Y105.845 E4.30892
G1 X120.481 Y102.616 E4.46154
G1 X120.436 Y102.698 E4.46467
G1 X120.327 Y103.03 E4.47635
G1 X123.297 Y105.999 E4.61668
G1 X123.156 Y106.042 E4.62161
G1 X122.811 Y106.082 E4.63322
G1 X120.243 Y103.514 E4.75457
G1 X120.258 Y103.996 E4.77068
G1 X120.288 Y104.128 E4.7752
G1 X122.204 Y106.043 E4.86572
G1 X121.848 Y105.952 E4.878
G1 X121.451 Y105.769 E4.89261
G1 X121.147 Y105.554 E4.90505
G1 X120.291 Y104.699 E4.94548
G1 E2.94548 F2400
G92 E0
G1 X120.291 Y104.699 Z.6 F30000
G92 E0
G1 X124.694 Y114.559
G1 Z.2
G1 E2 F2400
;TYPE:Perimeter
;WIDTH:0.419999
G1 F5452
G1 X124.97 Y114.932 E2.01455
G1 X125.185 Y115.369 E2.02982
G1 X125.319 Y115.845 E2.04532
G1 X125.363 Y116.333 E2.06068
G1 X125.363 Y116.582 E2.06849
G1 X125.274 Y117.066 E2.08392
G1 X125.097 Y117.529 E2.09946
G1 X124.843 Y117.948 E2.11482
G1 X124.513 Y118.317 E2.13034
G1 X124.124 Y118.619 E2.14578
G1 X123.687 Y118.846 E2.16122
G1 X123.214 Y118.99 E2.17672
G1 X122.724 Y119.046 E2.19218
G1 X122.233 Y119.012 E2.20761
G1 X121.753 Y118.889 E2.22315
G1 X121.309 Y118.684 E2.23848
G1 X120.904 Y118.399 E2.25401
G1 X120.56 Y118.047 E2.26944
G1 X120.285 Y117.638 E2.28489
G1 X120.088 Y117.184 E2.30041
G1 X119.977 Y116.704 E2.31586
G1 X119.954 Y116.209 E2.3314
G1 X120.021 Y115.724 E2.34675
G1 X120.176 Y115.254 E2.36227
G1 X120.412 Y114.822 E2.3777
G1 X120.723 Y114.44 E2.39314
G1 X121.1 Y114.119 E2.40866
G1 X121.526 Y113.873 E2.42408
G1 X121.99 Y113.708 E2.43952
G1 X122.492 Y113.627 E2.45546
G1 X122.969 Y113.652 E2.47044
G1 X123.449 Y113.751 E2.48581
G1 X123.906 Y113.937 E2.50128
G1 X124.319 Y114.201 E2.51665
G1 X124.654 Y114.515 E2.53105
G1 X124.654 Y114.515 F30000
G1 X124.966 Y114.294
;TYPE:External perimeter
G1 F5452
G1 X125.147 Y114.497 E2.53958
G1 X125.437 Y114.974 E2.55708
G1 X125.639 Y115.501 E2.57478
G1 X125.741 Y116.053 E2.59238
G1 X125.741 Y116.333 E2.60116
G1 X125.741 Y116.617 E2.61006
G1 X125.639 Y117.169 E2.62766
G1 X125.437 Y117.696 E2.64536
G1 X125.147 Y118.173 E2.66286
G1 X124.772 Y118.594 E2.68054
G1 X124.328 Y118.938 E2.69815
G1 X123.83 Y119.196 E2.71574
G1 X123.291 Y119.361 E2.73341
G1 X122.733 Y119.424 E2.75102
G1 X122.173 Y119.386 E2.76862
G1 X121.626 Y119.246 E2.78632
G1 X121.12 Y119.012 E2.8038
G1 X120.659 Y118.687 E2.82149
G1 X120.266 Y118.286 E2.83909
G1 X119.953 Y117.82 E2.85669
G1 X119.728 Y117.302 E2.8744
G1 X119.601 Y116.756 E2.89198
G1 X119.576 Y116.192 E2.90968
G1 X119.652 Y115.639 E2.92718
G1 X119.829 Y115.103 E2.94488
G1 X120.098 Y114.611 E2.96246
G1 X120.452 Y114.175 E2.98007
G1 X120.882 Y113.81 E2.99775
G1 X121.368 Y113.529 E3.01535
G1 X121.897 Y113.341 E3.03295
G1 X122.729 Y113.245 E3.05921
G1 X123.291 Y113.309 E3.07694
G1 X123.83 Y113.473 E3.0946
G1 X124.328 Y113.732 E3.1122
G1 X124.772 Y114.076 E3.12981
G1 X124.926 Y114.249 E3.13707
G1 X125.177 Y114.561 F30000
G1 X125.034 Y115.291
;TYPE:Solid infill
;WIDTH:0.444788
G1 F5452
G1 X124.245 Y114.502 E3.17436
G1 X123.971 Y114.29 E3.18594
G1 X123.58 Y114.087 E3.20066
G1 X123.129 Y113.955 E3.21636
G1 X125.034 Y115.859 E3.30636
G1 X125.081 Y116.113 E3.31499
G1 X125.081 Y116.474 E3.32705
G1 X122.516 Y113.91 E3.44824
G1 X122.031 Y113.993 E3.46468
G1 X125.005 Y116.967 E3.60522
G1 X124.851 Y117.382 E3.62001
G1 X121.617 Y114.147 E3.77286
G1 X121.257 Y114.356 E3.78677
G1 X124.639 Y117.738 E3.94659
G1 X124.378 Y118.045 E3.96005
G1 X120.951 Y114.618 E4.122
G1 X120.692 Y114.927 E4.13547
G1 X124.069 Y118.304 E4.29506
G1 X123.971 Y118.38 E4.2992
G1 X123.711 Y118.515 E4.30899
G1 X120.481 Y115.285 E4.46163
G1 X120.437 Y115.367 E4.46474
G1 X120.327 Y115.699 E4.47643
G1 X123.297 Y118.669 E4.61678
G1 X123.156 Y118.712 E4.62171
G1 X122.811 Y118.751 E4.63331
G1 X120.243 Y116.184 E4.75464
G1 X120.258 Y116.666 E4.77075
G1 X120.288 Y116.797 E4.77524
G1 X122.204 Y118.713 E4.86578
G1 X121.848 Y118.622 E4.87806
G1 X121.451 Y118.438 E4.89268
G1 X121.147 Y118.224 E4.9051
G1 X120.291 Y117.368 E4.94555
G1 E2.94555 F2400
G92 E0
G1 X120.291 Y117.368 Z.6 F30000
G92 E0
G1 X112.028 Y114.559
G1 Z.2
G1 E2 F2400
;TYPE:Perimeter
;WIDTH:0.419999
G1 F5452
G1 X112.304 Y114.932 E2.01455
G1 X112.518 Y115.369 E2.02981
G1 X112.653 Y115.845 E2.04532
G1 X112.697 Y116.333 E2.06068
G1 X112.697 Y116.582 E2.06849
G1 X112.608 Y117.066 E2.08392
G1 X112.431 Y117.529 E2.09946
