; generated by PrusaSlicer 2.8.0+win64 on 2024-07-05 at 19:47:32 UTC


;
;
; 

; external perimeters extrusion width = 0.45mm
; perimeters extrusion width = 0.45mm
; infill extrusion width = 0.45mm
; solid infill extrusion width = 0.45mm
; top infill extrusion width = 0.40mm
; first layer extrusion width = 0.42mm

;TYPE:Custom
M82 ;absolute extrusion mode
M140 S0
M104 S0 
START_PRINT EXTRUDER_TEMP=260 BED_TEMP=100
G92 E0
G92 E0
G1 F2400 E-0.5
G21 ; set units to millimeters
G90 ; use absolute coordinates
M82 ; use absolute distances for extrusion
G92 E0
; Filament gcode
M107
;LAYER_CHANGE
;Z:0.2
;HEIGHT:0.2
G1 E-2 F2400
G1 Z.6 F30000
G1 X101.004 Y101.604
G1 Z.2
G1 E0 F2400
;TYPE:Skirt/Brim
;WIDTH:0.42
G1 F3661
G1 X101.805 Y100.82 E.03514
G1 X102.674 Y100.113 E.07027
G1 X103.603 Y99.488 E.10538
G1 X105.091 Y98.716 E.15794
G1 X106.138 Y98.316 E.19308
G1 X107.216 Y98.014 E.22818
G1 X108.318 Y97.81 E.26332
G1 X109.433 Y97.708 E.29843
G1 X110.553 Y97.707 E.33355
G1 X111.669 Y97.808 E.36868
G1 X112.771 Y98.011 E.40381
G1 X113.849 Y98.312 E.4389
G1 X115.408 Y98.947 E.49168
G1 X116.391 Y99.484 E.5268
G1 X117.32 Y100.109 E.56191
G1 X118.189 Y100.816 E.59704
G1 X118.991 Y101.598 E.63216
G1 X119.717 Y102.451 E.66728
G1 X120.364 Y103.366 E.70242
G1 X120.924 Y104.336 E.73754
G1 X121.394 Y105.352 E.77264
G1 X121.769 Y106.408 E.80778
G1 X122.047 Y107.493 E.8429
G1 X122.225 Y108.599 E.87802
G1 X122.302 Y110.273 E.93056
G1 X122.226 Y111.391 E.9657
G1 X122.049 Y112.497 E1.00082
G1 X121.772 Y113.582 E1.03593
G1 X121.174 Y115.155 E1.08869
G1 X120.658 Y116.15 E1.12383
G1 X120.055 Y117.093 E1.15893
G1 X119.368 Y117.978 E1.19406
G1 X118.604 Y118.797 E1.22918
G1 X117.768 Y119.543 E1.26431
G1 X116.868 Y120.21 E1.29943
G1 X115.912 Y120.792 E1.33452
G1 X114.39 Y121.496 E1.3871
G1 X113.326 Y121.847 E1.42223
G1 X111.679 Y122.19 E1.47498
G1 X110.564 Y122.292 E1.51009
G1 X109.443 Y122.293 E1.54524
G1 X108.328 Y122.191 E1.58035
G1 X107.226 Y121.989 E1.61548
G1 X106.148 Y121.687 E1.65058
G1 X105.101 Y121.288 E1.68571
G1 X104.095 Y120.796 E1.72082
G1 X102.682 Y119.893 E1.7734
G1 X101.813 Y119.186 E1.80853
G1 X101.011 Y118.404 E1.84365
G1 X100.284 Y117.552 E1.87877
G1 X99.638 Y116.637 E1.91389
G1 X99.077 Y115.667 E1.94902
G1 X98.406 Y114.124 E2.00178
G1 X98.079 Y113.053 E2.03689
G1 X97.851 Y111.956 E2.07202
G1 X97.724 Y110.841 E2.10721
G1 X97.698 Y109.716 E2.14249
G1 X97.85 Y108.054 E2.19482
G1 X98.077 Y106.957 E2.22994
G1 X98.403 Y105.885 E2.26507
G1 X98.825 Y104.848 E2.30017
G1 X99.34 Y103.853 E2.3353
G1 X100.278 Y102.456 E2.38806
G1 X100.966 Y101.649 E2.42131
G1 E.42131 F2400
G92 E0
G1 X100.966 Y101.649 Z.6 F30000
G92 E0
G1 X115.513 Y109.779
G1 Z.2
G1 E2 F2400
;TYPE:Perimeter
;WIDTH:0.419999
G1 F3661
G1 X115.527 Y109.995 E2.00679
G1 X115.504 Y110.501 E2.02267
G1 X115.435 Y110.999 E2.03843
G1 X115.322 Y111.488 E2.05417
G1 X115.163 Y111.971 E2.07011
G1 X114.962 Y112.433 E2.08591
G1 X114.721 Y112.874 E2.10167
G1 X114.44 Y113.291 E2.11744
G1 X114.122 Y113.681 E2.13322
G1 X113.77 Y114.041 E2.14901
G1 X113.387 Y114.367 E2.16478
G1 X112.976 Y114.657 E2.18055
G1 X112.543 Y114.907 E2.19623
G1 X112.088 Y115.117 E2.21194
G1 X111.614 Y115.286 E2.22772
G1 X111.126 Y115.411 E2.24351
G1 X110.631 Y115.49 E2.25923
G1 X110.124 Y115.525 E2.27516
G1 X109.62 Y115.513 E2.29097
G1 X109.121 Y115.456 E2.30672
G1 X108.628 Y115.354 E2.32251
G1 X108.147 Y115.207 E2.33828
G1 X107.681 Y115.017 E2.35406
G1 X107.235 Y114.785 E2.36982
G1 X106.813 Y114.515 E2.38553
G1 X106.417 Y114.208 E2.40124
G1 X106.049 Y113.865 E2.41701
G1 X105.714 Y113.489 E2.4328
G1 X105.415 Y113.085 E2.44856
G1 X105.154 Y112.656 E2.4643
G1 X104.93 Y112.2 E2.48023
G1 X104.751 Y111.729 E2.49603
G1 X104.616 Y111.245 E2.51178
G1 X104.525 Y110.75 E2.52756
G1 X104.479 Y110.249 E2.54333
G1 X104.479 Y109.746 E2.5591
G1 X104.525 Y109.245 E2.57487
G1 X104.617 Y108.75 E2.59066
G1 X104.753 Y108.266 E2.60642
G1 X104.932 Y107.796 E2.62219
G1 X105.153 Y107.344 E2.63797
G1 X105.415 Y106.915 E2.65373
G1 X105.715 Y106.51 E2.66953
G1 X106.048 Y106.137 E2.68521
G1 X106.414 Y105.795 E2.70092
G1 X106.811 Y105.487 E2.71667
G1 X107.238 Y105.213 E2.73258
G1 X107.686 Y104.981 E2.7484
G1 X108.152 Y104.792 E2.76417
G1 X108.633 Y104.645 E2.77994
G1 X109.128 Y104.543 E2.79579
G1 X109.872 Y104.469 E2.81923
G1 X110.375 Y104.48 E2.835
G1 X110.876 Y104.537 E2.85081
G1 X111.369 Y104.64 E2.8666
G1 X111.85 Y104.786 E2.88236
G1 X112.317 Y104.976 E2.89817
G1 X112.764 Y105.208 E2.91396
G1 X113.188 Y105.479 E2.92974
G1 X113.586 Y105.788 E2.94554
G1 X113.958 Y106.135 E2.96149
G1 X114.293 Y106.51 E2.97726
G1 X114.592 Y106.915 E2.99304
G1 X114.854 Y107.346 E3.00885
G1 X115.075 Y107.798 E3.02463
G1 X115.254 Y108.269 E3.04043
G1 X115.39 Y108.754 E3.05622
G1 X115.481 Y109.249 E3.072
G1 X115.51 Y109.719 E3.08676
G1 X115.51 Y109.719 F30000
G1 X115.892 Y109.744
;TYPE:External perimeter
G1 F3661
G1 X115.904 Y109.995 E3.09464
G1 X115.879 Y110.535 E3.11159
G1 X115.806 Y111.067 E3.12843
G1 X115.686 Y111.59 E3.14525
G1 X115.515 Y112.105 E3.16226
G1 X115.301 Y112.599 E3.17914
G1 X115.043 Y113.07 E3.19598
G1 X114.743 Y113.515 E3.21281
G1 X114.404 Y113.932 E3.22966
G1 X114.028 Y114.316 E3.24651
G1 X113.619 Y114.665 E3.26337
G1 X113.177 Y114.976 E3.28032
G1 X112.716 Y115.242 E3.29701
G1 X112.23 Y115.466 E3.31379
G1 X111.724 Y115.646 E3.33063
G1 X111.203 Y115.78 E3.3475
G1 X110.674 Y115.865 E3.3643
G1 X110.133 Y115.902 E3.3813
G1 X109.594 Y115.89 E3.3982
G1 X109.061 Y115.828 E3.41502
G1 X108.535 Y115.719 E3.43186
G1 X108.021 Y115.562 E3.44871
G1 X107.523 Y115.359 E3.46557
G1 X107.044 Y115.11 E3.4825
G1 X106.595 Y114.823 E3.49921
G1 X106.173 Y114.495 E3.51597
G1 X105.78 Y114.128 E3.53283
G1 X105.422 Y113.727 E3.54968
G1 X105.102 Y113.295 E3.56654
G1 X104.823 Y112.837 E3.58335
G1 X104.584 Y112.35 E3.60036
G1 X104.393 Y111.847 E3.61723
G1 X104.248 Y111.33 E3.63407
G1 X104.151 Y110.801 E3.65093
G1 X104.102 Y110.266 E3.66777
G1 X104.103 Y109.729 E3.68461
G1 X104.152 Y109.194 E3.70145
G1 X104.249 Y108.665 E3.71831
G1 X104.394 Y108.148 E3.73515
G1 X104.586 Y107.646 E3.752
G1 X104.823 Y107.163 E3.76887
G1 X105.102 Y106.704 E3.78571
G1 X105.424 Y106.27 E3.80265
G1 X105.778 Y105.873 E3.81933
G1 X106.17 Y105.508 E3.83612
G1 X106.593 Y105.179 E3.85292
G1 X107.05 Y104.886 E3.86994
G1 X107.528 Y104.639 E3.88681
G1 X108.026 Y104.436 E3.90367
G1 X108.54 Y104.28 E3.92051
G1 X109.068 Y104.17 E3.93742
G1 X109.597 Y104.11 E3.95411
G1 X110.132 Y104.098 E3.97089
G1 X110.668 Y104.134 E3.98773
G1 X111.199 Y104.219 E4.00459
G1 X111.719 Y104.352 E4.02142
G1 X112.226 Y104.532 E4.03829
G1 X112.714 Y104.757 E4.05514
G1 X113.18 Y105.026 E4.07201
G1 X113.618 Y105.335 E4.08882
G1 X114.031 Y105.687 E4.10583
G1 X114.407 Y106.072 E4.1227
G1 X114.746 Y106.489 E4.13955
G1 X115.045 Y106.935 E4.15639
G1 X115.303 Y107.406 E4.17323
G1 X115.517 Y107.899 E4.19008
G1 X115.685 Y108.41 E4.20695
G1 X115.807 Y108.936 E4.22388
G1 X115.879 Y109.463 E4.24056
G1 X115.889 Y109.684 E4.2475
G1 X115.896 Y110.084 F30000
G1 E2.2475 F2400
G92 E0
G1 Z.6 F30000
G1 X114.661 Y107.246
G1 Z.2
G1 E2 F2400
;TYPE:Solid infill
;WIDTH:0.43121
G1 F3661
G1 X113.403 Y106.003 E2.0571
G1 X113.025 Y105.71 E2.07254
G1 X112.623 Y105.453 E2.08794
G1 X112.031 Y105.165 E2.1092
G1 X114.839 Y107.973 E2.23741
G1 X114.985 Y108.357 E2.25067
G1 X115.106 Y108.789 E2.26515
G1 X111.213 Y104.896 E2.4429
G1 X110.831 Y104.817 E2.45549
G1 X110.553 Y104.785 E2.46452
G1 X115.215 Y109.447 E2.67739
G1 X115.244 Y109.759 E2.68751
G1 X115.244 Y110.025 E2.6961
G1 X109.973 Y104.754 E2.93677
G1 X109.451 Y104.781 E2.95365
G1 X115.216 Y110.546 E3.21688
G1 X115.144 Y111.023 E3.23246
G1 X108.974 Y104.854 E3.51416
G1 X108.534 Y104.962 E3.52879
G1 X115.035 Y111.464 E3.82565
G1 X114.897 Y111.875 E3.83965
G1 X108.124 Y105.102 E4.1489
G1 X107.741 Y105.268 E4.16238
G1 X114.732 Y112.259 E4.48159
G1 X114.544 Y112.62 E4.49473
G1 X107.381 Y105.457 E4.82179
G1 X107.043 Y105.669 E4.83467
G1 X114.334 Y112.959 E5.16755
G1 X114.1 Y113.274 E5.18022
G1 X106.726 Y105.9 E5.51692
G1 X106.43 Y106.153 E5.52949
G1 X113.844 Y113.568 E5.86804
G1 X113.569 Y113.842 E5.88057
G1 X106.157 Y106.43 E6.219
G1 X105.904 Y106.726 E6.23157
G1 X113.275 Y114.096 E6.56811
G1 X112.96 Y114.331 E6.5808
G1 X105.671 Y107.041 E6.91364
G1 X105.458 Y107.378 E6.92651
G1 X112.625 Y114.545 E7.25375
G1 X112.264 Y114.733 E7.26689
G1 X105.267 Y107.736 E7.58637
G1 X105.1 Y108.118 E7.59983
G1 X111.879 Y114.897 E7.90936
G1 X111.467 Y115.035 E7.92339
G1 X104.963 Y108.53 E8.22039
G1 X104.856 Y108.972 E8.23507
G1 X111.026 Y115.143 E8.51681
G1 X110.549 Y115.215 E8.53239
G1 X104.783 Y109.448 E8.79569
G1 X104.752 Y109.967 E8.81248
G1 X110.03 Y115.244 E9.05345
G1 X109.455 Y115.219 E9.07203
G1 X104.782 Y110.546 E9.2854
G1 X104.837 Y110.949 E9.29853
G1 X104.898 Y111.211 E9.30722
G1 X108.79 Y115.103 E9.48493
G1 X108.467 Y115.02 E9.4957
G1 X107.982 Y114.844 E9.51236
G1 X105.163 Y112.025 E9.64108
G1 X105.287 Y112.31 E9.65111
G1 X105.516 Y112.729 E9.66653
G1 X105.783 Y113.126 E9.68198
G1 X106.083 Y113.494 E9.69731
G1 X107.254 Y114.666 E9.7508
;LAYER_CHANGE
;Z:0.4
;HEIGHT:0.2
G1 Z.4 F30000
M140 S100 ; set bed temperature
G1 E7.7508 F2400
G92 E0
G1 X107.254 Y114.666 Z.8 F30000
G1 X115.465 Y109.725
G1 Z.4
G1 E2 F2400
G92 E0
;TYPE:Perimeter
;WIDTH:0.449999
G1 F2605
G1 X115.481 Y109.993 E.00909
G1 X115.459 Y110.492 E.026
G1 X115.392 Y110.988 E.04294
G1 X115.213 Y111.712 E.06818
G1 X115.03 Y112.193 E.0856
G1 X114.681 Y112.852 E.11084
G1 X114.401 Y113.268 E.12781
G1 X113.919 Y113.84 E.15313
G1 X113.356 Y114.334 E.17848
G1 X112.737 Y114.756 E.20384
G1 X112.082 Y115.071 E.22844
G1 X111.605 Y115.241 E.24558
G1 X111.12 Y115.366 E.26253
G1 X110.382 Y115.474 E.28778
G1 X109.868 Y115.485 E.30518
G1 X109.125 Y115.411 E.33045
G1 X108.635 Y115.309 E.34739
G1 X107.922 Y115.079 E.37275
G1 X107.272 Y114.754 E.39735
G1 X106.844 Y114.482 E.41452
G1 X106.26 Y114.015 E.43983
G1 X105.752 Y113.464 E.4652
G1 X105.315 Y112.857 E.49052
G1 X104.975 Y112.19 E.51586
G1 X104.718 Y111.487 E.5412
G1 X104.571 Y110.755 E.56647
G1 X104.524 Y110.244 E.58384
G1 X104.536 Y109.494 E.60923
G1 X104.659 Y108.769 E.63412
G1 X104.87 Y108.052 E.65942
G1 X105.189 Y107.373 E.68481
G1 X105.448 Y106.946 E.70171
G1 X105.901 Y106.352 E.727
G1 X106.26 Y105.985 E.74438
G1 X106.843 Y105.519 E.76964
G1 X107.265 Y105.249 E.7866
G1 X107.935 Y104.916 E.81193
G1 X108.648 Y104.688 E.83727
G1 X109.384 Y104.548 E.86263
G1 X110.119 Y104.52 E.88753
G1 X110.618 Y104.554 E.90446
G1 X111.353 Y104.682 E.92971
G1 X111.844 Y104.832 E.94709
G1 X112.528 Y105.137 E.97244
G1 X113.17 Y105.521 E.99776
G1 X113.746 Y105.999 E1.0231
G1 X114.261 Y106.542 E1.04843
G1 X114.684 Y107.152 E1.07356
G1 X115.03 Y107.808 E1.09866
G1 X115.276 Y108.515 E1.124
G1 X115.435 Y109.246 E1.14932
G1 X115.461 Y109.665 E1.16353
G1 X115.876 Y109.724 F30000
;TYPE:External perimeter
G1 F2605
G1 X115.888 Y109.993 E1.17264
G1 X115.865 Y110.529 E1.1908
G1 X115.792 Y111.061 E1.20898
G1 X115.673 Y111.58 E1.227
G1 X115.5 Y112.103 E1.24565
G1 X115.285 Y112.598 E1.26392
G1 X115.027 Y113.066 E1.28201
G1 X114.728 Y113.511 E1.30016
G1 X114.389 Y113.926 E1.3183
G1 X114.014 Y114.309 E1.33644
G1 X113.605 Y114.656 E1.3546
G1 X113.161 Y114.968 E1.37297
G1 X112.709 Y115.229 E1.39064
G1 X112.229 Y115.45 E1.40853
G1 X111.724 Y115.631 E1.42669
G1 X111.203 Y115.764 E1.44489
G1 X110.678 Y115.849 E1.46289
G1 X110.128 Y115.887 E1.48155
G1 X109.589 Y115.874 E1.4998
G1 X109.058 Y115.813 E1.51789
G1 X108.533 Y115.703 E1.53605
G1 X108.014 Y115.543 E1.55443
G1 X107.532 Y115.346 E1.57206
G1 X107.062 Y115.103 E1.58997
G1 X106.61 Y114.815 E1.60811
G1 X106.186 Y114.487 E1.62625
G1 X105.794 Y114.121 E1.6444
G1 X105.437 Y113.722 E1.66252
G1 X105.117 Y113.291 E1.68069
G1 X104.838 Y112.834 E1.69881
G1 X104.602 Y112.352 E1.71698
G1 X104.41 Y111.851 E1.73514
G1 X104.265 Y111.334 E1.75332
G1 X104.168 Y110.811 E1.77132
G1 X104.118 Y110.263 E1.78995
G1 X104.118 Y109.717 E1.80843
G1 X104.166 Y109.198 E1.82607
G1 X104.262 Y108.678 E1.84397
G1 X104.406 Y108.162 E1.8621
G1 X104.596 Y107.66 E1.88027
G1 X104.832 Y107.178 E1.89844
G1 X105.11 Y106.719 E1.9166
G1 X105.426 Y106.291 E1.93461
G1 X105.793 Y105.88 E1.95326
G1 X106.188 Y105.512 E1.97153
G1 X106.611 Y105.185 E1.98963
G1 X107.062 Y104.897 E2.00774
G1 X107.538 Y104.651 E2.02588
G1 X108.035 Y104.449 E2.04404
G1 X108.548 Y104.293 E2.06219
G1 X109.08 Y104.184 E2.08057
G1 X109.598 Y104.125 E2.09822
G1 X110.127 Y104.113 E2.11613
G1 X110.663 Y104.149 E2.13431
G1 X111.189 Y104.233 E2.15234
G1 X111.723 Y104.37 E2.171
G1 X112.231 Y104.55 E2.18924
G1 X112.716 Y104.775 E2.20734
G1 X113.18 Y105.044 E2.22549
G1 X113.617 Y105.353 E2.24361
G1 X114.025 Y105.702 E2.26178
G1 X114.399 Y106.085 E2.2799
G1 X114.741 Y106.508 E2.29831
G1 X115.032 Y106.94 E2.31594
G1 X115.285 Y107.404 E2.33383
G1 X115.5 Y107.896 E2.352
G1 X115.668 Y108.404 E2.37011
G1 X115.79 Y108.926 E2.38826
G1 X115.863 Y109.457 E2.4064
G1 X115.873 Y109.664 E2.41341
G1 X115.881 Y110.064 F30000
G1 E.41341 F2400
G92 E0
G1 Z.8 F30000
G1 X107.495 Y105.469
G1 Z.4
G1 E2 F2400
;TYPE:Solid infill
G1 F2605
G1 X105.471 Y107.494 E2.09691
G1 X105.383 Y107.652 E2.10303
;WIDTH:0.41646
G1 X105.295 Y107.811 E2.10867
;WIDTH:0.38292
G1 X105.254 Y107.822 E2.10987
G1 X105.235 Y107.751 E2.11195
G1 X105.306 Y107.77 E2.11403
G1 X105.306 Y107.77 F30000
G1 X104.747 Y109.101
G1 F2605
G1 X104.844 Y108.655 E2.12693
;WIDTH:0.41646
G1 X104.945 Y108.574 E2.13095
;WIDTH:0.449999
G1 X105.047 Y108.494 E2.13534
G1 X108.5 Y105.041 E2.30063
G1 X109.236 Y104.88 E2.32613
G1 X104.88 Y109.236 E2.53465
G1 X104.824 Y109.867 E2.55609
G1 X109.872 Y104.82 E2.79771
G1 X110.428 Y104.839 E2.81654
G1 X104.838 Y110.429 E3.08413
G1 X104.905 Y110.939 E3.10154
G1 X110.935 Y104.908 E3.39022
G1 X111.402 Y105.017 E3.40645
G1 X105.013 Y111.406 E3.71229
G1 X105.156 Y111.838 E3.72769
G1 X111.836 Y105.159 E4.04743
G1 X112.24 Y105.331 E4.06229
G1 X105.33 Y112.24 E4.39304
G1 X105.531 Y112.615 E4.40744
G1 X112.617 Y105.529 E4.74664
G1 X112.968 Y105.754 E4.76075
G1 X105.756 Y112.965 E5.10596
G1 X106.005 Y113.292 E5.11987
G1 X113.293 Y106.004 E5.46874
G1 X113.596 Y106.277 E5.48255
G1 X106.277 Y113.596 E5.83291
G1 X106.57 Y113.878 E5.84667
G1 X113.878 Y106.571 E6.19648
G1 X114.136 Y106.888 E6.21031
G1 X106.886 Y114.138 E6.55736
G1 X107.225 Y114.375 E6.57136
G1 X114.373 Y107.228 E6.91351
G1 X114.584 Y107.592 E6.92775
G1 X107.59 Y114.585 E7.26252
G1 X107.982 Y114.77 E7.27719
G1 X114.77 Y107.982 E7.60213
G1 X114.927 Y108.4 E7.61724
G1 X108.402 Y114.925 E7.92959
G1 X108.853 Y115.05 E7.94543
G1 X115.051 Y108.852 E8.24212
G1 X115.137 Y109.341 E8.25893
G1 X109.342 Y115.137 E8.53636
G1 X109.874 Y115.18 E8.55443
G1 X115.176 Y109.878 E8.80823
G1 X115.154 Y110.476 E8.82849
G1 X110.474 Y115.156 E9.05252
G1 X111.16 Y115.045 E9.07604
G1 X115.051 Y111.155 E9.26228
G1 X114.991 Y111.709 E9.28114
;WIDTH:0.38292
G1 X114.92 Y111.69 E9.28322
G1 X114.939 Y111.761 E9.2853
G1 X114.98 Y111.75 E9.2865
;WIDTH:0.41646
G1 X114.877 Y111.879 E9.29163
;WIDTH:0.449999
G1 X114.774 Y112.008 E9.29722
G1 X112.012 Y114.769 E9.42941
G1 X111.883 Y114.876 E9.43508
;WIDTH:0.41646
G1 X111.754 Y114.982 E9.44027
;WIDTH:0.38292
G1 X111.713 Y114.993 E9.44147
G1 X111.694 Y114.922 E9.44355
G1 X111.765 Y114.941 E9.44563
G1 X111.765 Y114.941 F30000
G1 X113.011 Y114.277
;WIDTH:0.428358
G1 F2605
G1 X113.708 Y113.634 E9.47602
G1 X114.344 Y112.93 E9.50643
;LAYER_CHANGE
;Z:0.6
;HEIGHT:0.2
G1 Z.6 F30000
G1 E7.50643 F2400
G92 E0
G1 X114.344 Y112.93 Z1 F30000
G1 X115.467 Y109.753
G1 Z.6
G1 E2 F2400
G92 E0
;TYPE:Perimeter
;WIDTH:0.449999
G1 F2628
G1 X115.481 Y109.988 E.00797
G1 X115.46 Y110.484 E.02477
G1 X115.388 Y111.002 E.04247
G1 X115.207 Y111.73 E.06786
G1 X115.028 Y112.197 E.08479
G1 X114.69 Y112.837 E.10929
G1 X114.412 Y113.253 E.12623
G1 X113.932 Y113.827 E.15156
G1 X113.37 Y114.323 E.17693
G1 X112.753 Y114.746 E.20225
G1 X112.08 Y115.072 E.22756
G1 X111.608 Y115.24 E.24452
G1 X111.123 Y115.365 E.26147
G1 X110.386 Y115.473 E.28668
G1 X109.863 Y115.485 E.30439
G1 X109.118 Y115.41 E.32973
G1 X108.389 Y115.245 E.35503
G1 X107.692 Y114.972 E.38037
G1 X107.034 Y114.616 E.40569
