; generated by PrusaSlicer 2.8.0+win64 on 2024-07-15 at 19:33:01 UTC


;
;
; 

; external perimeters extrusion width = 0.45mm
; perimeters extrusion width = 0.45mm
; infill extrusion width = 0.45mm
; solid infill extrusion width = 0.45mm
; top infill extrusion width = 0.40mm
; support material extrusion width = 0.35mm
; first layer extrusion width = 0.42mm

;TYPE:Custom
M82 ;absolute extrusion mode
M140 S0
M104 S0 
START_PRINT EXTRUDER_TEMP=260 BED_TEMP=100
G92 E0
G92 E0
G1 F2400 E-0.5
G21 ; set units to millimeters
G90 ; use absolute coordinates
M82 ; use absolute distances for extrusion
G92 E0
; Filament gcode
M107
;LAYER_CHANGE
;Z:0.2
;HEIGHT:0.2
G1 E-2 F2400
G1 Z.6 F30000
G92 E0
G1 X112.421 Y110.831
G1 Z.2
G1 E2 F2400
G92 E0
;TYPE:Perimeter
;WIDTH:0.419999
G1 F2692
G1 X112.378 Y110.982 E.00492
G1 X112.262 Y111.25 E.01408
G1 X111.89 Y111.762 E.03392
G1 X111.318 Y112.212 E.05674
G1 X111.071 Y112.347 E.06557
G1 X110.494 Y112.535 E.0846
G1 X109.73 Y112.562 E.10857
G1 X109.453 Y112.515 E.11738
G1 X108.911 Y112.339 E.13525
G1 X108.247 Y111.891 E.16036
G1 X107.744 Y111.25 E.18591
G1 X107.469 Y110.491 E.21122
G1 X107.418 Y109.948 E.22832
G1 X107.516 Y109.321 E.24822
G1 X107.609 Y109.055 E.25706
G1 X107.864 Y108.555 E.27466
G1 X108.415 Y107.965 E.29997
G1 X108.977 Y107.647 E.32022
G1 X109.29 Y107.519 E.33082
G1 X109.909 Y107.42 E.35047
G1 X110.409 Y107.445 E.36617
G1 X111.071 Y107.653 E.38793
G1 X111.318 Y107.788 E.39676
G1 X111.765 Y108.113 E.41409
G1 X112.262 Y108.75 E.43942
G1 X112.489 Y109.359 E.4598
G1 X112.565 Y109.684 E.47027
G1 X112.565 Y110.316 E.49009
G1 X112.437 Y110.773 E.50497
G1 X112.437 Y110.773 F30000
G1 X112.074 Y110.688
;TYPE:External perimeter
G1 F2692
G1 X112.02 Y110.865 E.51077
G1 X111.957 Y111.029 E.51628
G1 X111.585 Y111.54 E.5361
G1 X111.097 Y111.907 E.55524
G1 X110.955 Y111.988 E.56037
G1 X110.378 Y112.176 E.5794
G1 X109.73 Y112.185 E.59972
G1 X109.224 Y112.045 E.61618
G1 X108.975 Y111.954 E.62449
G1 X108.463 Y111.582 E.64433
G1 X108.049 Y111.029 E.66599
G1 X107.827 Y110.375 E.68764
G1 X107.795 Y109.971 E.70035
G1 X107.894 Y109.346 E.72019
G1 X108.2 Y108.726 E.74187
G1 X108.682 Y108.231 E.76353
G1 X109.149 Y107.983 E.78011
G1 X109.349 Y107.891 E.78701
G1 X109.968 Y107.793 E.80666
G1 X110.378 Y107.824 E.81955
G1 X110.979 Y108.02 E.83937
G1 X111.585 Y108.46 E.86285
G1 X111.957 Y108.972 E.88269
G1 X112.188 Y109.684 E.90616
G1 X112.188 Y110.316 E.92598
G1 X112.092 Y110.631 E.93631
G1 X111.954 Y111.006 F30000
G1 E-1.06369 F2400
G92 E0
G1 Z.6 F30000
G1 X113.296 Y114.276
G1 Z.2
G1 E2 F2400
;TYPE:Perimeter
G1 F2692
G1 X112.973 Y114.522 E2.01273
G1 X112.493 Y114.806 E2.03022
G1 X111.985 Y115.034 E2.04768
G1 X111.167 Y115.283 E2.07449
G1 X110.618 Y115.377 E2.09195
G1 X110.068 Y115.409 E2.10922
G1 X109.302 Y115.362 E2.13328
G1 X108.725 Y115.257 E2.15167
G1 X108.191 Y115.1 E2.16912
G1 X107.677 Y114.884 E2.1866
G1 X107.157 Y114.598 E2.20521
G1 X106.544 Y114.159 E2.22885
G1 X106.133 Y113.783 E2.24632
G1 X105.766 Y113.364 E2.26378
G1 X105.289 Y112.654 E2.2906
G1 X105.039 Y112.156 E2.30807
G1 X104.848 Y111.64 E2.32532
G1 X104.677 Y110.929 E2.34825
G1 X104.602 Y110.31 E2.3678
G1 X104.596 Y109.754 E2.38523
G1 X104.653 Y109.199 E2.40272
G1 X104.819 Y108.462 E2.42641
G1 X105.016 Y107.904 E2.44496
G1 X105.256 Y107.401 E2.46243
G1 X105.55 Y106.929 E2.47987
G1 X105.909 Y106.469 E2.49817
G1 X106.446 Y105.925 E2.52214
G1 X106.882 Y105.578 E2.53961
G1 X107.354 Y105.283 E2.55706
G1 X108.131 Y104.924 E2.5839
G1 X108.662 Y104.757 E2.60135
G1 X109.209 Y104.649 E2.61883
G1 X109.921 Y104.594 E2.64122
G1 X110.549 Y104.618 E2.66092
G1 X111.105 Y104.701 E2.67855
G1 X111.643 Y104.845 E2.69601
G1 X112.341 Y105.124 E2.71958
G1 X112.864 Y105.408 E2.73824
G1 X113.322 Y105.725 E2.7557
G1 X113.742 Y106.091 E2.77317
G1 X114.135 Y106.511 E2.7912
G1 X114.591 Y107.134 E2.81541
G1 X114.864 Y107.62 E2.83289
G1 X115.081 Y108.133 E2.85035
G1 X115.311 Y108.957 E2.87717
G1 X115.393 Y109.508 E2.89464
G1 X115.413 Y110.065 E2.91212
G1 X115.396 Y110.428 E2.92351
G1 X115.326 Y110.98 E2.94096
G1 X115.194 Y111.522 E2.95845
G1 X114.913 Y112.268 E2.98344
G1 X114.659 Y112.755 E3.00066
G1 X114.353 Y113.221 E3.01814
G1 X113.997 Y113.649 E3.0356
G1 X113.516 Y114.11 E3.05649
G1 X113.344 Y114.24 E3.06325
G1 X113.344 Y114.24 F30000
G1 X113.547 Y114.571
;TYPE:External perimeter
G1 F2692
G1 X113.487 Y114.621 E3.0657
G1 X113.052 Y114.918 E3.08221
G1 X112.593 Y115.175 E3.0987
G1 X112.111 Y115.389 E3.11524
G1 X111.612 Y115.558 E3.13176
G1 X111.101 Y115.682 E3.14825
G1 X110.577 Y115.758 E3.16485
G1 X110.06 Y115.786 E3.18108
G1 X109.526 Y115.767 E3.19783
G1 X109.005 Y115.7 E3.2143
G1 X108.49 Y115.585 E3.23085
G1 X107.988 Y115.425 E3.24737
G1 X107.504 Y115.219 E3.26386
G1 X107.039 Y114.97 E3.2804
G1 X106.599 Y114.68 E3.29692
G1 X106.183 Y114.346 E3.31365
G1 X105.809 Y113.986 E3.32993
G1 X105.463 Y113.588 E3.34647
G1 X105.156 Y113.16 E3.36298
G1 X104.889 Y112.707 E3.37947
G1 X104.664 Y112.23 E3.39601
G1 X104.485 Y111.742 E3.41231
G1 X104.348 Y111.225 E3.42908
G1 X104.255 Y110.659 E3.44706
G1 X104.219 Y110.155 E3.4629
G1 X104.227 Y109.655 E3.47858
G1 X104.282 Y109.131 E3.4951
G1 X104.385 Y108.614 E3.51163
G1 X104.534 Y108.11 E3.52811
G1 X104.729 Y107.62 E3.54465
G1 X104.967 Y107.15 E3.56117
G1 X105.247 Y106.704 E3.57768
G1 X105.562 Y106.291 E3.59397
G1 X105.924 Y105.896 E3.61077
G1 X106.313 Y105.543 E3.62724
G1 X106.733 Y105.226 E3.64374
G1 X107.181 Y104.948 E3.66027
G1 X107.652 Y104.712 E3.67679
G1 X108.142 Y104.521 E3.69328
G1 X108.648 Y104.374 E3.7098
G1 X109.166 Y104.274 E3.72634
G1 X109.69 Y104.222 E3.74285
G1 X110.216 Y104.217 E3.75934
G1 X110.752 Y104.263 E3.77621
G1 X111.261 Y104.352 E3.79241
G1 X111.769 Y104.489 E3.80891
G1 X112.286 Y104.683 E3.82622
G1 X112.737 Y104.9 E3.84191
G1 X113.19 Y105.17 E3.85844
G1 X113.616 Y105.48 E3.87496
G1 X114.012 Y105.827 E3.89147
G1 X114.375 Y106.209 E3.90799
G1 X114.702 Y106.622 E3.92451
G1 X114.989 Y107.063 E3.94101
G1 X115.236 Y107.529 E3.95755
G1 X115.439 Y108.015 E3.97406
G1 X115.595 Y108.511 E3.99036
G1 X115.708 Y109.033 E4.00711
G1 X115.773 Y109.555 E4.0236
G1 X115.789 Y110.082 E4.04013
G1 X115.758 Y110.607 E4.05662
G1 X115.679 Y111.128 E4.07314
G1 X115.553 Y111.64 E4.08967
G1 X115.38 Y112.138 E4.1062
G1 X115.164 Y112.617 E4.12268
G1 X114.898 Y113.085 E4.13956
G1 X114.604 Y113.509 E4.15574
G1 X114.266 Y113.913 E4.17226
G1 X113.877 Y114.298 E4.18942
G1 X113.593 Y114.532 E4.20096
G1 X113.27 Y114.767 F30000
G1 E2.20096 F2400
G92 E0
G1 Z.6 F30000
G1 X112.689 Y105.438
G1 Z.2
G1 E2 F2400
;TYPE:Solid infill
;WIDTH:0.42265
G1 F2692
G1 X113.83 Y106.585 E2.05108
G1 X114.125 Y106.947 E2.06582
G1 X114.386 Y107.335 E2.08058
G1 X114.61 Y107.745 E2.09533
G1 X114.726 Y108.012 E2.10452
G1 X111.985 Y105.272 E2.22689
G1 X111.499 Y105.094 E2.24323
G1 X111.192 Y105.015 E2.25324
G1 X114.987 Y108.81 E2.4227
G1 X115.048 Y109.071 E2.43116
G1 X115.101 Y109.461 E2.44359
G1 X110.541 Y104.901 E2.64721
G1 X109.981 Y104.878 E2.66491
G1 X115.131 Y110.028 E2.89487
G1 X115.102 Y110.536 E2.91094
G1 X109.47 Y104.904 E3.16243
G1 X109.003 Y104.974 E3.17734
G1 X115.031 Y111.002 E3.44651
G1 X114.926 Y111.434 E3.46055
G1 X112.744 Y109.253 E3.55796
G1 X112.841 Y109.566 E3.56831
G1 X112.844 Y109.889 E3.57851
G1 X114.791 Y111.837 E3.66547
G1 X114.621 Y112.203 E3.67821
G1 X112.835 Y110.417 E3.75796
G1 X112.809 Y110.573 E3.76295
G1 X112.718 Y110.837 E3.77177
G1 X114.442 Y112.562 E3.84877
G1 X114.234 Y112.89 E3.86103
G1 X112.58 Y111.237 E3.93486
G1 X112.551 Y111.323 E3.93773
G1 X112.375 Y111.569 E3.94728
G1 X114.006 Y113.199 E4.02009
G1 X113.758 Y113.489 E4.03214
G1 X112.152 Y111.882 E4.10388
G1 X111.883 Y112.15 E4.11587
G1 X113.492 Y113.759 E4.18772
G1 X113.202 Y114.006 E4.19975
G1 X111.569 Y112.373 E4.27267
G1 X111.316 Y112.553 E4.28247
G1 X111.238 Y112.58 E4.28508
G1 X112.892 Y114.233 E4.35891
G1 X112.561 Y114.44 E4.37124
G1 X110.838 Y112.716 E4.4482
G1 X110.577 Y112.805 E4.45691
G1 X110.42 Y112.836 E4.46196
G1 X112.21 Y114.625 E4.54187
G1 X111.835 Y114.787 E4.55477
G1 X109.892 Y112.845 E4.64151
G1 X109.68 Y112.845 E4.6482
G1 X109.431 Y112.806 E4.65616
G1 X109.257 Y112.747 E4.66196
G1 X111.571 Y115.061 E4.76529
G1 E2.76529 F2400
G92 E0
G1 X111.571 Y115.061 Z.6 F30000
G1 X111.006 Y107.515
G1 Z.2
G1 E2 F2400
G1 F2692
G1 X108.571 Y105.08 E2.10873
G1 X108.169 Y105.214 E2.12211
G1 X110.09 Y107.136 E2.20791
G1 X109.886 Y107.138 E2.21435
G1 X109.603 Y107.185 E2.22341
G1 X107.792 Y105.375 E2.30425
G1 X107.439 Y105.558 E2.3168
G1 X109.144 Y107.263 E2.39293
G1 X108.78 Y107.437 E2.40567
G1 X107.111 Y105.767 E2.48022
G1 X106.804 Y105.997 E2.49233
G1 X108.421 Y107.614 E2.56453
G1 X108.221 Y107.759 E2.57233
G1 X108.125 Y107.855 E2.57662
G1 X106.516 Y106.246 E2.64847
G1 X106.336 Y106.414 E2.65624
G1 X106.247 Y106.514 E2.66047
G1 X107.857 Y108.124 E2.73236
G1 X107.736 Y108.245 E2.73776
G1 X107.615 Y108.42 E2.74448
G1 X105.996 Y106.801 E2.81677
G1 X105.768 Y107.109 E2.82887
G1 X107.44 Y108.781 E2.90353
G1 X107.264 Y109.142 E2.91621
G1 X105.562 Y107.441 E2.99219
G1 X105.378 Y107.794 E3.00476
G1 X107.188 Y109.604 E3.08558
G1 X107.136 Y109.926 E3.09588
G1 X107.145 Y110.098 E3.10132
G1 X105.217 Y108.17 E3.18741
G1 X105.082 Y108.572 E3.2008
G1 X107.525 Y111.015 E3.30989
G1 E1.30989 F2400
G92 E0
G1 X107.525 Y111.015 Z.6 F30000
G1 X104.831 Y108.857
G1 Z.2
G1 E2 F2400
G1 F2692
G1 X111.003 Y115.029 E2.2756
G1 X110.536 Y115.099 E2.29051
G1 X104.906 Y109.47 E2.54189
G1 X104.879 Y109.98 E2.55802
G1 X110.025 Y115.125 E2.78778
G1 X109.457 Y115.095 E2.80574
G1 X104.908 Y110.545 E3.00889
G1 X105.015 Y111.19 E3.02953
G1 X108.811 Y114.986 E3.19903
G1 X108.285 Y114.833 E3.21633
G1 X108.009 Y114.72 E3.22575
G1 X105.278 Y111.99 E3.34768
G1 X105.504 Y112.463 E3.36423
G1 X105.746 Y112.862 E3.37896
G1 X106.024 Y113.237 E3.3937
G1 X106.322 Y113.571 E3.40783
G1 X107.317 Y114.566 E3.45226
;LAYER_CHANGE
;Z:0.4
;HEIGHT:0.2
G1 Z.4 F30000
M140 S100 ; set bed temperature
G1 E1.45226 F2400
G92 E0
G1 X107.317 Y114.566 Z.8 F30000
G1 X112.472 Y110.853
G1 Z.4
G1 E2 F2400
G92 E0
;TYPE:Perimeter
;WIDTH:0.449999
G1 F2516
G1 X112.355 Y111.127 E.01008
G1 X112.112 Y111.574 E.0273
G1 X111.623 Y112.067 E.0508
G1 X111.211 Y112.311 E.06701
G1 X110.723 Y112.526 E.08506
G1 X110.099 Y112.625 E.10645
G1 X109.586 Y112.574 E.1239
G1 X109.101 Y112.467 E.14071
G1 X108.538 Y112.18 E.1621
G1 X107.919 Y111.603 E.19074
G1 X107.569 Y110.965 E.21537
G1 X107.472 Y110.686 E.22537
G1 X107.379 Y110.096 E.24559
G1 X107.472 Y109.314 E.27225
G1 X107.569 Y109.035 E.28225
G1 X107.824 Y108.535 E.30125
G1 X108.127 Y108.188 E.31684
G1 X108.538 Y107.82 E.33551
G1 X109.101 Y107.533 E.3569
G1 X109.89 Y107.377 E.38412
G1 X110.414 Y107.4 E.40187
G1 X111.085 Y107.61 E.42567
G1 X111.345 Y107.752 E.4357
G1 X111.791 Y108.076 E.45436
G1 X112.145 Y108.471 E.47231
G1 X112.47 Y109.098 E.49621
G1 X112.619 Y109.852 E.52223
G1 X112.619 Y110.148 E.53225
G1 X112.529 Y110.72 E.55185
G1 X112.496 Y110.798 E.55472
G1 X112.496 Y110.798 F30000
G1 X112.11 Y110.702
;TYPE:External perimeter
G1 F2516
G1 X112.107 Y110.717 E.55524
G1 X111.82 Y111.281 E.57666
G1 X111.284 Y111.817 E.60232
G1 X110.718 Y112.105 E.62382
G1 X110.177 Y112.2 E.64241
G1 X109.971 Y112.223 E.64943
G1 X109.347 Y112.124 E.67082
G1 X108.671 Y111.779 E.69651
G1 X108.218 Y111.326 E.71819
G1 X107.931 Y110.78 E.73907
G1 X107.874 Y110.622 E.74476
G1 X107.781 Y110.032 E.76498
G1 X107.874 Y109.378 E.78734
G1 X108.096 Y108.896 E.8053
G1 X108.224 Y108.668 E.81415
G1 X108.671 Y108.221 E.83555
G1 X109.346 Y107.876 E.86121
G1 X109.955 Y107.779 E.88208
G1 X110.382 Y107.81 E.89657
G1 X110.984 Y108.005 E.91799
G1 X111.399 Y108.295 E.93513
G1 X111.634 Y108.493 E.94553
G1 X111.828 Y108.734 E.956
G1 X112.107 Y109.283 E.97684
G1 X112.217 Y109.916 E.99859
G1 X112.161 Y110.443 E1.01653
G1 X112.122 Y110.643 E1.02343
G1 X111.956 Y111.007 F30000
G1 E-.97657 F2400
G92 E0
G1 Z.8 F30000
G1 X113.273 Y114.249
G1 Z.4
G1 E2 F2400
;TYPE:Perimeter
G1 F2516
G1 X112.896 Y114.521 E2.01574
G1 X112.415 Y114.792 E2.03443
G1 X111.747 Y115.071 E2.05893
G1 X111.156 Y115.239 E2.07973
G1 X110.613 Y115.333 E2.09838
G1 X110.063 Y115.364 E2.11703
G1 X109.537 Y115.343 E2.13485
G1 X108.789 Y115.224 E2.16049
G1 X108.265 Y115.076 E2.17892
G1 X107.753 Y114.873 E2.19756
G1 X107.267 Y114.614 E2.2162
G1 X106.766 Y114.275 E2.23668
G1 X106.211 Y113.795 E2.26152
G1 X105.851 Y113.4 E2.27961
G1 X105.548 Y112.994 E2.29676
G1 X105.267 Y112.521 E2.31538
G1 X104.957 Y111.816 E2.34145
G1 X104.791 Y111.272 E2.3607
G1 X104.686 Y110.731 E2.37935
G1 X104.641 Y110.182 E2.398
G1 X104.659 Y109.565 E2.41889
G1 X104.763 Y108.85 E2.44335
G1 X104.906 Y108.318 E2.462
G1 X105.108 Y107.805 E2.48066
G1 X105.517 Y107.059 E2.50946
G1 X105.84 Y106.613 E2.5281
G1 X106.211 Y106.205 E2.54677
G1 X106.766 Y105.725 E2.57161
G1 X107.267 Y105.386 E2.59209
G1 X107.753 Y105.127 E2.61073
G1 X108.265 Y104.924 E2.62937
G1 X108.785 Y104.777 E2.64766
G1 X109.575 Y104.652 E2.67473
G1 X110.125 Y104.634 E2.69336
G1 X110.673 Y104.678 E2.71197
G1 X111.271 Y104.79 E2.73256
G1 X111.97 Y105.009 E2.75735
G1 X112.472 Y105.234 E2.77597
G1 X112.947 Y105.515 E2.79465
G1 X113.486 Y105.924 E2.81755
G1 X113.914 Y106.331 E2.83754
G1 X114.277 Y106.757 E2.85648
G1 X114.589 Y107.211 E2.87513
G1 X114.849 Y107.697 E2.89379
G1 X115.098 Y108.329 E2.91678
G1 X115.267 Y108.967 E2.93912
G1 X115.348 Y109.512 E2.95777
G1 X115.368 Y110.062 E2.9764
G1 X115.34 Y110.55 E2.99295
G1 X115.185 Y111.387 E3.02176
G1 X115.018 Y111.912 E3.04041
G1 X114.793 Y112.415 E3.05906
G1 X114.412 Y113.053 E3.08421
G1 X114.104 Y113.455 E3.10135
G1 X113.721 Y113.867 E3.12039
G1 X113.343 Y114.198 E3.1374
G1 X113.322 Y114.214 E3.13829
G1 X113.322 Y114.214 F30000
G1 X113.537 Y114.559
;TYPE:External perimeter
G1 F2516
G1 X113.476 Y114.61 E3.14098
G1 X113.045 Y114.905 E3.15866
G1 X112.586 Y115.161 E3.17645
G1 X112.106 Y115.375 E3.19424
G1 X111.609 Y115.544 E3.21201
G1 X111.098 Y115.667 E3.2298
G1 X110.578 Y115.743 E3.24759
G1 X110.054 Y115.771 E3.26535
G1 X109.529 Y115.752 E3.28313
G1 X109.007 Y115.685 E3.30094
G1 X108.495 Y115.571 E3.31869
G1 X107.994 Y115.411 E3.33649
G1 X107.51 Y115.206 E3.35428
G1 X107.047 Y114.957 E3.37207
G1 X106.609 Y114.668 E3.38983
G1 X106.197 Y114.339 E3.40768
G1 X105.819 Y113.976 E3.42542
G1 X105.489 Y113.595 E3.44248
G1 X105.16 Y113.139 E3.46151
G1 X104.902 Y112.7 E3.47875
G1 X104.678 Y112.225 E3.49653
G1 X104.497 Y111.732 E3.51431
G1 X104.363 Y111.223 E3.53213
G1 X104.275 Y110.705 E3.54991
G1 X104.234 Y110.182 E3.56767
G1 X104.242 Y109.657 E3.58544
G1 X104.297 Y109.134 E3.60324
G1 X104.399 Y108.619 E3.62101
G1 X104.548 Y108.115 E3.6388
G1 X104.742 Y107.626 E3.65661
G1 X104.98 Y107.158 E3.67438
G1 X105.259 Y106.713 E3.69216
G1 X105.577 Y106.295 E3.70994
G1 X105.933 Y105.908 E3.72774
G1 X106.322 Y105.555 E3.74552
G1 X106.741 Y105.239 E3.76328
G1 X107.188 Y104.962 E3.78108
G1 X107.658 Y104.726 E3.79888
G1 X108.147 Y104.535 E3.81665
G1 X108.651 Y104.389 E3.83441
G1 X109.168 Y104.289 E3.85223
G1 X109.69 Y104.237 E3.86999
G1 X110.215 Y104.232 E3.88776
G1 X110.736 Y104.276 E3.90546
G1 X111.259 Y104.367 E3.92343
G1 X111.764 Y104.504 E3.94114
G1 X112.256 Y104.686 E3.9589
G1 X112.73 Y104.913 E3.97669
G1 X113.182 Y105.182 E3.99449
G1 X113.607 Y105.491 E4.01228
G1 X114.001 Y105.837 E4.03003
G1 X114.363 Y106.218 E4.04782
G1 X114.689 Y106.63 E4.0656
G1 X114.976 Y107.071 E4.08341
G1 X115.222 Y107.535 E4.10119
G1 X115.424 Y108.02 E4.11897
G1 X115.584 Y108.528 E4.137
G1 X115.693 Y109.035 E4.15455
G1 X115.758 Y109.556 E4.17232
G1 X115.774 Y110.081 E4.1901
G1 X115.743 Y110.606 E4.2079
G1 X115.664 Y111.125 E4.22567
G1 X115.538 Y111.635 E4.24345
G1 X115.367 Y112.131 E4.26121
G1 X115.151 Y112.611 E4.27903
G1 X114.883 Y113.082 E4.29737
G1 X114.593 Y113.499 E4.31456
G1 X114.255 Y113.903 E4.33239
G1 X113.897 Y114.259 E4.34948
G1 X113.583 Y114.521 E4.36332
G1 X113.26 Y114.756 F30000
G1 E2.36332 F2400
G92 E0
G1 Z.8 F30000
G1 X106.649 Y106.064
G1 Z.4
G1 E2 F2400
;TYPE:Solid infill
;WIDTH:0.38292
G1 F2516
G1 X105.986 Y106.734 E2.02665
G1 X106.506 Y106.209 E2.04754
G1 X106.506 Y106.209 F30000
G1 X107.564 Y105.569
;WIDTH:0.449999
G1 F2516
