; generated by PrusaSlicer 2.8.0+win64 on 2024-09-05 at 15:14:43 UTC


;
;
; 

; external perimeters extrusion width = 0.45mm
; perimeters extrusion width = 0.45mm
; infill extrusion width = 0.45mm
; solid infill extrusion width = 0.45mm
; top infill extrusion width = 0.40mm
; support material extrusion width = 0.35mm
; first layer extrusion width = 0.42mm

;TYPE:Custom
M82 ;absolute extrusion mode
M140 S0
M104 S0 
START_PRINT EXTRUDER_TEMP=260 BED_TEMP=100
G92 E0
G92 E0
G1 F2400 E-0.5
G21 ; set units to millimeters
G90 ; use absolute coordinates
M82 ; use absolute distances for extrusion
G92 E0
; Filament gcode
M107
;LAYER_CHANGE
;Z:0.2
;HEIGHT:0.2
G1 E-2 F2400
G1 Z.6 F30000
G92 E0
G1 X121.313 Y102.528
G1 Z.2
G1 E2 F2400
G92 E0
;TYPE:Perimeter
;WIDTH:0.419999
G1 F6000
G1 X121.042 Y102.624 E.00901
G1 X120.808 Y102.649 E.01639
G1 X120.307 Y102.583 E.03223
G1 X119.872 Y102.351 E.04769
G1 X119.524 Y101.982 E.06359
G1 X119.326 Y101.491 E.08019
G1 X119.293 Y101.259 E.08754
G1 X119.355 Y100.715 E.10471
G1 X119.553 Y100.321 E.11854
G1 X119.903 Y99.963 E.13424
G1 X120.403 Y99.737 E.15144
G1 X120.635 Y99.697 E.15882
G1 X121.156 Y99.734 E.1752
G1 X121.622 Y99.955 E.19137
G1 X121.77 Y100.08 E.19744
G1 X122.091 Y100.487 E.21369
G1 X122.24 Y100.976 E.22972
G1 X122.25 Y101.185 E.23628
G1 X122.162 Y101.693 E.25245
G1 X121.9 Y102.129 E.2684
G1 X121.52 Y102.454 E.28408
G1 X121.369 Y102.508 E.28911
G1 X121.369 Y102.508 F30000
G1 X121.173 Y102.18
;TYPE:External perimeter
G1 F6000
G1 X120.847 Y102.274 E.29975
G1 X120.403 Y102.216 E.31379
G1 X120.12 Y102.065 E.32385
G1 X119.811 Y101.723 E.3383
G1 X119.669 Y101.285 E.35274
G1 X119.708 Y100.849 E.36647
G1 X119.852 Y100.551 E.37685
G1 X120.184 Y100.231 E.39131
G1 X120.621 Y100.073 E.40588
G1 X121.076 Y100.107 E.42019
G1 X121.482 Y100.323 E.43461
G1 X121.765 Y100.685 E.44902
G1 X121.876 Y101.132 E.46346
G1 X121.796 Y101.585 E.47788
G1 X121.549 Y101.959 E.49193
G1 X121.29 Y102.147 E.50196
G1 X121.231 Y102.164 E.50389
G1 X120.841 Y102.254 F30000
G1 E-1.49611 F2400
G92 E0
G1 Z.6 F30000
G1 X121.318 Y130.406
G1 Z.2
G1 E2 F2400
;TYPE:Perimeter
G1 F6000
G1 X120.965 Y130.524 E2.01167
G1 X120.426 Y130.489 E2.02861
G1 X120.007 Y130.323 E2.04274
G1 X119.849 Y130.208 E2.04887
G1 X119.487 Y129.799 E2.066
G1 X119.307 Y129.308 E2.0824
G1 X119.32 Y128.757 E2.09968
G1 X119.385 Y128.53 E2.10708
G1 X119.638 Y128.086 E2.1231
G1 X119.716 Y128.012 E2.12647
G1 X120.123 Y127.711 E2.14234
G1 X120.601 Y127.576 E2.15791
G1 X121.117 Y127.604 E2.17411
G1 X121.586 Y127.816 E2.19025
G1 X121.77 Y127.96 E2.19758
G1 X122.085 Y128.355 E2.21342
G1 X122.241 Y128.862 E2.23005
G1 X122.249 Y129.065 E2.23642
G1 X122.147 Y129.607 E2.25371
G1 X121.856 Y130.066 E2.27075
G1 X121.499 Y130.346 E2.28498
G1 X121.375 Y130.387 E2.28907
G1 X121.375 Y130.387 F30000
G1 X121.178 Y130.059
;TYPE:External perimeter
G1 F6000
G1 X120.847 Y130.154 E2.29987
G1 X120.403 Y130.096 E2.31391
G1 X120.12 Y129.946 E2.32395
G1 X119.812 Y129.604 E2.33838
G1 X119.669 Y129.166 E2.35283
G1 X119.718 Y128.707 E2.3673
G1 X119.948 Y128.309 E2.38171
G1 X120.308 Y128.042 E2.39576
G1 X120.621 Y127.953 E2.40596
G1 X121.076 Y127.987 E2.42027
G1 X121.482 Y128.203 E2.43469
G1 X121.765 Y128.565 E2.4491
G1 X121.876 Y129.013 E2.46357
G1 X121.796 Y129.465 E2.47796
G1 X121.549 Y129.839 E2.49201
G1 X121.29 Y130.027 E2.50204
G1 X121.235 Y130.043 E2.50384
G1 X120.846 Y130.134 F30000
G1 E.50384 F2400
G92 E0
G1 Z.6 F30000
G1 X150.995 Y135.575
G1 Z.2
G1 E2 F2400
;TYPE:Perimeter
G1 F6000
G1 X150.879 Y135.562 E2.00366
G1 X150.524 Y135.419 E2.01566
G1 X150.329 Y135.288 E2.02303
G1 X150.062 Y135.012 E2.03507
G1 X149.937 Y134.812 E2.04246
G1 X149.776 Y134.326 E2.05851
G1 X149.81 Y133.761 E2.07626
G1 X150.016 Y133.303 E2.09201
G1 X150.381 Y132.924 E2.10851
G1 X150.884 Y132.697 E2.12581
G1 X151.115 Y132.657 E2.13316
G1 X151.495 Y132.671 E2.14508
G1 X151.722 Y132.728 E2.15242
G1 X152.066 Y132.896 E2.16442
G1 X152.251 Y133.041 E2.17179
G1 X152.497 Y133.334 E2.18379
G1 X152.607 Y133.541 E2.19114
G1 X152.735 Y134.065 E2.20805
G1 X152.673 Y134.543 E2.22316
G1 X152.495 Y134.937 E2.23672
G1 X152.09 Y135.348 E2.25481
G1 X151.887 Y135.466 E2.26217
G1 X151.346 Y135.612 E2.27974
G1 X151.055 Y135.581 E2.28892
G1 X151.059 Y135.215 F30000
;TYPE:External perimeter
G1 F6000
G1 X151.02 Y135.213 E2.29014
G1 X150.6 Y135.025 E2.30457
G1 X150.333 Y134.749 E2.31661
G1 X150.15 Y134.281 E2.33237
G1 X150.192 Y133.799 E2.34754
G1 X150.332 Y133.511 E2.35758
G1 X150.664 Y133.191 E2.37204
G1 X151.101 Y133.033 E2.38661
G1 X151.556 Y133.067 E2.40092
G1 X151.962 Y133.283 E2.41534
G1 X152.245 Y133.645 E2.42975
G1 X152.356 Y134.091 E2.44416
G1 X152.283 Y134.534 E2.45824
G1 X152.122 Y134.811 E2.46829
G1 X151.77 Y135.107 E2.48271
G1 X151.34 Y135.235 E2.49678
G1 X151.119 Y135.219 E2.50373
G1 X150.742 Y135.084 F30000
G1 E.50373 F2400
G92 E0
G1 Z.6 F30000
G1 X146.197 Y86.561
G1 Z.2
G1 E2 F2400
;TYPE:Perimeter
G1 F6000
G1 X146.086 Y86.767 E2.00734
G1 X145.67 Y87.141 E2.02488
G1 X145.171 Y87.325 E2.04156
G1 X144.937 Y87.349 E2.04894
G1 X144.423 Y87.278 E2.06521
G1 X143.98 Y87.032 E2.0811
G1 X143.654 Y86.68 E2.09614
G1 X143.607 Y86.6 E2.09905
G1 X143.436 Y86.126 E2.11485
G1 X143.45 Y85.576 E2.1321
G1 X143.515 Y85.351 E2.13944
G1 X143.694 Y85.013 E2.15143
G1 X143.845 Y84.833 E2.1588
G1 X144.323 Y84.503 E2.17701
G1 X144.765 Y84.397 E2.19126
G1 X145.145 Y84.411 E2.20318
G1 X145.372 Y84.468 E2.21052
G1 X145.716 Y84.636 E2.22252
G1 X145.901 Y84.781 E2.22989
G1 X146.147 Y85.074 E2.24189
G1 X146.257 Y85.281 E2.24924
G1 X146.385 Y85.806 E2.26618
G1 X146.303 Y86.362 E2.2838
G1 X146.225 Y86.508 E2.28899
G1 X145.868 Y86.385 F30000
;TYPE:External perimeter
G1 F6000
G1 X145.769 Y86.555 E2.29516
G1 X145.418 Y86.848 E2.3095
G1 X144.977 Y86.974 E2.32388
G1 X144.522 Y86.91 E2.33829
G1 X144.138 Y86.676 E2.35239
G1 X143.947 Y86.436 E2.36201
G1 X143.799 Y85.984 E2.37692
G1 X143.848 Y85.528 E2.3913
G1 X144.077 Y85.13 E2.4057
G1 X144.438 Y84.862 E2.4198
G1 X144.751 Y84.773 E2.43
G1 X145.206 Y84.807 E2.44431
G1 X145.612 Y85.023 E2.45873
G1 X145.895 Y85.385 E2.47314
G1 X146.006 Y85.831 E2.48755
G1 X145.932 Y86.274 E2.50163
G1 X145.898 Y86.333 E2.50377
G1 X145.646 Y86.644 F30000
G1 E.50377 F2400
G92 E0
G1 Z.6 F30000
G1 X71.025 Y86.889
G1 Z.2
G1 E2 F2400
;TYPE:Perimeter
G1 F6000
G1 X70.76 Y87.128 E2.01119
G1 X70.24 Y87.325 E2.02863
G1 X70.006 Y87.349 E2.03601
G1 X69.519 Y87.287 E2.0514
G1 X69.071 Y87.045 E2.06737
G1 X68.756 Y86.723 E2.08149
G1 X68.526 Y86.193 E2.09961
G1 X68.493 Y85.96 E2.10699
G1 X68.52 Y85.578 E2.119
G1 X68.584 Y85.351 E2.12639
G1 X68.854 Y84.888 E2.1432
G1 X69.243 Y84.581 E2.15874
G1 X69.716 Y84.405 E2.17456
G1 X70.215 Y84.411 E2.19021
G1 X70.442 Y84.468 E2.19755
G1 X70.786 Y84.636 E2.20955
G1 X70.972 Y84.781 E2.21694
G1 X71.218 Y85.075 E2.22896
G1 X71.328 Y85.282 E2.23631
G1 X71.454 Y85.778 E2.25236
G1 X71.38 Y86.34 E2.27013
G1 X71.146 Y86.779 E2.28573
G1 X71.069 Y86.848 E2.28897
G1 X71.069 Y86.848 F30000
G1 X70.753 Y86.627
;TYPE:External perimeter
G1 F6000
G1 X70.488 Y86.848 E2.29979
G1 X70.124 Y86.966 E2.31179
G1 X69.63 Y86.927 E2.32733
G1 X69.209 Y86.676 E2.3427
G1 X69.012 Y86.424 E2.35273
G1 X68.869 Y85.986 E2.36718
G1 X68.917 Y85.528 E2.38162
G1 X69.138 Y85.137 E2.3957
G1 X69.384 Y84.931 E2.40576
G1 X69.821 Y84.773 E2.42033
G1 X70.276 Y84.807 E2.43464
G1 X70.682 Y85.023 E2.44906
G1 X70.965 Y85.386 E2.46349
G1 X71.076 Y85.832 E2.4779
G1 X71.002 Y86.274 E2.49195
G1 X70.839 Y86.555 E2.50214
G1 X70.799 Y86.588 E2.50377
G1 X70.481 Y86.83 F30000
G1 E.50377 F2400
G92 E0
G1 Z.6 F30000
G1 X67.754 Y135.29
G1 Z.2
G1 E2 F2400
;TYPE:Perimeter
G1 F6000
G1 X67.53 Y135.083 E2.00956
G1 X67.327 Y134.766 E2.02136
G1 X67.199 Y134.357 E2.0348
G1 X67.187 Y134.033 E2.04497
G1 X67.26 Y133.663 E2.05679
G1 X67.423 Y133.324 E2.06858
G1 X67.666 Y133.036 E2.08039
G1 X67.974 Y132.819 E2.0922
G1 X68.326 Y132.686 E2.104
G1 X68.692 Y132.647 E2.11554
G1 X69.244 Y132.746 E2.13312
G1 X69.679 Y133.021 E2.14926
G1 X69.842 Y133.19 E2.15662
G1 X70.111 Y133.663 E2.17368
G1 X70.184 Y134.222 E2.19136
G1 X70.057 Y134.719 E2.20744
G1 X69.947 Y134.926 E2.21479
G1 X69.701 Y135.22 E2.22681
G1 X69.515 Y135.365 E2.2342
G1 X69.021 Y135.581 E2.2511
G1 X68.523 Y135.606 E2.26673
G1 X68.139 Y135.517 E2.27909
G1 X67.807 Y135.339 E2.2909
G1 X67.798 Y135.331 E2.29128
G1 X67.984 Y134.999 F30000
;TYPE:External perimeter
G1 F6000
G1 X67.963 Y134.986 E2.29205
G1 X67.771 Y134.781 E2.30086
G1 X67.636 Y134.534 E2.30969
G1 X67.567 Y134.262 E2.31849
G1 X67.564 Y134.028 E2.32583
G1 X67.643 Y133.709 E2.33613
G1 X67.782 Y133.464 E2.34496
G1 X67.978 Y133.263 E2.35376
G1 X68.219 Y133.117 E2.36259
G1 X68.489 Y133.036 E2.37143
G1 X68.761 Y133.027 E2.37996
G1 X69.151 Y133.12 E2.39253
G1 X69.523 Y133.39 E2.40694
G1 X69.752 Y133.788 E2.42134
G1 X69.801 Y134.246 E2.43578
G1 X69.658 Y134.684 E2.45023
G1 X69.35 Y135.026 E2.46466
G1 X68.931 Y135.213 E2.47905
G1 X68.47 Y135.221 E2.49351
G1 X68.167 Y135.116 E2.50356
G1 X68.034 Y135.031 E2.50851
G1 X67.762 Y134.738 F30000
G1 E.50851 F2400
G92 E0
G1 Z.6 F30000
G1 X154.183 Y138.083
G1 Z.2
G1 E2 F2400
;TYPE:Perimeter
G1 F6000
G1 X65.817 Y138.083 E4.77065
G1 X65.817 Y81.917 E6.53169
G1 X154.183 Y81.917 E9.30234
G1 X154.183 Y85.816 E9.42459
G1 X154.183 Y138.023 E11.0615
G1 X154.56 Y138.46 F30000
;TYPE:External perimeter
G1 F6000
G1 X65.44 Y138.46 E13.85579
G1 X65.44 Y81.54 E15.64047
G1 X154.56 Y81.54 E18.43476
G1 X154.56 Y85.816 E18.56883
G1 X154.56 Y138.4 E20.21756
G1 X154.164 Y138.459 F30000
G1 E18.21756 F2400
G92 E0
G1 Z.6 F30000
G1 X154.07 Y82.793
G1 Z.2
G1 E2 F2400
;TYPE:Solid infill
;WIDTH:0.420448
G1 F6000
G1 X153.476 Y82.2 E2.02635
G1 X152.942 Y82.2 E2.04311
G1 X153.9 Y83.158 E2.08564
G1 X153.9 Y83.692 E2.1024
G1 X152.408 Y82.2 E2.16864
G1 X151.875 Y82.2 E2.18537
G1 X153.9 Y84.225 E2.27527
G1 X153.9 Y84.759 E2.29203
G1 X151.341 Y82.2 E2.40564
G1 X150.807 Y82.2 E2.4224
G1 X153.9 Y85.293 E2.55971
G1 X153.9 Y85.827 E2.57647
G1 X150.273 Y82.2 E2.73749
G1 X149.739 Y82.2 E2.75425
G1 X153.9 Y86.361 E2.93898
G1 X153.9 Y86.895 E2.95574
G1 X149.205 Y82.2 E3.16417
G1 X148.671 Y82.2 E3.18093
G1 X153.9 Y87.429 E3.41307
G1 X153.9 Y87.963 E3.42983
G1 X148.137 Y82.2 E3.68567
G1 X147.603 Y82.2 E3.70243
G1 X153.9 Y88.497 E3.98198
G1 X153.9 Y89.031 E3.99874
G1 X147.069 Y82.2 E4.302
G1 X146.536 Y82.2 E4.31873
G1 X153.9 Y89.565 E4.64567
G1 X153.9 Y90.098 E4.6624
G1 X146.002 Y82.2 E5.01303
G1 X145.468 Y82.2 E5.02979
G1 X153.9 Y90.632 E5.40412
G1 X153.9 Y91.166 E5.42088
G1 X144.934 Y82.2 E5.81892
G1 X144.4 Y82.2 E5.83568
G1 X153.9 Y91.7 E6.25743
G1 X153.9 Y92.234 E6.27419
G1 X143.866 Y82.2 E6.71964
G1 X143.332 Y82.2 E6.7364
G1 X145.293 Y84.161 E6.82346
G1 X145.487 Y84.209 E6.82973
G1 X145.849 Y84.386 E6.84238
G1 X146.112 Y84.592 E6.85287
G1 X146.37 Y84.9 E6.86548
G1 X146.526 Y85.194 E6.87593
G1 X146.607 Y85.475 E6.88511
G1 X153.9 Y92.768 E7.20888
G1 X153.9 Y93.302 E7.22564
G1 X146.639 Y86.041 E7.54799
G1 X146.601 Y86.337 E7.55736
G1 X146.55 Y86.486 E7.5623
G1 X153.9 Y93.836 E7.8886
G1 X153.9 Y94.37 E7.90536
G1 X146.369 Y86.838 E8.23972
G1 X146.308 Y86.944 E8.24356
G1 X146.115 Y87.118 E8.25172
G1 X153.9 Y94.904 E8.59735
G1 X153.9 Y95.437 E8.61408
G1 X145.834 Y87.372 E8.97214
G1 X145.627 Y87.474 E8.97938
G1 X145.454 Y87.525 E8.98504
G1 X153.9 Y95.971 E9.36
G1 X153.9 Y96.505 E9.37676
G1 X144.846 Y87.451 E9.77871
G1 E7.77871 F2400
G92 E0
G1 Z.6 F30000
G1 X144.894 Y84.296
G1 Z.2
G1 E2 F2400
G1 F6000
G1 X142.798 Y82.2 E2.09305
G1 X142.264 Y82.2 E2.10981
G1 X144.284 Y84.22 E2.19949
G1 X143.934 Y84.404 E2.2119
G1 X141.73 Y82.2 E2.30975
G1 X141.196 Y82.2 E2.32651
G1 X143.64 Y84.643 E2.43499
G1 X143.449 Y84.872 E2.44435
G1 X143.409 Y84.946 E2.44699
G1 X140.663 Y82.2 E2.5689
G1 X140.129 Y82.2 E2.58566
G1 X143.231 Y85.302 E2.72337
G1 X143.195 Y85.395 E2.7265
G1 X143.168 Y85.553 E2.73153
G1 X143.157 Y85.763 E2.73813
G1 X139.595 Y82.2 E2.89629
G1 X139.061 Y82.2 E2.91305
G1 X143.217 Y86.356 E3.09755
G1 X143.386 Y86.788 E3.11211
G1 X143.634 Y87.101 E3.12465
G1 X143.765 Y87.227 E3.13036
G1 X144.219 Y87.497 E3.14694
G1 X144.429 Y87.568 E3.1539
G1 X153.9 Y97.039 E3.57436
G1 X153.9 Y97.573 E3.59112
G1 X138.527 Y82.2 E4.2736
G1 X137.993 Y82.2 E4.29036
G1 X153.9 Y98.107 E4.99654
G1 X153.9 Y98.641 E5.0133
G1 X137.459 Y82.2 E5.74319
G1 X136.925 Y82.2 E5.75995
G1 X153.9 Y99.175 E6.51354
G1 X153.9 Y99.709 E6.5303
G1 X136.391 Y82.2 E7.3076
G1 X135.857 Y82.2 E7.32436
G1 X153.9 Y100.243 E8.12537
G1 X153.9 Y100.777 E8.14213
G1 X135.323 Y82.2 E8.96684
G1 X134.79 Y82.2 E8.98357
G1 X153.9 Y101.31 E9.83195
G1 X153.9 Y101.844 E9.84871
G1 X134.256 Y82.2 E10.72079
G1 X133.722 Y82.2 E10.73755
G1 X153.9 Y102.378 E11.63334
G1 X153.9 Y102.912 E11.6501
G1 X133.188 Y82.2 E12.5696
G1 X132.654 Y82.2 E12.58636
G1 X153.9 Y103.446 E13.52956
G1 X153.9 Y103.98 E13.54632
G1 X132.12 Y82.2 E14.51323
G1 X131.586 Y82.2 E14.52999
G1 X153.9 Y104.514 E15.52061
G1 X153.9 Y105.048 E15.53737
G1 X131.052 Y82.2 E16.55169
G1 X130.518 Y82.2 E16.56845
G1 X153.9 Y105.582 E17.60648
G1 X153.9 Y106.116 E17.62324
G1 X129.984 Y82.2 E18.68498
G1 X129.451 Y82.2 E18.70171
G1 X153.9 Y106.649 E19.78711
G1 X153.9 Y107.183 E19.80387
G1 X128.917 Y82.2 E20.91298
G1 X128.383 Y82.2 E20.92974
G1 X153.9 Y107.717 E22.06255
G1 X153.9 Y108.251 E22.07931
G1 X127.849 Y82.2 E23.23583
G1 X127.315 Y82.2 E23.25259
G1 X153.9 Y108.785 E24.43282
G1 X153.9 Y109.319 E24.44958
G1 X126.781 Y82.2 E25.65351
G1 X126.247 Y82.2 E25.67027
G1 X153.9 Y109.853 E26.89791
G1 X153.9 Y110.387 E26.91467
G1 X125.713 Y82.2 E28.16602
G1 X125.179 Y82.2 E28.18278
G1 X153.9 Y110.921 E29.45783
G1 X153.9 Y111.455 E29.47459
G1 X124.645 Y82.2 E30.77335
G1 X124.111 Y82.2 E30.79011
G1 X153.9 Y111.989 E32.11257
G1 X153.9 Y112.522 E32.1293
G1 X123.578 Y82.2 E33.47543
G1 X123.044 Y82.2 E33.49219
G1 X153.9 Y113.056 E34.86202
G1 X153.9 Y113.59 E34.87878
G1 X122.51 Y82.2 E36.27232
G1 X121.976 Y82.2 E36.28908
G1 X153.9 Y114.124 E37.70633
G1 X153.9 Y114.658 E37.72309
G1 X121.442 Y82.2 E39.16404
G1 X120.908 Y82.2 E39.1808
G1 X153.9 Y115.192 E40.64546
G1 X153.9 Y115.726 E40.66222
G1 X120.374 Y82.2 E42.15059
G1 X119.84 Y82.2 E42.16735
G1 X153.9 Y116.26 E43.67942
G1 X153.9 Y116.794 E43.69618
G1 X119.306 Y82.2 E45.23196
G1 X118.772 Y82.2 E45.24872
G1 X153.9 Y117.328 E46.80821
G1 X153.9 Y117.861 E46.82494
G1 X118.239 Y82.2 E48.40809
G1 X117.705 Y82.2 E48.42485
G1 X153.9 Y118.395 E50.03171
G1 X153.9 Y118.929 E50.04847
G1 X117.171 Y82.2 E51.67903
G1 X116.637 Y82.2 E51.69579
G1 X153.9 Y119.463 E53.35006
G1 X153.9 Y119.997 E53.36682
G1 X116.103 Y82.2 E55.0448
G1 X115.569 Y82.2 E55.06156
G1 X153.9 Y120.531 E56.76324
G1 X153.9 Y121.065 E56.78
G1 X115.035 Y82.2 E58.50539
G1 X114.501 Y82.2 E58.52215
G1 X153.9 Y121.599 E60.27125
G1 X153.9 Y122.133 E60.28801
G1 X113.967 Y82.2 E62.06081
G1 X113.433 Y82.2 E62.07757
G1 X153.9 Y122.667 E63.87408
G1 X153.9 Y123.201 E63.89084
G1 X112.899 Y82.2 E65.71105
G1 X112.366 Y82.2 E65.72778
G1 X153.9 Y123.734 E67.57166
G1 X153.9 Y124.268 E67.58842
G1 X111.832 Y82.2 E69.456
G1 X111.298 Y82.2 E69.47276
G1 X153.9 Y124.802 E71.36405
G1 X153.9 Y125.336 E71.38081
G1 X110.764 Y82.2 E73.29581
G1 X110.23 Y82.2 E73.31257
G1 X153.9 Y125.87 E75.25127
G1 X153.9 Y126.404 E75.26803
G1 X109.696 Y82.2 E77.23044
G1 X109.162 Y82.2 E77.2472
G1 X153.9 Y126.938 E79.23332
G1 X153.9 Y127.472 E79.25008
G1 X108.628 Y82.2 E81.2599
G1 X108.094 Y82.2 E81.27666
G1 X153.9 Y128.006 E83.31019
G1 X153.9 Y128.54 E83.32695
G1 X107.56 Y82.2 E85.38419
G1 X107.027 Y82.2 E85.40092
G1 X153.9 Y129.073 E87.48182
G1 X153.9 Y129.607 E87.49858
G1 X106.493 Y82.2 E89.60319
G1 X105.959 Y82.2 E89.61995
G1 X153.9 Y130.141 E91.74826
G1 X153.9 Y130.675 E91.76502
G1 X105.425 Y82.2 E93.91704
G1 X104.891 Y82.2 E93.9338
G1 X153.9 Y131.209 E96.10953
G1 X153.9 Y131.743 E96.12629
G1 X104.357 Y82.2 E98.32572
G1 X103.823 Y82.2 E98.34248
G1 X121.056 Y99.432 E99.10751
G1 X121.237 Y99.462 E99.11327
G1 X121.713 Y99.683 E99.12974
G1 X121.865 Y99.779 E99.13538
G1 X121.985 Y99.895 E99.14062
G1 X122.322 Y100.317 E99.15757
G1 X122.398 Y100.498 E99.16373
G1 X122.495 Y100.872 E99.17586
G1 X153.9 Y132.277 E100.57007
G1 X153.9 Y132.811 E100.58683
