; generated by PrusaSlicer 2.8.0+win64 on 2024-08-22 at 17:33:49 UTC


;
;
; 

; external perimeters extrusion width = 0.45mm
; perimeters extrusion width = 0.45mm
; infill extrusion width = 0.45mm
; solid infill extrusion width = 0.45mm
; top infill extrusion width = 0.40mm
; support material extrusion width = 0.35mm
; first layer extrusion width = 0.42mm

;TYPE:Custom
M82 ;absolute extrusion mode
M140 S0
M104 S0 
START_PRINT EXTRUDER_TEMP=260 BED_TEMP=100
G92 E0
G92 E0
G1 F2400 E-0.5
G21 ; set units to millimeters
G90 ; use absolute coordinates
M82 ; use absolute distances for extrusion
G92 E0
; Filament gcode
M107
;LAYER_CHANGE
;Z:0.2
;HEIGHT:0.2
G1 E-2 F2400
G1 Z.6 F30000
G92 E0
G1 X208.165 Y187.782
G1 Z.2
G1 E2 F2400
G92 E0
;TYPE:Perimeter
;WIDTH:0.419999
G1 F6000
G1 X197.973 Y197.973 E.45191
G1 X187.782 Y208.165 E.90382
G1 X11.835 Y32.218 E8.70559
G1 X32.218 Y11.835 E9.6094
G1 X208.122 Y187.739 E17.40926
G1 X208.122 Y187.739 F30000
G1 X208.698 Y187.782
;TYPE:External perimeter
G1 F6000
G1 X198.24 Y198.24 E17.87298
G1 X187.782 Y208.698 E18.3367
G1 X11.302 Y32.218 E26.16211
G1 X32.218 Y11.302 E27.08956
G1 X208.656 Y187.739 E34.91308
G1 X208.418 Y188.061 F30000
G1 X207.883 Y187.903
;TYPE:Solid infill
;WIDTH:0.42475
G1 F6000
G1 X32.217 Y12.237 E42.80053
G1 X31.947 Y12.507 E42.81265
G1 X207.493 Y188.053 E50.69472
G1 X207.223 Y188.323 E50.70684
G1 X31.677 Y12.777 E58.58891
G1 X31.407 Y13.047 E58.60103
G1 X206.953 Y188.593 E66.4831
G1 X206.683 Y188.863 E66.49522
G1 X31.137 Y13.317 E74.37729
G1 X30.867 Y13.587 E74.38941
G1 X206.413 Y189.133 E82.27148
G1 X206.143 Y189.403 E82.2836
G1 X30.597 Y13.857 E90.16567
G1 X30.327 Y14.127 E90.17779
G1 X205.873 Y189.673 E98.05986
G1 X205.603 Y189.943 E98.07198
G1 X30.057 Y14.397 E105.95405
G1 X29.787 Y14.667 E105.96617
G1 X205.333 Y190.213 E113.84824
G1 X205.063 Y190.483 E113.86036
G1 X29.517 Y14.937 E121.74243
G1 X29.247 Y15.207 E121.75455
G1 X204.793 Y190.753 E129.63662
G1 X204.523 Y191.023 E129.64874
G1 X28.977 Y15.477 E137.53081
G1 X28.707 Y15.747 E137.54293
G1 X204.253 Y191.293 E145.425
G1 X203.983 Y191.563 E145.43712
G1 X28.437 Y16.017 E153.31919
G1 X28.167 Y16.287 E153.33131
G1 X203.713 Y191.833 E161.21338
G1 X203.443 Y192.103 E161.2255
G1 X27.897 Y16.557 E169.10757
G1 X27.627 Y16.827 E169.11969
G1 X203.173 Y192.373 E177.00176
G1 X202.903 Y192.643 E177.01388
G1 X27.357 Y17.097 E184.89595
G1 X27.087 Y17.367 E184.90807
G1 X202.633 Y192.913 E192.79014
G1 X202.363 Y193.183 E192.80226
G1 X26.817 Y17.637 E200.68433
G1 X26.547 Y17.907 E200.69645
G1 X202.093 Y193.453 E208.57852
G1 X201.823 Y193.723 E208.59064
G1 X26.277 Y18.177 E216.47271
G1 X26.007 Y18.447 E216.48483
G1 X201.553 Y193.993 E224.3669
G1 X201.283 Y194.263 E224.37902
G1 X25.737 Y18.717 E232.26109
G1 X25.467 Y18.987 E232.27321
G1 X201.013 Y194.533 E240.15528
G1 X200.743 Y194.803 E240.1674
G1 X25.197 Y19.257 E248.04947
G1 X24.927 Y19.527 E248.06159
G1 X200.473 Y195.073 E255.94366
G1 X200.203 Y195.343 E255.95578
G1 X24.657 Y19.797 E263.83785
G1 X24.387 Y20.067 E263.84997
G1 X199.933 Y195.613 E271.73204
G1 X199.663 Y195.883 E271.74416
G1 X24.117 Y20.337 E279.62623
G1 X23.847 Y20.607 E279.63835
G1 X199.393 Y196.153 E287.52042
G1 X199.123 Y196.423 E287.53254
G1 X23.577 Y20.877 E295.41461
G1 X23.307 Y21.147 E295.42673
G1 X198.853 Y196.693 E303.3088
G1 X198.583 Y196.963 E303.32092
G1 X23.037 Y21.417 E311.20299
G1 X22.767 Y21.687 E311.21511
G1 X198.313 Y197.233 E319.09718
G1 X198.043 Y197.503 E319.1093
G1 X22.497 Y21.957 E326.99137
G1 X22.227 Y22.227 E327.00349
G1 X197.773 Y197.773 E334.88556
G1 X197.503 Y198.043 E334.89768
G1 X21.957 Y22.497 E342.77975
G1 X21.687 Y22.767 E342.79187
G1 X197.233 Y198.313 E350.67394
G1 X196.963 Y198.583 E350.68606
G1 X21.417 Y23.037 E358.56813
G1 X21.147 Y23.307 E358.58025
G1 X196.693 Y198.853 E366.46232
G1 X196.423 Y199.123 E366.47444
G1 X20.877 Y23.577 E374.35651
G1 X20.607 Y23.847 E374.36863
G1 X196.153 Y199.393 E382.2507
G1 X195.883 Y199.663 E382.26282
G1 X20.337 Y24.117 E390.14489
G1 X20.067 Y24.387 E390.15701
G1 X195.613 Y199.933 E398.03908
G1 X195.343 Y200.203 E398.0512
G1 X19.797 Y24.657 E405.93327
G1 X19.527 Y24.927 E405.94539
G1 X195.073 Y200.473 E413.82746
G1 X194.803 Y200.743 E413.83958
G1 X19.257 Y25.197 E421.72165
G1 X18.987 Y25.467 E421.73377
G1 X194.533 Y201.013 E429.61584
G1 X194.263 Y201.283 E429.62796
G1 X18.717 Y25.737 E437.51003
G1 X18.447 Y26.007 E437.52215
G1 X193.993 Y201.553 E445.40422
G1 X193.723 Y201.823 E445.41634
G1 X18.177 Y26.277 E453.29841
G1 X17.907 Y26.547 E453.31053
G1 X193.453 Y202.093 E461.1926
G1 X193.183 Y202.363 E461.20472
G1 X17.637 Y26.817 E469.08679
G1 X17.367 Y27.087 E469.09891
G1 X192.913 Y202.633 E476.98098
G1 X192.643 Y202.903 E476.9931
G1 X17.097 Y27.357 E484.87517
G1 X16.827 Y27.627 E484.88729
G1 X192.373 Y203.173 E492.76936
G1 X192.103 Y203.443 E492.78148
G1 X16.557 Y27.897 E500.66355
G1 X16.287 Y28.167 E500.67567
G1 X191.833 Y203.713 E508.55774
G1 X191.563 Y203.983 E508.56986
G1 X16.017 Y28.437 E516.45193
G1 X15.747 Y28.707 E516.46405
G1 X191.293 Y204.253 E524.34612
G1 X191.023 Y204.523 E524.35824
G1 X15.477 Y28.977 E532.24031
G1 X15.207 Y29.247 E532.25243
G1 X190.753 Y204.793 E540.1345
G1 X190.483 Y205.063 E540.14662
G1 X14.937 Y29.517 E548.02869
G1 X14.667 Y29.787 E548.04081
G1 X190.213 Y205.333 E555.92288
G1 X189.943 Y205.603 E555.935
G1 X14.397 Y30.057 E563.81707
G1 X14.127 Y30.327 E563.82919
G1 X189.673 Y205.873 E571.71126
G1 X189.403 Y206.143 E571.72338
G1 X13.857 Y30.597 E579.60545
G1 X13.587 Y30.867 E579.61757
G1 X189.133 Y206.413 E587.49964
G1 X188.863 Y206.683 E587.51176
G1 X13.317 Y31.137 E595.39383
G1 X13.047 Y31.407 E595.40595
G1 X188.593 Y206.953 E603.28802
G1 X188.323 Y207.223 E603.30014
G1 X12.777 Y31.677 E611.18221
G1 X12.507 Y31.947 E611.19433
G1 X188.053 Y207.493 E619.0764
G1 X187.783 Y207.763 E619.08852
G1 X12.117 Y32.097 E626.97597
;LAYER_CHANGE
;Z:0.4
;HEIGHT:0.2
G1 Z.4 F30000
M140 S100 ; set bed temperature
G1 E624.97597 F2400
G92 E0
G1 X12.117 Y32.097 Z.8 F30000
G1 X208.101 Y187.782
G1 Z.4
G1 E2 F2400
G92 E0
;TYPE:Perimeter
;WIDTH:0.449999
G1 F19500
G1 X197.941 Y197.941 E.48633
G1 X187.782 Y208.101 E.97266
G1 X11.899 Y32.218 E9.39207
G1 X32.218 Y11.899 E10.36473
G1 X208.059 Y187.739 E18.7821
G1 X208.059 Y187.739 F30000
G1 X208.677 Y187.782
;TYPE:External perimeter
G1 F15600
G1 X198.229 Y198.229 E19.28222
G1 X187.782 Y208.677 E19.78234
G1 X11.323 Y32.218 E28.22932
G1 X32.218 Y11.323 E29.22955
G1 X208.634 Y187.739 E37.67447
G1 X208.397 Y188.061 F30000
G1 E35.67447 F2400
G92 E0
G1 Z.8 F30000
G1 X12.475 Y32.362
G1 Z.4
G1 E2 F2400
;TYPE:Solid infill
G1 F19500
G1 X32.362 Y12.475 E2.95198
G1 X32.29 Y12.331 E2.95743
;WIDTH:0.41646
G1 X32.218 Y12.187 E2.96243
;WIDTH:0.38292
G1 X12.187 Y32.218 E3.7633
;WIDTH:0.449999
G1 X12.762 Y32.65 E3.78764
G1 X32.65 Y12.762 E4.73967
G1 X32.938 Y13.05 E4.75346
G1 X13.05 Y32.938 E5.70549
G1 X13.338 Y33.226 E5.71928
G1 X33.226 Y13.338 E6.67131
G1 X33.514 Y13.626 E6.6851
G1 X13.626 Y33.514 E7.63713
G1 X13.914 Y33.801 E7.65089
G1 X33.801 Y13.914 E8.60287
G1 X34.089 Y14.202 E8.61666
G1 X14.202 Y34.089 E9.56864
G1 X14.49 Y34.377 E9.58243
G1 X34.377 Y14.49 E10.53441
G1 X34.665 Y14.777 E10.54817
G1 X14.777 Y34.665 E11.5002
G1 X15.065 Y34.953 E11.51399
G1 X34.953 Y15.065 E12.46602
G1 X35.241 Y15.353 E12.47981
G1 X15.353 Y35.241 E13.43184
G1 X15.641 Y35.529 E13.44563
G1 X35.529 Y15.641 E14.39766
G1 X35.816 Y15.929 E14.41142
G1 X15.929 Y35.816 E15.3634
G1 X16.217 Y36.104 E15.37719
G1 X36.104 Y16.217 E16.32917
G1 X36.392 Y16.505 E16.34296
G1 X16.505 Y36.392 E17.29494
G1 X16.792 Y36.68 E17.3087
G1 X36.68 Y16.792 E18.26073
G1 X36.968 Y17.08 E18.27452
G1 X17.08 Y36.968 E19.22655
G1 X17.368 Y37.256 E19.24034
G1 X37.256 Y17.368 E20.19237
G1 X37.543 Y17.656 E20.20613
G1 X17.656 Y37.543 E21.15811
G1 X17.944 Y37.831 E21.1719
G1 X37.831 Y17.944 E22.12388
G1 X38.119 Y18.232 E22.13767
G1 X18.232 Y38.119 E23.08965
G1 X18.519 Y38.407 E23.10341
G1 X38.407 Y18.519 E24.05544
G1 X38.695 Y18.807 E24.06923
G1 X18.807 Y38.695 E25.02126
G1 X19.095 Y38.983 E25.03505
G1 X38.983 Y19.095 E25.98708
G1 X39.271 Y19.383 E26.00087
G1 X19.383 Y39.271 E26.9529
G1 X19.671 Y39.558 E26.96666
G1 X39.558 Y19.671 E27.91864
G1 X39.846 Y19.959 E27.93243
G1 X19.959 Y39.846 E28.88441
G1 X20.247 Y40.134 E28.8982
G1 X40.134 Y20.247 E29.85018
G1 X40.422 Y20.534 E29.86394
G1 X20.534 Y40.422 E30.81597
G1 X20.822 Y40.71 E30.82976
G1 X40.71 Y20.822 E31.78179
G1 X40.998 Y21.11 E31.79558
G1 X21.11 Y40.998 E32.74761
G1 X21.398 Y41.285 E32.76137
G1 X41.285 Y21.398 E33.71335
G1 X41.573 Y21.686 E33.72714
G1 X21.686 Y41.573 E34.67912
G1 X21.974 Y41.861 E34.69291
G1 X41.861 Y21.974 E35.64489
G1 X42.149 Y22.261 E35.65865
G1 X22.261 Y42.149 E36.61068
G1 X22.549 Y42.437 E36.62447
G1 X42.437 Y22.549 E37.5765
G1 X42.725 Y22.837 E37.59029
G1 X22.837 Y42.725 E38.54232
G1 X23.125 Y43.013 E38.55611
G1 X43.013 Y23.125 E39.50814
G1 X43.3 Y23.413 E39.5219
G1 X23.413 Y43.3 E40.47388
G1 X23.701 Y43.588 E40.48767
G1 X43.588 Y23.701 E41.43965
G1 X43.876 Y23.989 E41.45344
G1 X23.989 Y43.876 E42.40542
G1 X24.276 Y44.164 E42.41918
G1 X44.164 Y24.276 E43.37121
G1 X44.452 Y24.564 E43.385
G1 X24.564 Y44.452 E44.33703
G1 X24.852 Y44.74 E44.35082
G1 X44.74 Y24.852 E45.30285
G1 X45.028 Y25.14 E45.31664
G1 X25.14 Y45.028 E46.26867
G1 X25.428 Y45.315 E46.28243
G1 X45.315 Y25.428 E47.23441
G1 X45.603 Y25.716 E47.2482
G1 X25.716 Y45.603 E48.20018
G1 X26.004 Y45.891 E48.21397
G1 X45.891 Y26.004 E49.16595
G1 X46.179 Y26.291 E49.17971
G1 X26.291 Y46.179 E50.13174
G1 X26.579 Y46.467 E50.14553
G1 X46.467 Y26.579 E51.09756
G1 X46.755 Y26.867 E51.11135
G1 X26.867 Y46.755 E52.06338
G1 X27.155 Y47.042 E52.07714
G1 X47.042 Y27.155 E53.02912
G1 X47.33 Y27.443 E53.04291
G1 X27.443 Y47.33 E53.99489
G1 X27.731 Y47.618 E54.00868
G1 X47.618 Y27.731 E54.96066
G1 X47.906 Y28.018 E54.97442
G1 X28.018 Y47.906 E55.92645
G1 X28.306 Y48.194 E55.94024
G1 X48.194 Y28.306 E56.89227
G1 X48.482 Y28.594 E56.90606
G1 X28.594 Y48.482 E57.85809
G1 X28.882 Y48.77 E57.87188
G1 X48.77 Y28.882 E58.82391
G1 X49.057 Y29.17 E58.83767
G1 X29.17 Y49.057 E59.78965
G1 X29.458 Y49.345 E59.80344
G1 X49.345 Y29.458 E60.75542
G1 X49.633 Y29.746 E60.76921
G1 X29.746 Y49.633 E61.72119
G1 X30.033 Y49.921 E61.73495
G1 X49.921 Y30.033 E62.68698
G1 X50.209 Y30.321 E62.70077
G1 X30.321 Y50.209 E63.6528
G1 X30.609 Y50.497 E63.66659
G1 X50.497 Y30.609 E64.61862
G1 X50.784 Y30.897 E64.63238
G1 X30.897 Y50.784 E65.58436
G1 X31.185 Y51.072 E65.59815
G1 X51.072 Y31.185 E66.55013
G1 X51.36 Y31.473 E66.56392
G1 X31.473 Y51.36 E67.5159
G1 X31.76 Y51.648 E67.52966
G1 X51.648 Y31.76 E68.48169
G1 X51.936 Y32.048 E68.49548
G1 X32.048 Y51.936 E69.44751
G1 X32.336 Y52.224 E69.4613
G1 X52.224 Y32.336 E70.41333
G1 X52.512 Y32.624 E70.42712
G1 X32.624 Y52.512 E71.37915
G1 X32.912 Y52.799 E71.39291
G1 X52.799 Y32.912 E72.34489
G1 X53.087 Y33.2 E72.35868
G1 X33.2 Y53.087 E73.31066
G1 X33.488 Y53.375 E73.32445
G1 X53.375 Y33.488 E74.27643
G1 X53.663 Y33.775 E74.29019
G1 X33.775 Y53.663 E75.24222
G1 X34.063 Y53.951 E75.25601
G1 X53.951 Y34.063 E76.20804
G1 X54.239 Y34.351 E76.22183
G1 X34.351 Y54.239 E77.17386
G1 X34.639 Y54.527 E77.18765
G1 X54.527 Y34.639 E78.13968
G1 X54.814 Y34.927 E78.15344
G1 X34.927 Y54.814 E79.10542
G1 X35.215 Y55.102 E79.11921
G1 X55.102 Y35.215 E80.07119
G1 X55.39 Y35.503 E80.08498
G1 X35.503 Y55.39 E81.03696
G1 X35.79 Y55.678 E81.05072
G1 X55.678 Y35.79 E82.00275
G1 X55.966 Y36.078 E82.01654
G1 X36.078 Y55.966 E82.96857
G1 X36.366 Y56.254 E82.98236
G1 X56.254 Y36.366 E83.93439
G1 X56.541 Y36.654 E83.94815
G1 X36.654 Y56.541 E84.90013
G1 X36.942 Y56.829 E84.91392
G1 X56.829 Y36.942 E85.8659
G1 X57.117 Y37.23 E85.87969
G1 X37.23 Y57.117 E86.83167
G1 X37.517 Y57.405 E86.84543
G1 X57.405 Y37.517 E87.79746
G1 X57.693 Y37.805 E87.81125
G1 X37.805 Y57.693 E88.76328
G1 X38.093 Y57.981 E88.77707
G1 X57.981 Y38.093 E89.7291
G1 X58.269 Y38.381 E89.74289
G1 X38.381 Y58.269 E90.69492
G1 X38.669 Y58.556 E90.70868
G1 X58.556 Y38.669 E91.66066
G1 X58.844 Y38.957 E91.67445
G1 X38.957 Y58.844 E92.62643
G1 X39.245 Y59.132 E92.64022
G1 X59.132 Y39.245 E93.5922
G1 X59.42 Y39.532 E93.60596
G1 X39.532 Y59.42 E94.55799
G1 X39.82 Y59.708 E94.57178
G1 X59.708 Y39.82 E95.52381
G1 X59.996 Y40.108 E95.5376
G1 X40.108 Y59.996 E96.48963
G1 X40.396 Y60.283 E96.50339
G1 X60.283 Y40.396 E97.45537
G1 X60.571 Y40.684 E97.46916
G1 X40.684 Y60.571 E98.42114
G1 X40.972 Y60.859 E98.43493
G1 X60.859 Y40.972 E99.38691
G1 X61.147 Y41.259 E99.40067
G1 X41.259 Y61.147 E100.3527
G1 X41.547 Y61.435 E100.36649
G1 X61.435 Y41.547 E101.31852
G1 X61.723 Y41.835 E101.33231
G1 X41.835 Y61.723 E102.28434
G1 X42.123 Y62.011 E102.29813
G1 X62.011 Y42.123 E103.25016
G1 X62.298 Y42.411 E103.26392
G1 X42.411 Y62.298 E104.2159
G1 X42.699 Y62.586 E104.22969
G1 X62.586 Y42.699 E105.18167
G1 X62.874 Y42.987 E105.19546
G1 X42.987 Y62.874 E106.14744
G1 X43.274 Y63.162 E106.1612
G1 X63.162 Y43.274 E107.11323
G1 X63.45 Y43.562 E107.12702
G1 X43.562 Y63.45 E108.07905
G1 X43.85 Y63.738 E108.09284
G1 X63.738 Y43.85 E109.04487
G1 X64.025 Y44.138 E109.05863
G1 X44.138 Y64.025 E110.01061
G1 X44.426 Y64.313 E110.0244
G1 X64.313 Y44.426 E110.97638
G1 X64.601 Y44.714 E110.99017
G1 X44.714 Y64.601 E111.94215
G1 X45.002 Y64.889 E111.95594
G1 X64.889 Y45.002 E112.90792
G1 X65.177 Y45.289 E112.92168
G1 X45.289 Y65.177 E113.87371
G1 X45.577 Y65.465 E113.8875
G1 X65.465 Y45.577 E114.83953
G1 X65.753 Y45.865 E114.85332
G1 X45.865 Y65.753 E115.80535
G1 X46.153 Y66.04 E115.81911
G1 X66.04 Y46.153 E116.77109
G1 X66.328 Y46.441 E116.78488
G1 X46.441 Y66.328 E117.73686
G1 X46.729 Y66.616 E117.75065
G1 X66.616 Y46.729 E118.70263
G1 X66.904 Y47.016 E118.71639
G1 X47.016 Y66.904 E119.66842
G1 X47.304 Y67.192 E119.68221
G1 X67.192 Y47.304 E120.63424
G1 X67.48 Y47.592 E120.64803
G1 X47.592 Y67.48 E121.60006
G1 X47.88 Y67.768 E121.61385
G1 X67.768 Y47.88 E122.56588
G1 X68.055 Y48.168 E122.57964
G1 X48.168 Y68.055 E123.53162
G1 X48.456 Y68.343 E123.54541
G1 X68.343 Y48.456 E124.49739
G1 X68.631 Y48.744 E124.51118
G1 X48.744 Y68.631 E125.46316
G1 X49.031 Y68.919 E125.47692
G1 X68.919 Y49.031 E126.42895
G1 X69.207 Y49.319 E126.44274
G1 X49.319 Y69.207 E127.39477
G1 X49.607 Y69.495 E127.40856
G1 X69.495 Y49.607 E128.36059
G1 X69.782 Y49.895 E128.37435
G1 X49.895 Y69.782 E129.32633
G1 X50.183 Y70.07 E129.34012
G1 X70.07 Y50.183 E130.2921
G1 X70.358 Y50.471 E130.30589
G1 X50.471 Y70.358 E131.25787
G1 X50.758 Y70.646 E131.27163
G1 X70.646 Y50.758 E132.22366
G1 X70.934 Y51.046 E132.23745
G1 X51.046 Y70.934 E133.18948
G1 X51.334 Y71.222 E133.20327
G1 X71.222 Y51.334 E134.1553
G1 X71.51 Y51.622 E134.16909
G1 X51.622 Y71.51 E135.12112
G1 X51.91 Y71.797 E135.13488
G1 X71.797 Y51.91 E136.08686
G1 X72.085 Y52.198 E136.10065
G1 X52.198 Y72.085 E137.05263
G1 X52.486 Y72.373 E137.06642
G1 X72.373 Y52.486 E138.0184
G1 X72.661 Y52.773 E138.03216
G1 X52.773 Y72.661 E138.98419
G1 X53.061 Y72.949 E138.99798
G1 X72.949 Y53.061 E139.95001
G1 X73.237 Y53.349 E139.9638
G1 X53.349 Y73.237 E140.91583
G1 X53.637 Y73.524 E140.92959
G1 X73.524 Y53.637 E141.88157
G1 X73.812 Y53.925 E141.89536
G1 X53.925 Y73.812 E142.84734
G1 X54.213 Y74.1 E142.86113
G1 X74.1 Y54.213 E143.81311
G1 X74.388 Y54.501 E143.8269
G1 X54.5 Y74.388 E144.7789
G1 X54.788 Y74.676 E144.79269
G1 X74.676 Y54.788 E145.74472
G1 X74.964 Y55.076 E145.75851
G1 X55.076 Y74.964 E146.71054
G1 X55.364 Y75.252 E146.72433
G1 X75.252 Y55.364 E147.67636
G1 X75.539 Y55.652 E147.69012
G1 X55.652 Y75.539 E148.6421
G1 X55.94 Y75.827 E148.65589
G1 X75.827 Y55.94 E149.60787
G1 X76.115 Y56.228 E149.62166
G1 X56.228 Y76.115 E150.57364
G1 X56.515 Y76.403 E150.5874
G1 X76.403 Y56.515 E151.53943
G1 X76.691 Y56.803 E151.55322
G1 X56.803 Y76.691 E152.50525
G1 X57.091 Y76.979 E152.51904
G1 X76.979 Y57.091 E153.47107
G1 X77.267 Y57.379 E153.48486
G1 X57.379 Y77.267 E154.43689
G1 X57.667 Y77.554 E154.45065
G1 X77.554 Y57.667 E155.40263
G1 X77.842 Y57.955 E155.41642
G1 X57.955 Y77.842 E156.3684
G1 X58.243 Y78.13 E156.38219
G1 X78.13 Y58.243 E157.33417
G1 X78.418 Y58.53 E157.34793
