; generated by PrusaSlicer 2.8.0+win64 on 2024-10-08 at 12:38:47 UTC


;
;
; 

; external perimeters extrusion width = 0.45mm
; perimeters extrusion width = 0.45mm
; infill extrusion width = 0.45mm
; solid infill extrusion width = 0.45mm
; top infill extrusion width = 0.40mm
; support material extrusion width = 0.35mm
; first layer extrusion width = 0.42mm

; external perimeters extrusion width = 0.45mm
; perimeters extrusion width = 0.45mm
; infill extrusion width = 0.45mm
; solid infill extrusion width = 0.45mm
; top infill extrusion width = 0.40mm
; support material extrusion width = 0.35mm
; first layer extrusion width = 0.42mm

; external perimeters extrusion width = 0.45mm
; perimeters extrusion width = 0.45mm
; infill extrusion width = 0.45mm
; solid infill extrusion width = 0.45mm
; top infill extrusion width = 0.40mm
; support material extrusion width = 0.35mm
; first layer extrusion width = 0.42mm

;TYPE:Custom
M82 ;absolute extrusion mode
M140 S0
M104 S0 
START_PRINT EXTRUDER_TEMP=260 BED_TEMP=100
G92 E0
G92 E0
G1 F2400 E-0.5
G21 ; set units to millimeters
G90 ; use absolute coordinates
M82 ; use absolute distances for extrusion
G92 E0
; Filament gcode
M107
;LAYER_CHANGE
;Z:0.2
;HEIGHT:0.2
G1 E-2 F2400
G1 Z.6 F30000
G92 E0
G1 X143.548 Y142.893
G1 Z.2
G1 E2 F2400
G92 E0
;TYPE:Perimeter
;WIDTH:0.419999
G1 F6000
G1 X143.55 Y142.832 E.00191
G1 X143.659 Y142.395 E.01603
G1 X143.861 Y141.991 E.03019
G1 X144.144 Y141.64 E.04433
G1 X144.496 Y141.359 E.05845
G1 X144.9 Y141.159 E.07258
G1 X145.338 Y141.052 E.08672
G1 X145.774 Y141.04 E.1004
G1 X146.231 Y141.126 E.11498
G1 X146.645 Y141.305 E.12912
G1 X147.01 Y141.569 E.14324
G1 X147.311 Y141.905 E.15738
G1 X147.532 Y142.298 E.17152
G1 X147.663 Y142.73 E.18567
G1 X147.698 Y143.179 E.19979
G1 X147.637 Y143.626 E.21394
G1 X147.445 Y144.108 E.23021
G1 X147.237 Y144.428 E.24218
G1 X146.905 Y144.754 E.25677
G1 X146.537 Y144.988 E.27044
G1 X146.113 Y145.142 E.28458
G1 X145.666 Y145.202 E.29872
G1 X145.217 Y145.164 E.31285
G1 X144.786 Y145.031 E.32699
G1 X144.394 Y144.808 E.34113
G1 X144.06 Y144.507 E.35523
G1 X143.797 Y144.14 E.36939
G1 X143.62 Y143.725 E.38354
G1 X143.536 Y143.282 E.39768
G1 X143.546 Y142.953 E.408
G1 X143.546 Y142.953 F30000
G1 X143.918 Y142.933
;TYPE:External perimeter
G1 F6000
G1 X143.918 Y142.913 E.40863
G1 X144.002 Y142.553 E.42022
G1 X144.161 Y142.219 E.43182
G1 X144.388 Y141.928 E.44339
G1 X144.672 Y141.692 E.45497
G1 X145.001 Y141.523 E.46657
G1 X145.358 Y141.428 E.47815
G1 X145.715 Y141.413 E.48935
G1 X146.091 Y141.477 E.50131
G1 X146.433 Y141.618 E.51291
G1 X146.737 Y141.829 E.52451
G1 X146.987 Y142.1 E.53607
G1 X147.174 Y142.419 E.54766
G1 X147.288 Y142.77 E.55923
G1 X147.31 Y143.261 E.57464
G1 X147.279 Y143.505 E.58235
G1 X147.122 Y143.913 E.59606
G1 X146.963 Y144.168 E.60548
G1 X146.693 Y144.442 E.61754
G1 X146.397 Y144.637 E.62865
G1 X146.052 Y144.77 E.64024
G1 X145.687 Y144.826 E.65182
G1 X145.318 Y144.801 E.66342
G1 X144.963 Y144.698 E.67501
G1 X144.639 Y144.521 E.68659
G1 X144.36 Y144.278 E.69819
G1 X144.14 Y143.982 E.70975
G1 X143.989 Y143.644 E.72136
G1 X143.913 Y143.282 E.73296
G1 X143.917 Y142.993 E.74202
G1 X143.994 Y142.601 F30000
G1 E-1.25798 F2400
G92 E0
G1 Z.6 F30000
G1 X128.477 Y151.192
G1 Z.2
G1 E2 F2400
;TYPE:Perimeter
G1 F6000
G1 X128.524 Y151.19 E2.00147
G1 X128.981 Y151.276 E2.01605
G1 X129.395 Y151.455 E2.03019
G1 X129.76 Y151.719 E2.04431
G1 X130.061 Y152.055 E2.05845
G1 X130.23 Y152.337 E2.06876
G1 X130.413 Y152.88 E2.08673
G1 X130.448 Y153.329 E2.10085
G1 X130.387 Y153.776 E2.115
G1 X130.23 Y154.198 E2.12912
G1 X129.987 Y154.578 E2.14326
G1 X129.667 Y154.896 E2.15741
G1 X129.287 Y155.138 E2.17154
G1 X128.863 Y155.292 E2.18568
G1 X128.315 Y155.347 E2.20295
G1 X127.967 Y155.314 E2.21391
G1 X127.475 Y155.149 E2.23018
G1 X127.145 Y154.958 E2.24214
G1 X126.787 Y154.627 E2.25743
G1 X126.547 Y154.29 E2.2704
G1 X126.369 Y153.87 E2.2847
G1 X126.286 Y153.432 E2.29868
G1 X126.3 Y152.982 E2.3128
G1 X126.409 Y152.545 E2.32692
G1 X126.611 Y152.141 E2.34108
G1 X126.894 Y151.79 E2.35522
G1 X127.246 Y151.509 E2.36934
G1 X127.65 Y151.309 E2.38347
G1 X128.088 Y151.202 E2.39761
G1 X128.417 Y151.193 E2.40793
G1 X128.417 Y151.193 F30000
G1 X128.457 Y151.563
;TYPE:External perimeter
G1 F6000
G1 X128.465 Y151.563 E2.40818
G1 X128.841 Y151.627 E2.42014
G1 X129.183 Y151.768 E2.43174
G1 X129.487 Y151.979 E2.44334
G1 X129.737 Y152.25 E2.4549
G1 X129.907 Y152.532 E2.46522
G1 X130.038 Y152.92 E2.47806
G1 X130.074 Y153.288 E2.48965
G1 X130.029 Y153.655 E2.50124
G1 X129.907 Y154.004 E2.51283
G1 X129.713 Y154.318 E2.5244
G1 X129.455 Y154.584 E2.53602
G1 X129.023 Y154.837 E2.55172
G1 X128.802 Y154.92 E2.55912
G1 X128.336 Y154.97 E2.57381
G1 X128.068 Y154.951 E2.58223
G1 X127.652 Y154.815 E2.59595
G1 X127.389 Y154.671 E2.60535
G1 X127.087 Y154.399 E2.61809
G1 X126.89 Y154.132 E2.62849
G1 X126.737 Y153.789 E2.64027
G1 X126.663 Y153.432 E2.6517
G1 X126.668 Y153.063 E2.66327
G1 X126.752 Y152.703 E2.67486
G1 X126.911 Y152.369 E2.68646
G1 X127.138 Y152.078 E2.69803
G1 X127.422 Y151.842 E2.70961
G1 X127.751 Y151.673 E2.72121
G1 X128.108 Y151.578 E2.73279
G1 X128.397 Y151.566 E2.74186
G1 X128.793 Y151.622 F30000
G1 E.74186 F2400
G92 E0
G1 Z.6 F30000
G1 X127.595 Y104.944
G1 Z.2
G1 E2 F2400
;TYPE:Perimeter
G1 F6000
G1 X127.65 Y104.917 E2.00192
G1 X128.088 Y104.809 E2.01606
G1 X128.632 Y104.814 E2.03312
G1 X128.981 Y104.883 E2.04427
G1 X129.456 Y105.104 E2.0607
G1 X129.76 Y105.326 E2.0725
G1 X130.089 Y105.71 E2.08835
G1 X130.282 Y106.056 E2.10077
G1 X130.413 Y106.487 E2.11489
G1 X130.448 Y106.936 E2.12901
G1 X130.387 Y107.383 E2.14316
G1 X130.23 Y107.806 E2.15731
G1 X129.987 Y108.185 E2.17143
G1 X129.667 Y108.503 E2.18558
G1 X129.287 Y108.745 E2.19971
G1 X128.863 Y108.899 E2.21385
G1 X128.416 Y108.959 E2.22799
G1 X127.967 Y108.922 E2.24212
G1 X127.65 Y108.834 E2.25244
G1 X127.144 Y108.566 E2.27039
G1 X126.81 Y108.264 E2.28451
G1 X126.547 Y107.897 E2.29867
G1 X126.37 Y107.482 E2.31282
G1 X126.286 Y107.04 E2.32693
G1 X126.3 Y106.589 E2.34108
G1 X126.409 Y106.152 E2.3552
G1 X126.611 Y105.748 E2.36936
G1 X126.894 Y105.398 E2.38347
G1 X127.246 Y105.116 E2.39761
G1 X127.541 Y104.97 E2.40793
G1 X127.541 Y104.97 F30000
G1 X127.739 Y105.304
;TYPE:External perimeter
G1 F6000
G1 X127.857 Y105.25 E2.412
G1 X128.108 Y105.185 E2.42013
G1 X128.573 Y105.187 E2.43471
G1 X128.841 Y105.234 E2.44324
G1 X129.244 Y105.416 E2.4571
G1 X129.487 Y105.586 E2.4664
G1 X129.766 Y105.905 E2.47969
G1 X129.924 Y106.176 E2.48953
G1 X130.038 Y106.528 E2.50113
G1 X130.074 Y106.895 E2.51269
G1 X130.029 Y107.262 E2.52428
G1 X129.907 Y107.611 E2.53587
G1 X129.713 Y107.926 E2.54747
G1 X129.455 Y108.191 E2.55907
G1 X129.147 Y108.395 E2.57065
G1 X128.802 Y108.527 E2.58223
G1 X128.437 Y108.583 E2.59381
G1 X128.068 Y108.558 E2.60541
G1 X127.751 Y108.47 E2.61573
G1 X127.389 Y108.278 E2.62858
G1 X127.11 Y108.036 E2.64016
G1 X126.89 Y107.739 E2.65175
G1 X126.739 Y107.401 E2.66336
G1 X126.663 Y106.911 E2.67891
G1 X126.668 Y106.67 E2.68647
G1 X126.813 Y106.177 E2.70258
G1 X126.911 Y105.976 E2.70959
G1 X127.234 Y105.603 E2.72506
G1 X127.422 Y105.449 E2.73268
G1 X127.684 Y105.329 E2.74172
G1 X128.064 Y105.203 F30000
G1 E.74172 F2400
G92 E0
G1 Z.6 F30000
G1 X147.996 Y141.405
G1 Z.2
G1 E2 F2400
;TYPE:Perimeter
G1 F6000
G1 X148.277 Y141.955 E2.01937
G1 X148.441 Y142.447 E2.03563
G1 X148.522 Y143.014 E2.05359
G1 X148.514 Y143.385 E2.06523
G1 X148.42 Y143.878 E2.08097
G1 X148.165 Y144.522 E2.10269
G1 X147.878 Y144.941 E2.11861
G1 X147.517 Y145.314 E2.13489
G1 X147.038 Y145.66 E2.15342
G1 X130.121 Y155.614 E2.76885
G1 X129.502 Y155.946 E2.79087
G1 X129.004 Y156.103 E2.80724
G1 X128.411 Y156.173 E2.82596
G1 X127.875 Y156.138 E2.8428
G1 X127.388 Y156.005 E2.85863
G1 X126.849 Y155.747 E2.87737
G1 X126.447 Y155.456 E2.89293
G1 X126.122 Y155.122 E2.90754
G1 X125.839 Y154.705 E2.92334
G1 X125.623 Y154.229 E2.93973
G1 X125.493 Y153.729 E2.95593
G1 X125.452 Y153.247 E2.9711
G1 X125.452 Y107.04 E4.41989
G1 X125.493 Y106.413 E4.43959
G1 X125.626 Y105.908 E4.45596
G1 X125.844 Y105.431 E4.4724
G1 X126.139 Y105.001 E4.48875
G1 X126.447 Y104.685 E4.50259
G1 X126.854 Y104.392 E4.51831
G1 X127.394 Y104.137 E4.53703
G1 X127.897 Y104.004 E4.55334
G1 X128.409 Y103.968 E4.56943
G1 X129.006 Y104.042 E4.58829
G1 X129.517 Y104.204 E4.6051
G1 X129.934 Y104.425 E4.6199
G1 X130.345 Y104.75 E4.63633
G1 X130.739 Y105.199 E4.65506
G1 X131.005 Y105.645 E4.67134
G1 X147.802 Y141.026 E5.89935
G1 X147.969 Y141.352 E5.91083
G1 X147.969 Y141.352 F30000
G1 X148.34 Y141.242
;TYPE:External perimeter
G1 F6000
G1 X148.516 Y141.579 E5.92275
G1 X148.717 Y142.034 E5.93835
G1 X148.849 Y142.521 E5.95417
G1 X148.899 Y143.023 E5.96999
G1 X148.894 Y143.242 E5.97686
G1 X148.827 Y143.811 E5.99482
G1 X148.686 Y144.296 E6.01066
G1 X148.467 Y144.75 E6.02646
G1 X148.133 Y145.223 E6.04462
G1 X147.662 Y145.689 E6.06539
G1 X147.238 Y145.979 E6.0815
G1 X130.312 Y155.939 E6.69727
G1 X129.789 Y156.224 E6.71594
G1 X129.236 Y156.436 E6.73451
G1 X128.73 Y156.537 E6.75069
G1 X128.214 Y156.551 E6.76687
G1 X127.67 Y156.476 E6.78409
G1 X127.052 Y156.277 E6.80445
G1 X126.584 Y156.03 E6.82104
G1 X126.172 Y155.72 E6.83721
G1 X125.818 Y155.344 E6.8534
G1 X125.481 Y154.833 E6.87259
G1 X125.269 Y154.358 E6.8889
G1 X125.119 Y153.782 E6.90756
G1 X125.075 Y153.261 E6.92395
G1 X125.075 Y107.04 E8.37317
G1 X125.104 Y106.465 E8.39122
G1 X125.207 Y105.953 E8.40759
G1 X125.396 Y105.466 E8.42397
G1 X125.649 Y105.028 E8.43983
G1 X126.069 Y104.53 E8.46026
G1 X126.542 Y104.142 E8.47944
G1 X126.979 Y103.891 E8.49524
G1 X127.471 Y103.713 E8.51164
G1 X128.006 Y103.613 E8.52871
G1 X128.637 Y103.604 E8.5485
G1 X129.204 Y103.698 E8.56652
G1 X129.698 Y103.868 E8.5829
G1 X130.156 Y104.12 E8.59929
G1 X130.608 Y104.48 E8.61741
G1 X131.072 Y105.013 E8.63957
G1 X131.34 Y105.471 E8.65621
G1 X148.143 Y140.865 E9.88467
G1 X148.312 Y141.189 E9.89613
G1 X148.496 Y141.544 F30000
G1 E7.89613 F2400
G92 E0
G1 Z.6 F30000
G1 X129.533 Y104.335
G1 Z.2
G1 E2 F2400
;TYPE:Solid infill
;WIDTH:0.42341
G1 F6000
G1 X130.335 Y105.138 E2.03591
G1 X130.555 Y105.423 E2.0473
G1 X130.754 Y105.775 E2.06009
G1 X131.043 Y106.383 E2.08139
G1 X128.768 Y104.108 E2.18318
G1 X128.768 Y104.108 F30000
G1 X128.868 Y104.747
G1 F6000
G1 X128.37 Y104.249 E2.20546
G1 X127.88 Y104.297 E2.22104
G1 X128.114 Y104.53 E2.23149
G1 X127.936 Y104.545 E2.23714
G1 X127.666 Y104.621 E2.24601
G1 X127.46 Y104.415 E2.25523
G1 X127.258 Y104.491 E2.26206
G1 X127.091 Y104.584 E2.26811
G1 X127.288 Y104.781 E2.27692
G1 X127.005 Y104.934 E2.2871
G1 X126.95 Y104.981 E2.28939
G1 X126.767 Y104.798 E2.29758
G1 X126.633 Y104.899 E2.30289
G1 X126.482 Y105.051 E2.30967
G1 X126.66 Y105.229 E2.31763
G1 X126.428 Y105.535 E2.32978
G1 X126.237 Y105.344 E2.33833
G1 X126.149 Y105.461 E2.34296
G1 X126.032 Y105.678 E2.35076
G1 X126.228 Y105.874 E2.35953
G1 X126.126 Y106.097 E2.36729
G1 X126.088 Y106.271 E2.37292
G1 X125.873 Y106.056 E2.38254
G1 X125.766 Y106.488 E2.39662
G1 X126.005 Y106.727 E2.40731
G1 X126.003 Y107.048 E2.41747
G1 X126.052 Y107.311 E2.42593
G1 X125.57 Y106.83 E2.44747
G1 E.44747 F2400
G92 E0
G1 X125.57 Y106.83 Z.6 F30000
G1 X130.506 Y106.385
G1 Z.2
G1 E2 F2400
G1 F6000
G1 X131.529 Y107.408 E2.04577
G1 X132.015 Y108.432 E2.08163
G1 X130.706 Y107.123 E2.1402
G1 X130.694 Y107.301 E2.14584
G1 X130.614 Y107.569 E2.15469
G1 X132.502 Y109.457 E2.23916
G1 X132.988 Y110.481 E2.27502
G1 X130.459 Y107.952 E2.38817
G1 X130.257 Y108.288 E2.40057
G1 X133.474 Y111.505 E2.54451
G1 X133.961 Y112.53 E2.58041
G1 X130.005 Y108.574 E2.75741
G1 X129.704 Y108.811 E2.76953
G1 X134.447 Y113.554 E2.98174
G1 X134.933 Y114.579 E3.01763
G1 X129.362 Y109.008 E3.26689
G1 X129.079 Y109.132 E3.27667
G1 X128.971 Y109.154 E3.28016
G1 X135.42 Y115.603 E3.56871
G1 X135.906 Y116.628 E3.6046
G1 X128.514 Y109.236 E3.93534
G1 X128.404 Y109.242 E3.93883
G1 X127.94 Y109.2 E3.95357
G1 X136.392 Y117.652 E4.33174
G1 X136.879 Y118.677 E4.36764
G1 X125.734 Y107.532 E4.8663
G1 X125.734 Y108.07 E4.88332
G1 X137.365 Y119.701 E5.40372
G1 X137.851 Y120.725 E5.43958
G1 X125.734 Y108.608 E5.98173
G1 X125.734 Y109.147 E5.99878
G1 X138.338 Y121.75 E6.56269
G1 X138.824 Y122.774 E6.59855
G1 X125.734 Y109.685 E7.18421
G1 X125.734 Y110.223 E7.20123
G1 X139.31 Y123.799 E7.80866
G1 X139.797 Y124.823 E7.84453
G1 X125.734 Y110.761 E8.47372
G1 X125.734 Y111.299 E8.49074
G1 X140.283 Y125.848 E9.1417
G1 X140.769 Y126.872 E9.17756
G1 X125.734 Y111.837 E9.85027
G1 X125.734 Y112.375 E9.86729
G1 X141.256 Y127.896 E10.56176
G1 X141.742 Y128.921 E10.59765
G1 X125.734 Y112.913 E11.31389
G1 X125.734 Y113.451 E11.33091
G1 X142.229 Y129.945 E12.06892
G1 X142.715 Y130.97 E12.10481
G1 X125.734 Y113.989 E12.86459
G1 X125.734 Y114.528 E12.88164
G1 X143.201 Y131.994 E13.66314
G1 X143.688 Y133.019 E13.69904
G1 X125.734 Y115.066 E14.50233
G1 X125.734 Y115.604 E14.51935
G1 X144.174 Y134.043 E15.34438
G1 X144.66 Y135.068 E15.38027
G1 X125.734 Y116.142 E16.22707
G1 X125.734 Y116.68 E16.24409
G1 X145.147 Y136.092 E17.11266
G1 X145.633 Y137.116 E17.14852
G1 X125.734 Y117.218 E18.03883
G1 X125.734 Y117.756 E18.05585
G1 X146.119 Y138.141 E18.96793
G1 X146.606 Y139.165 E19.0038
G1 X125.734 Y118.294 E19.93765
G1 X125.734 Y118.832 E19.95467
G1 X147.092 Y140.19 E20.91028
G1 X147.578 Y141.214 E20.94614
G1 X125.734 Y119.37 E21.9235
G1 X125.734 Y119.908 E21.94052
G1 X148.342 Y142.516 E22.95206
G1 X148.342 Y142.516 F30000
G1 X147.674 Y142.386
G1 F6000
G1 X148.234 Y142.946 E22.97712
G1 X148.232 Y143.359 E22.99019
G1 X148.214 Y143.465 E22.99359
G1 X147.977 Y143.227 E23.00422
G1 X147.909 Y143.697 E23.01924
G1 X148.116 Y143.904 E23.0285
G1 X148.068 Y144.059 E23.03363
G1 X147.962 Y144.288 E23.04161
G1 X147.771 Y144.098 E23.05013
G1 X147.569 Y144.433 E23.06251
G1 X147.762 Y144.626 E23.07115
G1 X147.52 Y144.923 E23.08327
G1 X147.333 Y144.735 E23.09166
G1 X147.161 Y144.914 E23.09951
G1 X147.05 Y144.991 E23.10378
G1 X147.24 Y145.181 E23.11228
G1 X146.92 Y145.399 E23.12453
G1 X146.729 Y145.207 E23.1331
G1 X146.35 Y145.366 E23.1461
G1 X146.583 Y145.6 E23.15655
G1 X146.244 Y145.799 E23.16899
G1 X145.905 Y145.46 E23.18416
G1 X145.827 Y145.476 E23.18668
G1 X145.375 Y145.468 E23.20098
G1 X146.029 Y146.122 E23.23024
G1 E21.23024 F2400
G92 E0
G1 X146.029 Y146.122 Z.6 F30000
G1 X146.333 Y141.045
G1 Z.2
G1 E2 F2400
G1 F6000
G1 X125.734 Y120.447 E2.92163
G1 X125.734 Y120.985 E2.93865
G1 X145.515 Y140.765 E3.82368
G1 X145.316 Y140.769 E3.82998
G1 X145.046 Y140.834 E3.83877
G1 X125.734 Y121.523 E4.70282
G1 X125.734 Y122.061 E4.71984
G1 X144.646 Y140.972 E5.56599
G1 X144.357 Y141.112 E5.57615
G1 X144.296 Y141.16 E5.57861
G1 X125.734 Y122.599 E6.4091
G1 X125.734 Y123.137 E6.42612
G1 X143.995 Y141.398 E7.24317
G1 X143.837 Y141.555 E7.25022
G1 X143.743 Y141.683 E7.25524
G1 X125.734 Y123.675 E8.06099
G1 X125.734 Y124.213 E8.07801
G1 X143.529 Y142.008 E8.87421
G1 X143.363 Y142.38 E8.8871
G1 X125.734 Y124.751 E9.67587
G1 X125.734 Y125.289 E9.69289
G1 X143.265 Y142.82 E10.47727
G1 X143.257 Y143.35 E10.49404
G1 X125.734 Y125.827 E11.27807
G1 X125.734 Y126.366 E11.29512
G1 X145.566 Y146.198 E12.18246
G1 X145.228 Y146.397 E12.19487
G1 X125.734 Y126.904 E13.06706
G1 X125.734 Y127.442 E13.08408
G1 X144.889 Y146.596 E13.9411
G1 X144.55 Y146.796 E13.95355
G1 X125.734 Y127.98 E14.79543
G1 X125.734 Y128.518 E14.81245
G1 X144.211 Y146.995 E15.63916
G1 X143.873 Y147.194 E15.65157
G1 X125.734 Y129.056 E16.46314
G1 X125.734 Y129.594 E16.48016
G1 X143.534 Y147.394 E17.27658
G1 X143.195 Y147.593 E17.28902
G1 X125.734 Y130.132 E18.07027
G1 X125.734 Y130.67 E18.08729
G1 X142.856 Y147.792 E18.85337
G1 X142.518 Y147.992 E18.8658
G1 X125.734 Y131.208 E19.61676
G1 X125.734 Y131.747 E19.63381
G1 X142.179 Y148.191 E20.36958
G1 X141.84 Y148.39 E20.38202
G1 X125.734 Y132.285 E21.10262
G1 X125.734 Y132.823 E21.11964
G1 X141.501 Y148.59 E21.8251
G1 X141.163 Y148.789 E21.83751
G1 X125.734 Y133.361 E22.52782
G1 X125.734 Y133.899 E22.54484
G1 X140.824 Y148.988 E23.21999
G1 X140.485 Y149.188 E23.23244
G1 X125.734 Y134.437 E23.89244
G1 X125.734 Y134.975 E23.90946
G1 X140.146 Y149.387 E24.55429
