; generated by PrusaSlicer 2.8.0+win64 on 2024-10-08 at 12:44:33 UTC


;
;
; 

; external perimeters extrusion width = 0.45mm
; perimeters extrusion width = 0.45mm
; infill extrusion width = 0.45mm
; solid infill extrusion width = 0.45mm
; top infill extrusion width = 0.40mm
; support material extrusion width = 0.35mm
; first layer extrusion width = 0.42mm

;TYPE:Custom
M82 ;absolute extrusion mode
M140 S0
M104 S0 
START_PRINT EXTRUDER_TEMP=260 BED_TEMP=100
G92 E0
G92 E0
G1 F2400 E-0.5
G21 ; set units to millimeters
G90 ; use absolute coordinates
M82 ; use absolute distances for extrusion
G92 E0
; Filament gcode
M107
;LAYER_CHANGE
;Z:0.2
;HEIGHT:0.2
G1 E-2 F2400
G1 Z.6 F30000
G92 E0
G1 X115.144 Y93.03
G1 Z.2
G1 E2 F2400
G92 E0
;TYPE:External perimeter
;WIDTH:0.419999
G1 F6000
G1 X115.173 Y93.045 E.00102
G1 X115.21 Y93.157 E.00472
G1 X115.207 Y101.145 E.25518
G1 X115.15 Y101.251 E.25895
G1 X114.907 Y101.301 E.26673
G1 X104.979 Y101.301 E.57801
G1 X104.83 Y101.228 E.58321
G1 X104.79 Y101.113 E.58703
G1 X104.79 Y97.98 E.68526
G1 X104.865 Y97.829 E.69055
G1 X104.979 Y97.791 E.69432
G1 X112.328 Y97.791 E.92474
G1 X112.328 Y93.157 E1.07004
G1 X112.365 Y93.044 E1.07377
G1 X112.516 Y92.968 E1.07907
G1 X115.021 Y92.968 E1.15761
G1 X115.09 Y93.003 E1.16004
G1 X115.204 Y93.387 F30000
G1 E-.83996 F2400
G92 E0
G1 Z.6 F30000
G1 X116.373 Y45.634
G1 Z.2
G1 E2 F2400
;TYPE:Perimeter
;WIDTH:0.50008
G1 F6000
G1 X116.483 Y45.498 E2.00665
G1 E.00665 F2400
G92 E0
G1 X116.483 Y45.498 Z.6 F30000
G1 X116.467 Y47.592
G1 Z.2
G1 E2 F2400
;WIDTH:0.419999
G1 F6000
G1 X116.352 Y47.435 E2.0061
G1 X116.3 Y47.197 E2.01374
G1 X116.3 Y45.968 E2.05227
;WIDTH:0.449615
G1 X116.336 Y45.801 E2.05805
;WIDTH:0.47923
G1 X116.373 Y45.634 E2.06426
G1 X116.217 Y45.703 E2.07045
;WIDTH:0.449615
G1 X116.06 Y45.773 E2.07626
;WIDTH:0.419999
G1 X115.291 Y45.785 E2.10037
G1 X114.815 Y45.757 E2.11532
G1 X114.574 Y45.604 E2.12427
G1 X114.176 Y44.804 E2.15229
G1 X113.914 Y44.502 E2.16483
G1 X113.512 Y44.239 E2.17989
G1 X113.381 Y44.036 E2.18747
G1 X113.345 Y43.837 E2.19381
G1 X113.345 Y42.884 E2.22369
G1 X113.406 Y42.627 E2.23197
G1 X113.601 Y42.411 E2.24109
G1 X113.842 Y42.323 E2.24913
G1 X118.021 Y42.319 E2.38016
G1 X118.361 Y42.432 E2.39139
G1 X118.587 Y42.884 E2.40723
G1 X118.579 Y44.149 E2.44689
G1 X118.368 Y44.498 E2.45968
G1 X118.226 Y44.579 E2.46481
G1 X118.021 Y44.617 E2.47135
G1 X116.321 Y44.617 E2.52465
G1 X116.497 Y45.095 E2.54062
;WIDTH:0.46004
G1 X116.49 Y45.297 E2.54763
;WIDTH:0.50008
G1 X116.483 Y45.498 E2.55528
G1 X116.682 Y45.45 E2.56306
;WIDTH:0.46004
G1 X116.88 Y45.402 E2.57013
;WIDTH:0.419999
G1 X118.021 Y45.402 E2.60591
G1 X118.226 Y45.44 E2.61245
G1 X118.368 Y45.521 E2.61758
G1 X118.587 Y45.968 E2.63319
G1 X118.587 Y47.197 E2.67172
G1 X118.517 Y47.468 E2.6805
G1 X118.587 Y47.738 E2.68925
G1 X118.587 Y51.121 E2.79532
G1 X118.579 Y51.219 E2.7984
G1 X118.415 Y51.528 E2.80937
G1 X118.114 Y51.679 E2.81993
G1 X117.888 Y51.671 E2.82702
G1 X117.373 Y51.546 E2.84364
G1 X116.799 Y51.266 E2.86366
G1 X116.055 Y50.609 E2.89478
G1 X115.851 Y50.351 E2.90509
G1 X115.792 Y51.084 E2.92815
G1 X115.666 Y51.396 E2.9387
G1 X115.42 Y51.571 E2.94817
G1 X115.164 Y51.6 E2.95625
G1 X114.644 Y51.489 E2.97292
G1 X114.158 Y51.266 E2.98969
G1 X113.749 Y50.879 E3.00734
G1 X113.506 Y50.433 E3.02326
G1 X113.374 Y49.903 E3.04039
G1 X113.37 Y48.918 E3.07127
G1 X113.496 Y48.345 E3.08967
G1 X113.765 Y47.843 E3.10753
G1 X114.136 Y47.495 E3.12348
G1 X114.598 Y47.272 E3.13956
G1 X115.097 Y47.2 E3.15537
G1 X115.71 Y47.311 E3.1749
G1 X116.183 Y47.561 E3.19167
G1 X116.507 Y47.848 E3.20524
G1 X116.487 Y47.647 E3.21157
G1 E1.21157 F2400
G92 E0
G1 X116.487 Y47.647 Z.6 F30000
G1 X115.444 Y49.786
G1 Z.2
G1 E2 F2400
;TYPE:External perimeter
;WIDTH:0.406341
G1 F6000
G1 X115.503 Y49.897 E2.0038
;WIDTH:0.419999
G1 X115.449 Y50.648 E2.02741
G1 X115.39 Y51.135 E2.04279
G1 X115.261 Y51.224 E2.0477
G1 X114.763 Y51.132 E2.06358
G1 X114.338 Y50.93 E2.07833
G1 X114.06 Y50.666 E2.09035
G1 X113.87 Y50.336 E2.10229
G1 X113.749 Y49.868 E2.11745
G1 X113.747 Y48.928 E2.14692
G1 X113.862 Y48.434 E2.16282
G1 X114.087 Y48.047 E2.17686
G1 X114.383 Y47.786 E2.18923
G1 X114.739 Y47.626 E2.20147
G1 X115.125 Y47.579 E2.21366
G1 X115.548 Y47.652 E2.22712
G1 X115.933 Y47.843 E2.2406
G1 X116.337 Y48.201 E2.25752
G1 X116.884 Y48.888 E2.28505
G1 X116.884 Y47.738 E2.32111
;WIDTH:0.469423
G1 X116.899 Y47.65 E2.32428
;WIDTH:0.518847
G1 X116.914 Y47.561 E2.32785
;WIDTH:0.553425
G1 X116.97 Y47.516 E2.3309
;WIDTH:0.588002
G1 X117.026 Y47.47 E2.33418
G1 X116.945 Y47.453 E2.33793
;WIDTH:0.553425
G1 X116.865 Y47.435 E2.34141
;WIDTH:0.518847
G1 X116.78 Y47.356 E2.346
;WIDTH:0.469423
G1 X116.694 Y47.277 E2.35014
;WIDTH:0.419999
G1 X116.677 Y45.968 E2.39119
G1 X116.746 Y45.821 E2.39628
G1 X116.88 Y45.779 E2.40068
G1 X118.021 Y45.779 E2.43646
G1 X118.137 Y45.819 E2.44031
G1 X118.21 Y45.968 E2.44551
G1 X118.21 Y47.197 E2.48404
G1 X118.186 Y47.29 E2.48705
;WIDTH:0.460976
G1 X118.145 Y47.335 E2.48917
;WIDTH:0.501952
G1 X118.104 Y47.379 E2.49147
;WIDTH:0.542928
G1 X118.063 Y47.423 E2.49397
;WIDTH:0.583904
G1 X118.021 Y47.468 E2.49674
G1 X118.067 Y47.523 E2.49997
;WIDTH:0.542928
G1 X118.112 Y47.578 E2.50292
;WIDTH:0.501952
G1 X118.158 Y47.632 E2.50563
;WIDTH:0.460976
G1 X118.203 Y47.687 E2.5081
;WIDTH:0.419999
G1 X118.21 Y51.121 E2.61577
G1 X118.153 Y51.257 E2.62039
G1 X117.977 Y51.305 E2.62611
G1 X117.463 Y51.18 E2.6427
G1 X116.972 Y50.932 E2.65995
G1 X116.351 Y50.374 E2.68613
G1 X115.888 Y49.78 E2.70974
;WIDTH:0.406341
G1 X115.631 Y49.452 E2.72233
;WIDTH:0.43956
G1 X115.421 Y49.31 E2.73069
;WIDTH:0.481679
G1 X115.211 Y49.169 E2.73992
G1 X115.062 Y49.155 E2.74538
G1 X114.953 Y49.274 E2.75127
G1 X114.954 Y49.469 E2.75838
G1 X115.134 Y49.62 E2.76695
;WIDTH:0.476439
G1 X115.275 Y49.676 E2.77242
;WIDTH:0.43694
G1 X115.416 Y49.732 E2.77739
G1 X115.477 Y50.127 F30000
G1 E.77739 F2400
G92 E0
G1 Z.6 F30000
G1 X104.859 Y79.515
G1 Z.2
G1 E2 F2400
;WIDTH:0.419999
G1 F6000
G1 X104.818 Y79.492 E2.00147
G1 X104.79 Y79.393 E2.0047
G1 X104.79 Y71.069 E2.26569
G1 X104.841 Y70.94 E2.27004
G1 X104.979 Y70.88 E2.27476
G1 X107.157 Y70.88 E2.34305
G1 X107.327 Y70.989 E2.34938
G1 X107.345 Y71.444 E2.36366
G1 X107.345 Y76.065 E2.50855
G1 X108.514 Y76.065 E2.5452
G1 X108.514 Y71.444 E2.69009
G1 X108.587 Y71.295 E2.69529
G1 X108.703 Y71.256 E2.69913
G1 X110.785 Y71.256 E2.76441
G1 X110.914 Y71.306 E2.76875
G1 X110.974 Y71.444 E2.77347
G1 X110.974 Y76.065 E2.91836
G1 X112.525 Y76.065 E2.96699
G1 X112.525 Y70.919 E3.12834
G1 X112.548 Y70.829 E3.13125
G1 X112.681 Y70.733 E3.13639
G1 X112.714 Y70.73 E3.13743
G1 X115.021 Y70.73 E3.20976
G1 X115.164 Y70.796 E3.2147
G1 X115.21 Y70.919 E3.21882
G1 X115.21 Y79.393 E3.48452
G1 X115.148 Y79.533 E3.48932
G1 X114.905 Y79.581 E3.49709
G1 X104.979 Y79.581 E3.80831
G1 X104.912 Y79.544 E3.81071
G1 X104.796 Y79.161 F30000
G1 E1.81071 F2400
G92 E0
G1 Z.6 F30000
G1 X111.723 Y156.094
G1 Z.2
G1 E2 F2400
;TYPE:Perimeter
G1 F6000
G1 X112 Y155.593 E2.01795
G1 X112.176 Y155.52 E2.02392
G1 X112.38 Y155.611 E2.03092
G1 X112.539 Y155.864 E2.04029
G1 X112.615 Y156.298 E2.0541
G1 X112.523 Y156.812 E2.07047
G1 X112.238 Y157.184 E2.08516
G1 X111.84 Y157.375 E2.099
G1 X111.342 Y157.49 E2.11503
G1 X111.56 Y156.571 E2.14464
G1 X111.704 Y156.151 E2.15856
G1 E.15856 F2400
G92 E0
G1 X111.704 Y156.151 Z.6 F30000
G1 X108.483 Y153.695
G1 Z.2
G1 E2 F2400
G1 F6000
G1 X108.664 Y153.272 E2.01443
G1 X109.132 Y152.551 E2.04138
G1 X109.623 Y152.095 E2.06239
G1 X110.034 Y151.775 E2.07872
G1 X110.752 Y151.47 E2.10318
G1 X111.676 Y151.332 E2.13247
G1 X112.27 Y151.372 E2.15114
G1 X112.79 Y151.473 E2.16775
G1 X113.325 Y151.679 E2.18573
G1 X113.8 Y151.931 E2.20259
G1 X114.272 Y152.299 E2.22136
G1 X114.663 Y152.686 E2.23861
G1 X115.004 Y153.17 E2.25717
G1 X115.269 Y153.658 E2.27458
G1 X115.501 Y154.338 E2.29711
G1 X115.655 Y154.981 E2.31784
G1 X115.732 Y155.663 E2.33936
G1 X115.757 Y156.322 E2.36004
G1 X115.732 Y157.311 E2.39106
G1 X115.592 Y158.298 E2.42232
G1 X115.428 Y158.83 E2.43978
G1 X115.205 Y159.317 E2.45657
G1 X114.689 Y160.181 E2.48812
G1 X114.554 Y160.334 E2.49452
G1 X113.997 Y160.773 E2.51676
G1 X113.337 Y161.166 E2.54084
G1 X112.56 Y161.425 E2.56652
G1 X111.77 Y161.569 E2.5917
G1 X111.494 Y161.549 E2.60038
G1 X111.262 Y161.402 E2.60899
G1 X111.13 Y161.176 E2.6172
G1 X110.959 Y158.682 E2.69558
G1 X110.636 Y159.33 E2.71828
G1 X110.181 Y160.055 E2.74512
G1 X109.733 Y160.484 E2.76457
G1 X109.133 Y160.893 E2.78734
G1 X108.469 Y161.109 E2.80923
G1 X107.88 Y161.188 E2.82786
G1 X107.671 Y161.193 E2.83441
G1 X106.904 Y161.076 E2.85874
G1 X106.044 Y160.693 E2.88826
G1 X105.586 Y160.337 E2.90645
G1 X105.156 Y159.873 E2.92629
G1 X104.713 Y159.115 E2.95382
G1 X104.475 Y158.394 E2.97763
G1 X104.33 Y157.737 E2.99873
G1 X104.261 Y157.044 E3.02057
G1 X104.243 Y156.377 E3.04149
G1 X104.273 Y155.569 E3.06684
G1 X104.383 Y154.759 E3.09247
G1 X104.651 Y153.939 E3.11952
G1 X105.016 Y153.179 E3.14595
G1 X105.125 Y153.026 E3.15184
G1 X105.602 Y152.551 E3.17295
G1 X106.206 Y152.115 E3.19631
G1 X106.955 Y151.823 E3.22152
G1 X107.718 Y151.662 E3.24597
G1 X108.069 Y151.703 E3.25705
G1 X108.305 Y151.909 E3.26687
G1 X108.395 Y152.183 E3.27591
G1 X108.48 Y153.635 E3.32151
G1 X108.48 Y153.635 F30000
G1 X108.283 Y155.155
;TYPE:External perimeter
;WIDTH:0.603564
G1 F6000
G1 X108.382 Y154.923 E3.33327
;WIDTH:0.557673
G1 X108.48 Y154.692 E3.34401
;WIDTH:0.511782
G1 X108.579 Y154.46 E3.35384
;WIDTH:0.465891
G1 X108.677 Y154.228 E3.3627
;WIDTH:0.419999
G1 X108.963 Y153.51 E3.38693
G1 X109.448 Y152.756 E3.41504
G1 X110.181 Y152.122 E3.44543
G1 X110.899 Y151.817 E3.46989
G1 X111.723 Y151.706 E3.49596
G1 X112.237 Y151.748 E3.51213
G1 X112.75 Y151.853 E3.52855
G1 X113.202 Y152.037 E3.54385
G1 X113.65 Y152.282 E3.55986
G1 X114.048 Y152.603 E3.57589
G1 X114.408 Y152.966 E3.59192
G1 X114.693 Y153.382 E3.60773
G1 X114.937 Y153.836 E3.62389
G1 X115.143 Y154.455 E3.64434
G1 X115.289 Y155.068 E3.6641
G1 X115.357 Y155.703 E3.68412
G1 X115.38 Y156.335 E3.70395
G1 X115.355 Y157.301 E3.73425
G1 X115.218 Y158.244 E3.76413
G1 X115.061 Y158.736 E3.78032
G1 X114.855 Y159.174 E3.7955
G1 X114.366 Y159.987 E3.82525
G1 X113.764 Y160.476 E3.84957
G1 X113.146 Y160.84 E3.87206
G1 X112.447 Y161.065 E3.89508
G1 X111.705 Y161.198 E3.91872
G1 X111.551 Y161.157 E3.92372
G1 X111.484 Y161.024 E3.92839
G1 X111.326 Y158.516 E4.00718
;WIDTH:0.468856
G1 X111.274 Y157.998 E4.02562
G1 X111.34 Y157.891 E4.03007
;WIDTH:0.443757
G1 X111.919 Y157.743 E4.04999
;WIDTH:0.419999
G1 X112.469 Y157.489 E4.06898
G1 X112.801 Y157.077 E4.08557
G1 X112.907 Y156.839 E4.09374
G1 X112.995 Y156.295 E4.11102
G1 X112.939 Y155.816 E4.12614
G1 X112.729 Y155.409 E4.1405
G1 X112.48 Y155.206 E4.15057
G1 X112.176 Y155.132 E4.16038
G1 X111.886 Y155.202 E4.16973
G1 X111.648 Y155.392 E4.17928
G1 X111.305 Y156.091 E4.20369
G1 X110.982 Y157.371 E4.24508
;WIDTH:0.468856
G1 X110.861 Y157.901 E4.26433
G1 X110.661 Y158.431 E4.28439
;WIDTH:0.419999
G1 X110.299 Y159.162 E4.30997
G1 X109.862 Y159.854 E4.33563
G1 X109.482 Y160.203 E4.35181
G1 X108.931 Y160.574 E4.37264
G1 X108.364 Y160.747 E4.39123
G1 X107.834 Y160.814 E4.40798
G1 X106.96 Y160.704 E4.4356
G1 X106.206 Y160.353 E4.46168
G1 X105.81 Y160.032 E4.47766
G1 X105.482 Y159.682 E4.4927
G1 X105.039 Y158.925 E4.5202
G1 X104.836 Y158.283 E4.54131
G1 X104.698 Y157.656 E4.56144
G1 X104.637 Y157.01 E4.58178
G1 X104.62 Y156.367 E4.60195
G1 X104.65 Y155.583 E4.62655
G1 X104.757 Y154.811 E4.65099
G1 X105.008 Y154.06 E4.67582
G1 X105.355 Y153.344 E4.70077
G1 X105.868 Y152.818 E4.72381
G1 X106.424 Y152.423 E4.74519
G1 X107.083 Y152.178 E4.76723
G1 X107.793 Y152.031 E4.78996
G1 X107.91 Y152.045 E4.79365
G1 X108.016 Y152.186 E4.79918
G1 X108.133 Y154.154 E4.86099
;WIDTH:0.454095
G1 X108.172 Y154.533 E4.87402
;WIDTH:0.48819
G1 X108.211 Y154.911 E4.88809
;WIDTH:0.526648
G1 X108.235 Y154.992 E4.89149
;WIDTH:0.565106
G1 X108.259 Y155.074 E4.8952
;WIDTH:0.603564
G1 X108.266 Y155.098 E4.89637
G1 X108.461 Y154.748 F30000
G1 E2.89637 F2400
G92 E0
G1 Z.6 F30000
G1 X115.409 Y91.783
G1 Z.2
G1 E2 F2400
;TYPE:Perimeter
;WIDTH:0.419999
G1 F6000
G1 X115.34 Y91.863 E2.00331
;WIDTH:0.46222
G1 X115.234 Y91.917 E2.00746
;WIDTH:0.504441
G1 X115.128 Y91.97 E2.01201
;WIDTH:0.546662
G1 X115.021 Y92.024 E2.01703
G1 X112.516 Y92.024 E2.12196
G1 X112.222 Y92.003 E2.13431
;WIDTH:0.504441
G1 X111.929 Y91.982 E2.14558
;WIDTH:0.46222
G1 X111.635 Y91.961 E2.15586
;WIDTH:0.419999
G1 X104.979 Y91.961 E2.36455
G1 X104.759 Y91.917 E2.37158
G1 X104.525 Y91.734 E2.38089
G1 X104.421 Y91.493 E2.38912
G1 X104.413 Y91.395 E2.3922
G1 X104.413 Y88.262 E2.49043
G1 X104.442 Y88.084 E2.49608
G1 X104.611 Y87.833 E2.50557
G1 X104.979 Y87.697 E2.51787
G1 X107.191 Y87.697 E2.58723
G1 X104.611 Y85.486 E2.69376
G1 X104.442 Y85.235 E2.70325
G1 X104.413 Y85.057 E2.7089
G1 X104.413 Y80.887 E2.83965
G1 X104.497 Y80.59 E2.84933
G1 X104.622 Y80.447 E2.85529
G1 X104.979 Y80.325 E2.86712
;WIDTH:0.418388
G1 X105.076 Y80.33 E2.87015
;WIDTH:0.419999
G1 X105.372 Y80.48 E2.88055
G1 X108.856 Y83.848 E3.03249
G1 X109.994 Y83.151 E3.07433
;WIDTH:0.457071
G1 X112.35 Y81.686 E3.16987
;WIDTH:0.494142
G1 X114.707 Y80.221 E3.27399
;WIDTH:0.543186
G1 X114.773 Y80.171 E3.27743
;WIDTH:0.59223
G1 X114.839 Y80.12 E3.28124
;WIDTH:0.641274
G1 X114.905 Y80.069 E3.28539
G1 X114.817 Y80.045 E3.28993
;WIDTH:0.59223
G1 X114.73 Y80.02 E3.29406
;WIDTH:0.543186
G1 X114.643 Y79.996 E3.29781
;WIDTH:0.494142
G1 X111.868 Y79.977 E3.40193
;WIDTH:0.457071
G1 X109.094 Y79.959 E3.49746
;WIDTH:0.419999
G1 X104.979 Y79.955 E3.62648
G1 X104.622 Y79.832 E3.63832
G1 X104.455 Y79.608 E3.64708
G1 X104.413 Y79.393 E3.65395
G1 X104.413 Y71.069 E3.91494
G1 X104.498 Y70.77 E3.92469
G1 X104.711 Y70.57 E3.93385
G1 X104.979 Y70.503 E3.94251
G1 X107.157 Y70.503 E4.0108
G1 X107.59 Y70.706 E4.02579
G1 X107.669 Y70.83 E4.0304
;WIDTH:0.42105
G1 X107.723 Y71.069 E4.0381
;WIDTH:0.43906
G1 X107.732 Y75.678 E4.18992
G1 X108.128 Y75.678 E4.20296
G1 X108.128 Y71.444 E4.34242
G1 X108.2 Y71.185 E4.35127
;WIDTH:0.42105
G1 X108.357 Y70.997 E4.35897
;WIDTH:0.419999
G1 X108.605 Y70.887 E4.36748
G1 X108.703 Y70.878 E4.37057
G1 X110.785 Y70.878 E4.43585
G1 X111.076 Y70.959 E4.44532
G1 X111.273 Y71.157 E4.45408
G1 X111.351 Y71.444 E4.46341
G1 X111.351 Y75.687 E4.59645
G1 X112.148 Y75.687 E4.62144
G1 X112.148 Y70.919 E4.77094
G1 X112.217 Y70.648 E4.77971
G1 X112.405 Y70.445 E4.78839
G1 X112.714 Y70.353 E4.7985
G1 X115.021 Y70.353 E4.87083
G1 X115.305 Y70.429 E4.88005
G1 X115.512 Y70.637 E4.88925
G1 X115.587 Y70.919 E4.8984
G1 X115.587 Y79.393 E5.1641
G1 X115.517 Y79.666 E5.17294
G1 X115.401 Y79.812 E5.17879
;WIDTH:0.46222
G1 X115.325 Y79.862 E5.18196
;WIDTH:0.504441
G1 X115.249 Y79.913 E5.18547
;WIDTH:0.546662
G1 X115.173 Y79.963 E5.18928
;WIDTH:0.588883
G1 X115.097 Y80.014 E5.19344
;WIDTH:0.631104
G1 X115.021 Y80.064 E5.19789
G1 X115.097 Y80.114 E5.20234
;WIDTH:0.588883
G1 X115.173 Y80.165 E5.2065
;WIDTH:0.546662
G1 X115.249 Y80.215 E5.21031
;WIDTH:0.504441
G1 X115.325 Y80.266 E5.21382
;WIDTH:0.46222
G1 X115.401 Y80.316 E5.21699
;WIDTH:0.419999
G1 X115.567 Y80.585 E5.2269
G1 X115.587 Y80.735 E5.23164
G1 X115.587 Y84.592 E5.35257
G1 X115.55 Y84.794 E5.35901
G1 X115.385 Y85.025 E5.36791
G1 X111.89 Y86.833 E5.49129
G1 X112.795 Y87.697 E5.53052
G1 X115.021 Y87.697 E5.60031
G1 X115.28 Y87.759 E5.60866
G1 X115.451 Y87.894 E5.61549
G1 X115.55 Y88.06 E5.62155
G1 X115.587 Y88.262 E5.62799
G1 X115.587 Y91.395 E5.72622
G1 X115.53 Y91.644 E5.73423
G1 X115.448 Y91.737 E5.73812
G1 X115.448 Y91.737 F30000
G1 X115.144 Y91.522
;TYPE:External perimeter
G1 F6000
G1 X115.021 Y91.584 E5.74244
G1 X110.754 Y91.584 E5.87623
G1 X104.979 Y91.584 E6.0573
G1 X104.865 Y91.546 E6.06107
G1 X104.79 Y91.395 E6.06636
G1 X104.79 Y88.262 E6.16459
G1 X104.856 Y88.119 E6.16953
G1 X104.979 Y88.074 E6.17364
G1 X108.211 Y88.074 E6.27498
G1 X104.856 Y85.2 E6.41349
G1 X104.79 Y85.057 E6.41843
G1 X104.79 Y80.887 E6.54918
G1 X104.86 Y80.74 E6.55428
G1 X105.011 Y80.701 E6.55917
G1 X105.11 Y80.751 E6.56265
G1 X108.804 Y84.322 E6.72374
G1 X114.923 Y80.574 E6.94873
