; generated by PrusaSlicer 2.8.0+win64 on 2024-08-14 at 16:45:56 UTC


;
;
; 

; external perimeters extrusion width = 0.45mm
; perimeters extrusion width = 0.45mm
; infill extrusion width = 0.45mm
; solid infill extrusion width = 0.45mm
; top infill extrusion width = 0.40mm
; support material extrusion width = 0.35mm
; first layer extrusion width = 0.42mm

;TYPE:Custom
M82 ;absolute extrusion mode
M140 S0
M104 S0 
START_PRINT EXTRUDER_TEMP=260 BED_TEMP=100
G92 E0
G92 E0
G1 F2400 E-0.5
G21 ; set units to millimeters
G90 ; use absolute coordinates
M82 ; use absolute distances for extrusion
G92 E0
; Filament gcode
M107
;LAYER_CHANGE
;Z:0.2
;HEIGHT:0.2
G1 E-2 F2400
G1 Z.6 F30000
G1 X91.829 Y32.382
G1 Z.2
G1 E0 F2400
;TYPE:Skirt/Brim
;WIDTH:0.42
G1 F6000
G1 X92.378 Y31.495 E.03271
G1 X93.088 Y30.756 E.06484
G1 X93.911 Y30.177 E.09639
G1 X95.482 Y29.672 E.14813
G1 X116.665 Y29.661 E.81231
G1 X117.614 Y29.853 E.84267
G1 X118.485 Y30.232 E.87245
G1 X119.704 Y31.256 E.92237
G1 X120.495 Y32.473 E.96788
G1 X120.856 Y33.856 E1.0127
G1 X120.849 Y183.929 E5.71813
G1 X120.455 Y185.353 E5.76446
G1 X119.906 Y186.24 E5.79717
G1 X119.196 Y186.979 E5.8293
G1 X118.373 Y187.558 E5.86085
G1 X116.803 Y188.063 E5.91256
G1 X95.58 Y188.075 E6.57799
G1 X94.156 Y187.68 E6.62432
G1 X93.269 Y187.132 E6.65701
G1 X92.53 Y186.422 E6.68914
G1 X91.951 Y185.598 E6.72072
G1 X91.429 Y183.913 E6.77603
G1 X91.435 Y33.806 E11.48253
G1 X91.813 Y32.44 E11.52697
G1 X91.813 Y32.44 F30000
G1 X92.164 Y32.557
G1 F6000
G1 X92.688 Y31.711 E11.55817
G1 X93.347 Y31.03 E11.58788
G1 X94.054 Y30.527 E11.61509
G1 X95.569 Y30.04 E11.66499
G1 X116.61 Y30.035 E12.32472
G1 X117.483 Y30.207 E12.35262
G1 X118.309 Y30.567 E12.38087
G1 X119.439 Y31.525 E12.42732
G1 X120.138 Y32.599 E12.4675
G1 X120.478 Y33.881 E12.50909
G1 X120.472 Y183.903 E17.21292
G1 X120.12 Y185.178 E17.25439
G1 X119.596 Y186.024 E17.28559
G1 X118.938 Y186.705 E17.31528
G1 X118.23 Y187.208 E17.34251
G1 X116.715 Y187.695 E17.39241
G1 X95.606 Y187.697 E18.05427
G1 X94.332 Y187.345 E18.09571
G1 X93.485 Y186.822 E18.12692
G1 X92.805 Y186.163 E18.15661
G1 X92.302 Y185.456 E18.18382
G1 X91.806 Y183.883 E18.23553
G1 X91.812 Y33.831 E22.94031
G1 X92.148 Y32.615 E22.97987
G1 X92.499 Y32.733 F30000
G1 F6000
G1 X92.997 Y31.927 E23.00958
G1 X93.605 Y31.305 E23.03685
G1 X94.199 Y30.876 E23.05982
G1 X95.656 Y30.408 E23.1078
G1 X116.591 Y30.412 E23.7642
G1 X117.388 Y30.573 E23.78969
G1 X118.13 Y30.9 E23.81511
G1 X119.172 Y31.793 E23.85814
G1 X119.805 Y32.778 E23.89485
G1 X120.101 Y33.905 E23.93138
G1 X120.095 Y183.878 E28.63368
G1 X119.785 Y185.002 E28.67024
G1 X119.287 Y185.808 E28.69995
G1 X118.679 Y186.43 E28.72722
G1 X118.085 Y186.858 E28.75018
G1 X116.628 Y187.327 E28.79817
G1 X95.631 Y187.32 E29.45652
G1 X94.507 Y187.011 E29.49307
G1 X93.702 Y186.512 E29.52277
G1 X93.08 Y185.905 E29.55002
G1 X92.651 Y185.311 E29.57299
G1 X92.183 Y183.854 E29.62097
G1 X92.189 Y33.857 E34.32402
G1 X92.483 Y32.79 E34.35872
G1 X92.483 Y32.79 F30000
G1 X92.834 Y32.908
G1 F6000
G1 X93.307 Y32.144 E34.38689
G1 X93.863 Y31.581 E34.4117
G1 X94.346 Y31.225 E34.43051
G1 X95.687 Y30.785 E34.47476
G1 X116.571 Y30.789 E35.12956
G1 X117.29 Y30.938 E35.15258
G1 X117.95 Y31.232 E35.17523
G1 X118.904 Y32.06 E35.21484
G1 X119.448 Y32.904 E35.24632
G1 X119.724 Y33.93 E35.27963
G1 X119.718 Y183.853 E39.98036
G1 X119.45 Y184.827 E40.01203
G1 X118.978 Y185.591 E40.04019
G1 X118.421 Y186.154 E40.06502
G1 X117.938 Y186.51 E40.08383
G1 X116.598 Y186.95 E40.12805
G1 X95.657 Y186.943 E40.78464
G1 X94.683 Y186.676 E40.81631
G1 X93.918 Y186.203 E40.84451
G1 X93.355 Y185.646 E40.86934
G1 X92.999 Y185.163 E40.88815
G1 X92.56 Y183.823 E40.93236
G1 X92.566 Y33.882 E45.63365
G1 X92.818 Y32.966 E45.66344
G1 X92.818 Y32.966 F30000
G1 X93.17 Y33.082
G1 F6000
G1 X93.615 Y32.361 E45.69001
G1 X94.497 Y31.572 E45.72711
G1 X95.718 Y31.162 E45.76749
G1 X116.552 Y31.166 E46.42073
G1 X117.155 Y31.29 E46.44003
G1 X117.77 Y31.565 E46.46115
G1 X118.634 Y32.325 E46.49723
G1 X119.114 Y33.081 E46.52531
G1 X119.347 Y33.955 E46.55367
G1 X119.347 Y183.78 E51.25133
G1 X119.115 Y184.653 E51.27965
G1 X118.669 Y185.374 E51.30623
G1 X117.787 Y186.163 E51.34333
G1 X116.566 Y186.573 E51.38371
G1 X95.729 Y186.573 E52.03704
G1 X94.857 Y186.34 E52.06534
G1 X94.136 Y185.894 E52.09192
G1 X93.346 Y185.013 E52.12902
G1 X92.937 Y183.792 E52.16939
G1 X92.937 Y33.955 E56.86742
G1 X93.154 Y33.14 E56.89386
G1 X93.154 Y33.14 F30000
G1 X93.517 Y33.24
G1 F6000
G1 X93.525 Y33.209 E56.89486
G1 X93.897 Y32.613 E56.91689
G1 X94.698 Y31.892 E56.95068
G1 X95.748 Y31.539 E56.98541
G1 X116.531 Y31.543 E57.63705
G1 X117.056 Y31.654 E57.65387
G1 X117.587 Y31.896 E57.67217
G1 X118.364 Y32.588 E57.70479
G1 X118.758 Y33.209 E57.72785
G1 X118.97 Y33.981 E57.75295
G1 X118.97 Y183.754 E62.44898
G1 X118.759 Y184.526 E62.47407
G1 X118.387 Y185.122 E62.4961
G1 X117.586 Y185.843 E62.52989
G1 X116.536 Y186.196 E62.56462
G1 X95.755 Y186.196 E63.21619
G1 X94.984 Y185.984 E63.24126
G1 X94.388 Y185.612 E63.26329
G1 X93.666 Y184.811 E63.2971
G1 X93.314 Y183.761 E63.33182
G1 X93.314 Y33.981 E68.02807
G1 X93.501 Y33.298 E68.05027
G1 X93.501 Y33.298 F30000
G1 X93.863 Y33.4
G1 F6000
G1 X93.88 Y33.339 E68.05226
G1 X94.178 Y32.865 E68.06982
G1 X94.899 Y32.212 E68.10032
G1 X95.779 Y31.916 E68.12943
G1 X116.51 Y31.92 E68.77944
G1 X116.953 Y32.018 E68.79367
G1 X117.401 Y32.225 E68.80914
G1 X118.092 Y32.85 E68.83835
G1 X118.404 Y33.339 E68.85654
G1 X118.593 Y34.008 E68.87834
G1 X118.593 Y183.727 E73.57267
G1 X118.404 Y184.396 E73.59447
G1 X118.106 Y184.87 E73.61203
G1 X117.385 Y185.523 E73.64253
G1 X116.505 Y185.818 E73.67163
G1 X95.782 Y185.818 E74.32139
G1 X95.113 Y185.629 E74.34319
G1 X94.639 Y185.331 E74.36075
G1 X93.987 Y184.61 E74.39123
G1 X93.691 Y183.731 E74.42031
G1 X93.691 Y34.008 E79.11477
G1 X93.847 Y33.458 E79.1327
G1 X93.847 Y33.458 F30000
G1 X94.207 Y33.564
G1 F6000
G1 X94.234 Y33.472 E79.13571
G1 X94.459 Y33.117 E79.14889
G1 X95.098 Y32.534 E79.17601
G1 X95.81 Y32.294 E79.19957
G1 X116.488 Y32.297 E79.84791
G1 X117.213 Y32.553 E79.87202
G1 X117.818 Y33.111 E79.89783
G1 X118.05 Y33.472 E79.91128
G1 X118.216 Y34.036 E79.92971
G1 X118.216 Y183.699 E84.62229
G1 X118.05 Y184.263 E84.64072
G1 X117.825 Y184.618 E84.6539
G1 X117.186 Y185.201 E84.68102
G1 X116.474 Y185.441 E84.70458
G1 X95.81 Y185.441 E85.35249
G1 X95.246 Y185.275 E85.37092
G1 X94.892 Y185.05 E85.38407
G1 X94.308 Y184.411 E85.41121
G1 X94.068 Y183.7 E85.43474
G1 X94.068 Y34.036 E90.12735
G1 X94.19 Y33.621 E90.14091
G1 X94.19 Y33.621 F30000
G1 X94.548 Y33.732
G1 F6000
G1 X94.586 Y33.609 E90.14495
G1 X95.146 Y32.964 E90.17173
G1 X95.841 Y32.671 E90.19538
G1 X116.466 Y32.674 E90.84206
G1 X117.024 Y32.881 E90.86072
G1 X117.543 Y33.369 E90.88306
G1 X117.839 Y34.065 E90.90677
G1 X117.839 Y183.67 E95.59753
G1 X117.698 Y184.126 E95.6125
G1 X117.138 Y184.771 E95.63928
G1 X116.443 Y185.064 E95.66293
G1 X95.84 Y185.064 E96.30892
G1 X95.384 Y184.924 E96.32388
G1 X94.739 Y184.364 E96.35066
G1 X94.445 Y183.669 E96.37432
G1 X94.445 Y34.065 E101.06505
G1 X94.53 Y33.789 E101.0741
G1 X94.53 Y33.789 F30000
G1 X94.888 Y33.939
G1 F6000
G1 X95.02 Y33.623 E101.08484
G1 X95.4 Y33.243 E101.10169
G1 X95.873 Y33.048 E101.11773
G1 X116.444 Y33.051 E101.76272
G1 X116.834 Y33.208 E101.7759
G1 X117.265 Y33.625 E101.7947
G1 X117.462 Y34.097 E101.81074
G1 X117.462 Y183.638 E106.49949
G1 X117.264 Y184.112 E106.5156
G1 X116.884 Y184.492 E106.53245
G1 X116.411 Y184.687 E106.54849
G1 X95.871 Y184.687 E107.19251
G1 X95.398 Y184.49 E107.20858
G1 X95.018 Y184.109 E107.22545
G1 X94.822 Y183.637 E107.24147
G1 X94.822 Y34.097 E111.93019
G1 X94.865 Y33.994 E111.93369
G1 X94.865 Y33.994 F30000
G1 X95.202 Y34.126
G1 F6000
G1 X95.299 Y33.878 E111.94204
G1 X95.652 Y33.524 E111.95771
G1 X95.906 Y33.425 E111.96626
G1 X116.424 Y33.431 E112.60959
G1 X116.642 Y33.534 E112.61715
G1 X116.985 Y33.878 E112.63238
G1 X117.085 Y34.132 E112.64094
G1 X117.085 Y183.603 E117.3275
G1 X116.985 Y183.857 E117.33606
G1 X116.632 Y184.211 E117.35173
G1 X116.378 Y184.31 E117.36028
G1 X95.906 Y184.31 E118.00217
G1 X95.652 Y184.211 E118.01072
G1 X95.299 Y183.857 E118.02639
G1 X95.199 Y183.603 E118.03495
G1 X95.199 Y34.185 E122.71985
G1 X95.199 Y34.185 F30000
G1 X95.576 Y34.185
G1 F6000
G1 X95.576 Y34.174 E122.72019
G1 X95.948 Y33.802 E122.73669
G1 X116.336 Y33.802 E123.37594
G1 X116.708 Y34.174 E123.39244
G1 X116.708 Y183.561 E128.07636
G1 X116.336 Y183.933 E128.09286
G1 X95.948 Y183.933 E128.73211
G1 X95.576 Y183.561 E128.74861
G1 X95.576 Y34.245 E133.43031
G1 X95.576 Y34.245 F30000
G1 X95.954 Y34.289
G1 F6000
G1 X96.064 Y34.179 E133.43519
G1 X116.22 Y34.179 E134.06717
G1 X116.331 Y34.289 E134.07207
G1 X116.331 Y183.446 E138.74878
G1 X116.22 Y183.556 E138.75368
G1 X96.064 Y183.556 E139.38566
G1 X95.954 Y183.446 E139.39054
G1 X95.954 Y34.349 E144.06537
G1 E142.06537 F2400
G92 E0
G1 X95.954 Y34.349 Z.6 F30000
G92 E0
G1 X100.997 Y100.108
G1 Z.2
G1 E2 F2400
;TYPE:External perimeter
;WIDTH:0.419999
G1 F6000
G1 X100.972 Y100.096 E2.00087
G1 X100.932 Y99.98 E2.00472
G1 X100.932 Y96.847 E2.10295
G1 X101.007 Y96.697 E2.10821
G1 X101.121 Y96.659 E2.11198
G1 X108.47 Y96.659 E2.3424
G1 X108.47 Y93.555 E2.43972
G1 X108.47 Y92.024 E2.48772
G1 X108.507 Y91.911 E2.49145
G1 X108.658 Y91.836 E2.49674
G1 X111.164 Y91.836 E2.57531
G1 X111.316 Y91.913 E2.58065
G1 X111.352 Y92.024 E2.58431
G1 X111.352 Y99.98 E2.83376
G1 X111.292 Y100.118 E2.83848
G1 X111.049 Y100.169 E2.84627
G1 X101.121 Y100.169 E3.15755
G1 X101.051 Y100.135 E3.15999
G1 X100.938 Y99.751 F30000
G1 E1.15999 F2400
G92 E0
G1 Z.6 F30000
G1 X112.839 Y43.827
G1 Z.2
G1 E2 F2400
;TYPE:Perimeter
;WIDTH:0.378407
G1 F6000
G1 X112.766 Y43.764 E2.00269
;WIDTH:0.400879
G1 X112.686 Y43.63 E2.00734
;WIDTH:0.419999
G1 X112.648 Y43.347 E2.01629
G1 X112.648 Y42.222 E2.05156
G1 X112.697 Y42.092 E2.05592
G1 X111.9 Y42.101 E2.08091
G1 X111.391 Y42.036 E2.097
G1 X110.903 Y41.869 E2.11317
G1 X110.361 Y41.567 E2.13262
G1 X110.041 Y41.168 E2.14866
G1 X109.814 Y40.722 E2.16435
G1 X109.698 Y39.94 E2.18914
G1 X109.75 Y39.297 E2.20937
G1 X109.944 Y38.754 E2.22745
G1 X110.268 Y38.324 E2.24433
G1 X110.64 Y38.041 E2.25899
G1 X111.175 Y37.819 E2.27715
G1 X112.002 Y37.684 E2.30342
G1 X112.742 Y37.681 E2.32662
G1 X113.324 Y37.761 E2.34504
G1 X113.786 Y37.915 E2.36031
G1 X114.167 Y38.096 E2.37354
G1 X114.351 Y38.235 E2.38077
G1 X114.655 Y38.6 E2.39566
;WIDTH:0.43271
G1 X114.896 Y39.061 E2.41252
;WIDTH:0.476251
G1 X114.963 Y39.275 E2.4206
;WIDTH:0.519792
G1 X115.029 Y39.49 E2.42952
;WIDTH:0.525004
G1 X115.021 Y40.363 E2.46452
G1 X114.952 Y40.539 E2.4721
;WIDTH:0.490003
G1 X114.882 Y40.716 E2.47918
;WIDTH:0.455001
G1 X114.813 Y40.892 E2.48566
;WIDTH:0.419999
G1 X114.531 Y41.336 E2.50215
G1 X114.175 Y41.657 E2.51718
G1 X114.484 Y41.669 E2.52688
G1 X114.742 Y41.797 E2.53591
;WIDTH:0.460492
G1 X114.827 Y41.939 E2.54166
;WIDTH:0.500985
G1 X114.911 Y42.081 E2.54794
;WIDTH:0.541478
G1 X114.996 Y42.222 E2.55477
G1 X114.996 Y43.452 E2.60576
;WIDTH:0.575982
G1 X114.964 Y43.698 E2.61676
G1 X114.903 Y43.8 E2.62203
G1 X114.964 Y43.902 E2.6273
G1 X114.996 Y44.147 E2.63825
;WIDTH:0.541478
G1 X114.996 Y47.53 E2.77849
;WIDTH:0.548112
G1 X114.99 Y47.639 E2.78308
G1 X114.914 Y47.738 E2.78832
;WIDTH:0.505408
G1 X114.838 Y47.838 E2.79315
;WIDTH:0.462704
G1 X114.763 Y47.937 E2.79749
;WIDTH:0.419999
G1 X114.462 Y48.088 E2.80805
G1 X114.236 Y48.08 E2.81514
G1 X113.721 Y47.955 E2.83176
G1 X113.147 Y47.675 E2.85178
G1 X112.403 Y47.018 E2.8829
G1 X112.199 Y46.76 E2.89321
G1 X112.14 Y47.493 E2.91627
G1 X112.014 Y47.805 E2.92682
G1 X111.778 Y47.976 E2.93596
G1 X111.481 Y48.005 E2.94532
G1 X110.992 Y47.898 E2.96101
G1 X110.529 Y47.689 E2.97694
G1 X110.117 Y47.318 E2.99432
G1 X109.853 Y46.842 E3.01139
G1 X109.721 Y46.312 E3.02852
G1 X109.717 Y45.327 E3.0594
G1 X109.844 Y44.754 E3.0778
G1 X110.086 Y44.29 E3.09421
G1 X110.466 Y43.918 E3.11088
G1 X110.914 Y43.692 E3.12661
G1 X111.387 Y43.612 E3.14165
G1 X111.901 Y43.672 E3.15788
G1 X112.394 Y43.89 E3.17478
;WIDTH:0.400879
G1 X112.881 Y44.314 E3.194
;WIDTH:0.368604
G1 X112.898 Y44.013 E3.20216
G1 X112.937 Y43.913 E3.20507
;WIDTH:0.378407
G1 X112.884 Y43.866 E3.20705
G1 E1.20705 F2400
G92 E0
G1 X112.884 Y43.866 Z.6 F30000
G1 X114.031 Y38.465
G1 Z.2
G1 E2 F2400
;TYPE:External perimeter
;WIDTH:0.419999
G1 F6000
G1 X114.067 Y38.483 E2.00126
G1 X114.327 Y38.788 E2.01383
G1 X114.522 Y39.145 E2.02658
G1 X114.603 Y39.517 E2.03852
G1 X114.626 Y39.908 E2.0508
G1 X114.584 Y40.373 E2.06544
G1 X114.429 Y40.827 E2.08048
G1 X114.189 Y41.156 E2.09325
G1 X113.876 Y41.407 E2.10583
G1 X113.548 Y41.561 E2.11719
;WIDTH:0.423475
G1 X113.081 Y41.669 E2.13236
G1 X112.568 Y41.728 E2.1487
;WIDTH:0.419999
G1 X111.903 Y41.724 E2.16955
G1 X111.338 Y41.625 E2.18754
G1 X110.812 Y41.396 E2.20553
G1 X110.601 Y41.276 E2.21314
G1 X110.325 Y40.905 E2.22764
G1 X110.165 Y40.571 E2.23925
G1 X110.071 Y39.889 E2.26084
G1 X110.125 Y39.337 E2.27823
G1 X110.325 Y38.842 E2.29497
G1 X110.586 Y38.539 E2.30751
G1 X110.794 Y38.385 E2.31562
G1 X111.242 Y38.19 E2.33094
G1 X112.062 Y38.056 E2.35699
G1 X112.739 Y38.058 E2.37822
G1 X113.208 Y38.119 E2.39305
G1 X113.624 Y38.255 E2.40677
G1 X113.978 Y38.437 E2.41925
G1 X114.263 Y38.719 F30000
G1 E.41925 F2400
G92 E0
G1 Z.6 F30000
G1 X103.413 Y69.821
G1 Z.2
G1 E2 F2400
G1 F6000
G1 X103.47 Y69.857 E2.00211
G1 X103.487 Y70.312 E2.01639
G1 X103.487 Y74.932 E2.16125
G1 X104.656 Y74.932 E2.1979
G1 X104.656 Y70.312 E2.34276
G1 X104.73 Y70.163 E2.34798
G1 X104.845 Y70.123 E2.3518
G1 X106.927 Y70.123 E2.41708
G1 X107.056 Y70.174 E2.42143
G1 X107.116 Y70.312 E2.42615
G1 X107.116 Y74.932 E2.57101
G1 X108.667 Y74.932 E2.61964
G1 X108.667 Y69.786 E2.78099
G1 X108.69 Y69.696 E2.7839
G1 X108.823 Y69.601 E2.78902
G1 X111.164 Y69.598 E2.86242
G1 X111.306 Y69.663 E2.86732
G1 X111.352 Y69.786 E2.87144
G1 X111.352 Y78.26 E3.13714
G1 X111.29 Y78.4 E3.14194
G1 X111.047 Y78.449 E3.14971
G1 X101.121 Y78.449 E3.46093
G1 X100.96 Y78.359 E3.46671
G1 X100.932 Y78.26 E3.46994
G1 X100.932 Y69.936 E3.73093
G1 X100.983 Y69.808 E3.73525
G1 X101.121 Y69.748 E3.73997
G1 X103.299 Y69.748 E3.80826
G1 X103.362 Y69.788 E3.8106
G1 X103.477 Y70.172 F30000
G1 E1.8106 F2400
G92 E0
G1 Z.6 F30000
G1 X108.142 Y154.461
G1 Z.2
G1 E2 F2400
;TYPE:Perimeter
G1 F6000
G1 X108.318 Y154.387 E2.00599
G1 X108.522 Y154.478 E2.01299
G1 X108.682 Y154.732 E2.0224
G1 X108.758 Y155.165 E2.03618
G1 X108.665 Y155.68 E2.05259
G1 X108.38 Y156.051 E2.06726
G1 X107.982 Y156.242 E2.0811
G1 X107.484 Y156.357 E2.09713
G1 X107.702 Y155.439 E2.12671
G1 X107.865 Y154.962 E2.14252
G1 X108.113 Y154.513 E2.1586
G1 E.1586 F2400
G92 E0
G1 X108.113 Y154.513 Z.6 F30000
G1 X107.101 Y157.55
G1 Z.2
G1 E2 F2400
G1 F6000
G1 X106.779 Y158.198 E2.02269
G1 X106.323 Y158.923 E2.04954
G1 X105.876 Y159.351 E2.06894
G1 X105.275 Y159.76 E2.09173
G1 X104.611 Y159.977 E2.11363
G1 X104.022 Y160.056 E2.13226
G1 X103.813 Y160.06 E2.13881
G1 X103.046 Y159.944 E2.16313
G1 X102.186 Y159.561 E2.19265
G1 X101.728 Y159.205 E2.21084
G1 X101.298 Y158.74 E2.2307
G1 X100.855 Y157.982 E2.25823
G1 X100.617 Y157.261 E2.28204
G1 X100.472 Y156.604 E2.30314
G1 X100.403 Y155.912 E2.32494
G1 X100.385 Y155.244 E2.34589
G1 X100.415 Y154.436 E2.37124
G1 X100.525 Y153.627 E2.39684
G1 X100.793 Y152.806 E2.42392
G1 X101.158 Y152.046 E2.45035
G1 X101.267 Y151.893 E2.45624
G1 X101.744 Y151.418 E2.47735
G1 X102.348 Y150.982 E2.50071
G1 X103.097 Y150.69 E2.52592
G1 X103.86 Y150.529 E2.55037
G1 X104.211 Y150.571 E2.56145
G1 X104.447 Y150.776 E2.57125
G1 X104.537 Y151.051 E2.58032
G1 X104.626 Y152.562 E2.62778
G1 X104.806 Y152.14 E2.64216
G1 X105.274 Y151.418 E2.66914
G1 X105.765 Y150.962 E2.69015
G1 X106.176 Y150.642 E2.70648
G1 X106.894 Y150.337 E2.73094
G1 X107.818 Y150.199 E2.76023
G1 X108.412 Y150.24 E2.7789
G1 X108.932 Y150.341 E2.79551
G1 X109.467 Y150.547 E2.81349
G1 X109.942 Y150.798 E2.83033
G1 X110.414 Y151.166 E2.8491
G1 X110.805 Y151.554 E2.86637
G1 X111.146 Y152.037 E2.88491
G1 X111.411 Y152.526 E2.90235
G1 X111.643 Y153.206 E2.92488
G1 X111.798 Y153.849 E2.94562
G1 X111.874 Y154.531 E2.96714
