; generated by PrusaSlicer 2.6.0+win64 on 2024-07-04 at 11:52:53 UTC


;
;

;
;
; 

; external perimeters extrusion width = 0.45mm
; perimeters extrusion width = 0.45mm
; infill extrusion width = 0.45mm
; solid infill extrusion width = 0.45mm
; top infill extrusion width = 0.40mm
; support material extrusion width = 0.40mm
; first layer extrusion width = 0.60mm

M73 P0 R52
M201 X2500 Y2500 Z400 E5000 ; sets maximum accelerations, mm/sec^2
M203 X300 Y300 Z20 E80 ; sets maximum feedrates, mm / sec
M204 S1250 T2000 ; sets acceleration (S) and retract acceleration (R), mm/sec^2
M205 X8.00 Y8.00 Z2.00 E10.00 ; sets the jerk limits, mm/sec
M205 S0 T0 ; sets the minimum extruding and travel feed rate, mm/sec
;TYPE:Custom
M80 ;
G90 ; use absolute coordinates
M83 ; extruder relative mode
M140 S115 ; set bed temp
M104 S235 ; set extruder temp
M190 S115 ; wait for bed temp
M109 S235 ; wait for extruder temp
G28 ; home all without mesh bed level
G29 ;
G92 E0.0
G1 Y0 X179 F2400
G1 Z3 F720


; intro line
G1 X170 F1000
G1 Z0.2 F720
G1 X110 E8 F900
G1 X40 E10 F700
G92 E0

M221 S95 ; set flow
G21 ; set units to millimeters
G90 ; use absolute coordinates
M83 ; use relative distances for extrusion
; Filament gcode
M107
;LAYER_CHANGE
;Z:0.3
;HEIGHT:0.3
;BEFORE_LAYER_CHANGE
G92 E0.0
;0.3


G1 E-5 F3600
G1 Z.4 F7800
;AFTER_LAYER_CHANGE
;0.3
G1 X120.307 Y79.618
G1 Z.3
G1 E5 F3600
;TYPE:Skirt/Brim
;WIDTH:0.6
G1 F600
G1 X120.979 Y78.699 E.07606
G1 X121.85 Y77.738 E.08665
G1 X122.699 Y76.979 E.07608
G1 X124.46 Y75.803 E.14147
G1 X125.632 Y75.248 E.08663
G1 X126.707 Y74.872 E.07608
G1 X127.813 Y74.603 E.07604
G1 X129.921 Y74.395 E.14151
G1 X180 Y74.393 E3.34555
G1 X181.141 Y74.869 E.08259
G1 X192.324 Y86.149 E1.06113
G1 X192.79 Y87.281 E.08178
G1 X192.79 Y112.719 E1.6994
G1 X192.324 Y113.851 E.08178
G1 X181.141 Y125.131 E1.06113
G1 X180 Y125.607 E.08259
G1 X128.941 Y125.557 E3.41102
G1 X127.813 Y125.397 E.07611
M73 P1 R52
G1 X126.707 Y125.128 E.07604
G1 X125.632 Y124.752 E.07608
G1 X124.599 Y124.272 E.0761
G1 X123.618 Y123.693 E.0761
G1 X122.699 Y123.021 E.07606
G1 X121.738 Y122.15 E.08665
G1 X120.979 Y121.301 E.07608
G1 X119.803 Y119.54 E.14147
G1 X119.248 Y118.368 E.08663
G1 X118.633 Y116.341 E.14151
G1 X118.443 Y115.059 E.08658
G1 X118.395 Y85.921 E1.94658
G1 X118.459 Y84.784 E.07608
G1 X118.644 Y83.618 E.07887
G1 X119.248 Y81.632 E.13868
G1 X119.728 Y80.599 E.0761
G1 X120.277 Y79.67 E.07209
G1 X120.74 Y79.948 F7800
G1 F600
G1 X120.825 Y79.806 E.01106
G1 X121.476 Y78.937 E.07254
G1 X122.21 Y78.135 E.07263
G1 X123.018 Y77.409 E.07257
G1 X124.735 Y76.262 E.13794
G1 X125.852 Y75.738 E.08242
G1 X126.837 Y75.391 E.06977
G1 X127.892 Y75.133 E.07256
G1 X129.947 Y74.93 E.13795
G1 X180 Y74.929 E3.34381
G1 X180.761 Y75.246 E.05507
M73 P1 R51
G1 X191.944 Y86.526 E1.06113
G1 X192.254 Y87.281 E.05452
G1 X192.254 Y112.719 E1.6994
G1 X191.944 Y113.474 E.05452
G1 X180.761 Y124.754 E1.06113
G1 X180 Y125.071 E.05507
G1 X128.967 Y125.022 E3.40928
G1 X127.892 Y124.867 E.07256
G1 X126.837 Y124.609 E.07256
G1 X125.812 Y124.247 E.07262
G1 X124.828 Y123.788 E.07254
G1 X123.894 Y123.234 E.07255
G1 X123.018 Y122.591 E.07259
G1 X122.21 Y121.865 E.07257
G1 X121.409 Y120.982 E.07964
G1 X120.262 Y119.265 E.13794
G1 X119.753 Y118.188 E.07958
G1 X119.153 Y116.211 E.13802
G1 X118.978 Y115.033 E.07956
G1 X118.93 Y85.947 E1.9431
G1 X118.989 Y84.863 E.07252
G1 X119.163 Y83.748 E.07539
G1 X119.753 Y81.812 E.13521
G1 X120.212 Y80.828 E.07254
G1 X120.709 Y79.999 E.06457
G1 X121.166 Y80.273 F7800
G1 F600
G1 X121.255 Y80.125 E.01154
G1 X121.873 Y79.296 E.06908
G1 X122.569 Y78.532 E.06904
G1 X123.337 Y77.84 E.06906
G1 X125.011 Y76.721 E.13452
G1 X125.993 Y76.257 E.07256
G1 X126.967 Y75.911 E.06905
G1 X127.97 Y75.662 E.06904
G1 X129.974 Y75.465 E.13452
G1 X180 Y75.464 E3.34201
G1 X180.38 Y75.623 E.02752
M73 P2 R51
G1 X191.563 Y86.903 E1.06113
G1 X191.719 Y87.281 E.02732
G1 X191.719 Y112.719 E1.6994
G1 X191.563 Y113.097 E.02732
G1 X180.38 Y124.377 E1.06113
G1 X180 Y124.536 E.02752
G1 X128.994 Y124.487 E3.40748
G1 X127.971 Y124.338 E.06906
G1 X126.967 Y124.089 E.0691
G1 X125.993 Y123.743 E.06905
G1 X125.057 Y123.303 E.06909
G1 X124.169 Y122.774 E.06905
G1 X123.337 Y122.16 E.06908
G1 X122.569 Y121.468 E.06906
G1 X121.84 Y120.663 E.07255
G1 X120.721 Y118.989 E.13452
G1 X120.257 Y118.007 E.07256
G1 X119.673 Y116.081 E.13445
G1 X119.513 Y115.006 E.07261
G1 X119.465 Y85.974 E1.9395
G1 X119.518 Y84.941 E.0691
G1 X119.683 Y83.878 E.07186
G1 X120.257 Y81.993 E.13164
G1 X120.697 Y81.057 E.06909
G1 X121.136 Y80.325 E.05702
G1 E-5 F3600
G1 Z.7 F7800
G1 X191.183 Y112.719
G1 Z.3
G1 E5 F3600
;TYPE:Support material
G1 F600
G1 X181.2 Y112.719 E.66692
G1 X181.2 Y87.281 E1.6994
G1 X191.183 Y87.281 E.66692
G1 X191.183 Y112.639 E1.69405
G1 X190.171 Y112.478 F7800
G1 F600
G1 X190.171 Y87.763 E1.6511
G1 X187.493 Y87.763 E.1789
G1 X187.493 Y112.237 E1.635
G1 X184.815 Y112.237 E.1789
M73 P3 R51
G1 X184.815 Y87.763 E1.635
G1 X182.137 Y87.763 E.1789
G1 X182.137 Y112.478 E1.6511
G1 E-5 F3600
G1 Z.7 F7800
G1 X171.527 Y77.368
G1 Z.3
G1 E5 F3600
;TYPE:Perimeter
;WIDTH:0.6
G1 F600
G1 X178.629 Y77.371 E.47445
G1 X178.629 Y79.176 E.12058
M73 P3 R50
G1 X178.629 Y84.682 E.36783
G1 X178.649 Y85.214 E.03557
;WIDTH:0.559978
G1 X178.669 Y85.745 E.03285
;WIDTH:0.519957
G1 X178.682 Y86.273 E.03001
;WIDTH:0.493479
G1 X178.695 Y86.802 E.02832
;WIDTH:0.471335
G1 X178.693 Y87.858 E.0536
;WIDTH:0.505234
G1 X178.676 Y88.39 E.02927
;WIDTH:0.539134
G1 X178.659 Y88.921 E.03146
;WIDTH:0.569567
G1 X178.644 Y89.369 E.02824
;WIDTH:0.6
G1 X178.629 Y89.818 E.03001
G1 X178.629 Y110.182 E1.36042
G1 X178.649 Y110.714 E.03557
;WIDTH:0.559978
G1 X178.669 Y111.245 E.03285
;WIDTH:0.519957
G1 X178.682 Y111.773 E.03001
;WIDTH:0.493479
G1 X178.695 Y112.302 E.02832
;WIDTH:0.471335
G1 X178.693 Y113.358 E.0536
;WIDTH:0.505234
G1 X178.676 Y113.89 E.02927
;WIDTH:0.539134
G1 X178.659 Y114.421 E.03146
;WIDTH:0.569567
G1 X178.644 Y114.869 E.02824
;WIDTH:0.6
G1 X178.629 Y115.318 E.03001
G1 X178.629 Y122.629 E.48841
G1 X171.854 Y122.629 E.45261
G1 X170.785 Y122.645 E.07142
;WIDTH:0.568117
G1 X170.256 Y122.665 E.03326
;WIDTH:0.527208
G1 X169.726 Y122.686 E.03062
;WIDTH:0.486298
G1 X168.67 Y122.698 E.05557
;WIDTH:0.495096
G1 X167.612 Y122.681 E.05684
;WIDTH:0.538483
G1 X167.077 Y122.66 E.03166
;WIDTH:0.58187
G1 X166.543 Y122.638 E.0345
;WIDTH:0.6
G1 X133.818 Y122.629 E2.18621
G1 X133.286 Y122.649 E.03557
;WIDTH:0.559978
G1 X132.755 Y122.669 E.03285
;WIDTH:0.519956
G1 X132.227 Y122.682 E.03001
;WIDTH:0.493479
G1 X131.698 Y122.695 E.02832
;WIDTH:0.471335
G1 X130.642 Y122.693 E.0536
;WIDTH:0.512755
G1 X129.735 Y122.658 E.05076
;WIDTH:0.556328
G1 X129.14 Y122.606 E.03665
;WIDTH:0.59832
G1 X128.304 Y122.459 E.05653
;WIDTH:0.634844
G1 X127.399 Y122.203 E.06692
;WIDTH:0.666446
G1 X126.526 Y121.852 E.07066
;WIDTH:0.693388
G1 X125.942 Y121.559 E.05126
;WIDTH:0.709085
G1 X125.225 Y121.118 E.06769
;WIDTH:0.715074
G1 X124.486 Y120.554 E.07545
G1 X123.722 Y119.819 E.08604
;WIDTH:0.721318
G1 X123.368 Y119.421 E.04364
G1 X122.864 Y118.749 E.06883
;WIDTH:0.708901
G1 X122.38 Y117.944 E.07551
;WIDTH:0.683636
G1 X121.988 Y117.105 E.07153
;WIDTH:0.654163
G1 X121.759 Y116.485 E.04862
;WIDTH:0.638047
G1 X121.536 Y115.67 E.06046
;WIDTH:0.598852
G1 X121.461 Y115.232 E.02962
;WIDTH:0.573336
G1 X121.386 Y114.794 E.02821
;WIDTH:0.54782
G1 X121.35 Y114.26 E.03227
;WIDTH:0.517059
G1 X121.314 Y113.726 E.03022
;WIDTH:0.486298
G1 X121.302 Y112.67 E.05557
;WIDTH:0.495096
G1 X121.319 Y111.612 E.05684
;WIDTH:0.538484
G1 X121.34 Y111.077 E.03166
;WIDTH:0.581873
G1 X121.362 Y110.543 E.0345
;WIDTH:0.6
G1 X121.371 Y90.354 E1.34873
G1 X121.355 Y89.285 E.07142
;WIDTH:0.568117
G1 X121.335 Y88.756 E.03326
;WIDTH:0.527208
G1 X121.314 Y88.226 E.03062
;WIDTH:0.486298
G1 X121.302 Y87.17 E.05557
;WIDTH:0.5011
G1 X121.322 Y86.027 E.06227
;WIDTH:0.528227
G1 X121.368 Y85.521 E.02939
;WIDTH:0.555354
G1 X121.413 Y85.015 E.03111
;WIDTH:0.601397
G1 X121.591 Y84.11 E.06178
;WIDTH:0.638045
G1 X121.767 Y83.488 E.04625
;WIDTH:0.66889
G1 X122.068 Y82.698 E.06374
;WIDTH:0.688627
G1 X122.482 Y81.868 E.07222
;WIDTH:0.704514
G1 X123.025 Y81.028 E.07986
;WIDTH:0.721318
G1 X123.389 Y80.554 E.04897
;WIDTH:0.722988
G1 X123.955 Y79.932 E.06908
G1 X124.654 Y79.308 E.07697
;WIDTH:0.713305
G1 X125.407 Y78.765 E.07514
;WIDTH:0.698916
G1 X125.969 Y78.426 E.05194
;WIDTH:0.693386
G1 X126.725 Y78.056 E.06603
;WIDTH:0.66722
G1 X127.594 Y77.734 E.06968
;WIDTH:0.627593
G1 X128.126 Y77.604 E.03847
;WIDTH:0.600458
G1 X128.657 Y77.475 E.03654
;WIDTH:0.573323
G1 X129.532 Y77.359 E.05603
;WIDTH:0.525351
G1 X130.038 Y77.324 E.02916
;WIDTH:0.505409
G1 X130.802 Y77.305 E.04204
;WIDTH:0.471335
G1 X131.858 Y77.307 E.0536
;WIDTH:0.502411
G1 X132.39 Y77.322 E.02908
;WIDTH:0.533487
G1 X132.921 Y77.338 E.03108
;WIDTH:0.566743
G1 X133.369 Y77.355 E.02809
;WIDTH:0.6
G1 X133.818 Y77.371 E.03001
G1 X165.646 Y77.371 E2.12628
G1 X166.722 Y77.355 E.07189
;WIDTH:0.567548
G1 X167.267 Y77.334 E.03423
;WIDTH:0.526404
G1 X167.812 Y77.314 E.03143
;WIDTH:0.48526
G1 X168.83 Y77.302 E.05344
;WIDTH:0.495097
G1 X169.888 Y77.319 E.05684
;WIDTH:0.538484
G1 X170.423 Y77.34 E.03166
;WIDTH:0.581872
G1 X170.957 Y77.362 E.0345
;WIDTH:0.6
G1 X171.467 Y77.367 E.03407
G1 X171.849 Y78.149 F7800
G1 F600
G1 X172.723 Y78.489 E.06265
G1 X173.647 Y78.97 E.06959
G1 X174.514 Y79.548 E.06961
G1 X175.313 Y80.217 E.06962
G1 X176.035 Y80.967 E.06955
G1 X176.671 Y81.792 E.06959
G1 X177.215 Y82.68 E.06957
G1 X177.659 Y83.622 E.06957
G1 X177.999 Y84.607 E.06961
G1 X178.099 Y85.118 E.03479
;WIDTH:0.566744
G1 X178.198 Y85.629 E.03261
;WIDTH:0.533488
G1 X178.243 Y86.147 E.03042
;WIDTH:0.502411
G1 X178.287 Y86.664 E.02835
;WIDTH:0.471335
G1 X178.293 Y87.698 E.05248
;WIDTH:0.493479
G1 X178.254 Y88.214 E.02769
;WIDTH:0.519957
G1 X178.215 Y88.73 E.0294
;WIDTH:0.559978
G1 X178.126 Y89.242 E.03212
;WIDTH:0.6
G1 X178.038 Y89.754 E.03471
G1 X177.713 Y90.743 E.06955
G1 X177.283 Y91.692 E.0696
G1 X176.752 Y92.588 E.06958
G1 X176.128 Y93.422 E.06958
G1 X175.418 Y94.184 E.06958
G1 X174.629 Y94.864 E.06958
G1 X173.771 Y95.455 E.0696
G1 X172.855 Y95.95 E.06956
G1 X171.906 Y96.332 E.06834
G1 X170.889 Y96.629 E.07078
G1 X169.862 Y96.805 E.06961
G1 X168.822 Y96.869 E.06961
G1 X167.82 Y96.823 E.06701
G1 X166.774 Y96.663 E.07069
G1 X165.747 Y96.389 E.07101
G1 X164.777 Y96.011 E.06955
G1 X163.853 Y95.53 E.06959
G1 X163.009 Y94.962 E.06796
G1 X162.187 Y94.283 E.07123
G1 X161.465 Y93.533 E.06955
G1 X160.829 Y92.708 E.06959
M73 P4 R50
G1 X160.285 Y91.82 E.06957
G1 X159.841 Y90.878 E.06957
G1 X159.501 Y89.893 E.06961
G1 X159.269 Y88.878 E.06956
G1 X159.149 Y87.843 E.06961
G1 X159.149 Y86.657 E.07923
G1 X159.246 Y85.765 E.05994
G1 X159.462 Y84.746 E.06959
G1 X159.787 Y83.757 E.06955
G1 X160.24 Y82.77 E.07255
G1 X160.748 Y81.912 E.06661
G1 X161.372 Y81.078 E.06958
G1 X162.082 Y80.316 E.06958
G1 X162.871 Y79.636 E.06958
G1 X163.729 Y79.045 E.0696
G1 X164.645 Y78.55 E.06956
G1 X165.61 Y78.157 E.06961
G1 X166.614 Y77.88 E.06958
;WIDTH:0.581368
G1 X167.152 Y77.812 E.03497
;WIDTH:0.537442
G1 X167.69 Y77.744 E.032
;WIDTH:0.493516
G1 X168.681 Y77.7 E.05309
;WIDTH:0.486298
G1 X169.715 Y77.736 E.05445
;WIDTH:0.527209
G1 X170.23 Y77.796 E.02993
;WIDTH:0.56812
G1 X170.744 Y77.856 E.03251
;WIDTH:0.6
G1 X171.793 Y78.127 E.07238
G1 X171.659 Y78.647 F7800
G1 F600
G1 X172.525 Y78.987 E.06215
G1 X173.396 Y79.443 E.06568
G1 X174.213 Y79.992 E.06576
G1 X174.966 Y80.625 E.06572
G1 X175.646 Y81.336 E.06573
G1 X176.245 Y82.116 E.0657
G1 X176.756 Y82.956 E.06568
G1 X177.173 Y83.847 E.06572
G1 X177.492 Y84.778 E.06575
G1 X177.708 Y85.737 E.06567
G1 X177.819 Y86.715 E.06576
G1 X177.824 Y87.698 E.06567
G1 X177.722 Y88.677 E.06576
G1 X177.515 Y89.638 E.06567
G1 X177.205 Y90.572 E.06574
G1 X176.797 Y91.467 E.06571
G1 X176.294 Y92.312 E.06569
G1 X175.702 Y93.098 E.06574
G1 X175.029 Y93.815 E.06569
G1 X174.282 Y94.456 E.06576
G1 X173.471 Y95.012 E.06569
G1 X172.604 Y95.477 E.06572
G1 X171.71 Y95.834 E.06431
G1 X170.745 Y96.113 E.06711
G1 X169.775 Y96.277 E.06572
G1 X168.793 Y96.334 E.06571
G1 X167.849 Y96.288 E.06314
G1 X166.86 Y96.135 E.06686
G1 X165.891 Y95.873 E.06706
G1 X164.975 Y95.513 E.06575
G1 X164.104 Y95.057 E.06568
G1 X163.311 Y94.52 E.06398
G1 X162.534 Y93.875 E.06746
G1 X161.854 Y93.164 E.06573
G1 X161.255 Y92.384 E.0657
G1 X160.744 Y91.544 E.06568
G1 X160.327 Y90.653 E.06572
G1 X160.008 Y89.722 E.06575
G1 X159.792 Y88.763 E.06567
G1 X159.681 Y87.785 E.06576
G1 X159.681 Y86.715 E.07148
G1 X159.778 Y85.823 E.05994
G1 X159.985 Y84.862 E.06567
G1 X160.295 Y83.928 E.06574
G1 X160.725 Y82.997 E.06851
G1 X161.206 Y82.188 E.06288
G1 X161.798 Y81.402 E.06574
G1 X162.471 Y80.685 E.06569
G1 X163.218 Y80.044 E.06576
G1 X164.029 Y79.488 E.06569
G1 X164.896 Y79.023 E.06572
G1 X165.808 Y78.655 E.0657
G1 X166.755 Y78.387 E.06575
G1 X167.766 Y78.221 E.06844
G1 X168.707 Y78.166 E.06297
G1 X169.689 Y78.214 E.06568
G1 X170.66 Y78.369 E.06569
G1 X171.603 Y78.625 E.06528
G1 X171.472 Y79.145 F7800
;TYPE:External perimeter
G1 F600
G1 X172.327 Y79.484 E.06144
G1 X173.145 Y79.917 E.06183
G1 X173.912 Y80.435 E.06183
G1 X174.619 Y81.033 E.06186
G1 X175.257 Y81.704 E.06185
G1 X175.818 Y82.44 E.06182
G1 X176.297 Y83.232 E.06183
G1 X176.687 Y84.072 E.06187
G1 X176.984 Y84.949 E.06186
G1 X177.185 Y85.853 E.06187
G1 X177.286 Y86.773 E.06183
G1 X177.288 Y87.698 E.0618
G1 X177.189 Y88.619 E.06188
G1 X176.992 Y89.523 E.06181
G1 X176.698 Y90.401 E.06186
G1 X176.311 Y91.242 E.06185
G1 X175.835 Y92.036 E.06185
G1 X175.276 Y92.774 E.06185
G1 X174.64 Y93.447 E.06186
G1 X173.936 Y94.048 E.06184
G1 X173.17 Y94.568 E.06185
G1 X172.353 Y95.003 E.06183
G1 X171.514 Y95.335 E.06028
G1 X170.602 Y95.597 E.06339
G1 X169.689 Y95.748 E.06182
G1 X168.765 Y95.8 E.06183
G1 X167.878 Y95.753 E.05934
G1 X166.947 Y95.606 E.06297
G1 X166.034 Y95.357 E.06322
G1 X165.173 Y95.016 E.06187
G1 X164.355 Y94.583 E.06183
G1 X163.614 Y94.078 E.05991
G1 X162.881 Y93.467 E.06375
G1 X162.243 Y92.796 E.06185
G1 X161.682 Y92.06 E.06182
G1 X161.203 Y91.268 E.06183
G1 X160.813 Y90.428 E.06187
G1 X160.516 Y89.551 E.06186
G1 X160.315 Y88.647 E.06187
G1 X160.214 Y87.727 E.06183
G1 X160.212 Y86.802 E.0618
G1 X160.311 Y85.881 E.06188
G1 X160.508 Y84.977 E.06181
G1 X160.802 Y84.099 E.06186
G1 X161.21 Y83.224 E.0645
G1 X161.665 Y82.464 E.05918
G1 X162.224 Y81.726 E.06185
G1 X162.86 Y81.053 E.06186
G1 X163.564 Y80.452 E.06184
G1 X164.33 Y79.932 E.06185
G1 X165.147 Y79.497 E.06183
G1 X166.006 Y79.153 E.06182
G1 X166.898 Y78.903 E.06189
G1 X167.851 Y78.75 E.06448
G1 X168.736 Y78.7 E.05922
G1 X169.66 Y78.749 E.06181
G1 X170.574 Y78.897 E.06186
G1 X171.414 Y79.129 E.05822
G1 X171.771 Y78.881 F7800
G1 E-5 F3600
G1 Z.7 F7800
G1 X159.146 Y112.286
G1 Z.3
G1 E5 F3600
;TYPE:Perimeter
G1 F600
G1 X159.246 Y111.265 E.06853
G1 X159.462 Y110.246 E.06959
G1 X159.787 Y109.257 E.06955
G1 X160.217 Y108.308 E.0696
G1 X160.748 Y107.412 E.06958
G1 X161.372 Y106.578 E.06958
G1 X162.082 Y105.816 E.06958
G1 X162.842 Y105.161 E.06703
G1 X163.703 Y104.562 E.07007
G1 X164.645 Y104.05 E.07163
G1 X165.61 Y103.657 E.06961
G1 X166.611 Y103.371 E.06955
G1 X167.624 Y103.201 E.06862
G1 X168.678 Y103.131 E.07057
G1 X169.718 Y103.179 E.06955
G1 X170.747 Y103.34 E.06958
G1 X171.716 Y103.601 E.06704
G1 X172.7 Y103.98 E.07044
G1 X173.647 Y104.47 E.07123
G1 X174.514 Y105.048 E.06961
G1 X175.313 Y105.717 E.06962
G1 X176.035 Y106.467 E.06955
G1 X176.671 Y107.292 E.06959
G1 X177.215 Y108.18 E.06957
G1 X177.659 Y109.122 E.06957
G1 X177.999 Y110.107 E.06961
G1 X178.099 Y110.618 E.03479
;WIDTH:0.566744
G1 X178.198 Y111.129 E.03261
;WIDTH:0.533488
G1 X178.243 Y111.647 E.03042
;WIDTH:0.502411
G1 X178.287 Y112.164 E.02835
;WIDTH:0.471335
G1 X178.293 Y113.198 E.05248
;WIDTH:0.493479
G1 X178.254 Y113.714 E.02769
;WIDTH:0.519957
G1 X178.215 Y114.23 E.0294
;WIDTH:0.559978
G1 X178.126 Y114.742 E.03212
;WIDTH:0.6
G1 X178.038 Y115.254 E.03471
G1 X177.713 Y116.243 E.06955
G1 X177.283 Y117.192 E.0696
G1 X176.752 Y118.088 E.06958
G1 X176.128 Y118.922 E.06958
G1 X175.514 Y119.583 E.06027
G1 X174.629 Y120.364 E.07885
G1 X173.771 Y120.955 E.0696
