; generated by PrusaSlicer 2.8.0+win64 on 2024-09-05 at 20:22:42 UTC


;
;
; 

; external perimeters extrusion width = 0.45mm
; perimeters extrusion width = 0.45mm
; infill extrusion width = 0.45mm
; solid infill extrusion width = 0.45mm
; top infill extrusion width = 0.40mm
; support material extrusion width = 0.35mm
; first layer extrusion width = 0.42mm

;TYPE:Custom
M82 ;absolute extrusion mode
M140 S0
M104 S0 
START_PRINT EXTRUDER_TEMP=260 BED_TEMP=100
G92 E0
G92 E0
G1 F2400 E-0.5
G21 ; set units to millimeters
G90 ; use absolute coordinates
M82 ; use absolute distances for extrusion
G92 E0
; Filament gcode
M107
;LAYER_CHANGE
;Z:0.2
;HEIGHT:0.2
G1 E-2 F2400
G1 Z.6 F30000
G92 E0
G1 X131.913 Y121.913
G1 Z.2
G1 E2 F2400
G92 E0
;TYPE:Perimeter
;WIDTH:0.419999
G1 F6000
G1 X88.087 Y121.913 E1.37413
G1 X88.087 Y98.087 E2.12118
G1 X131.913 Y98.087 E3.49531
G1 X131.913 Y110 E3.86883
G1 X131.913 Y121.853 E4.24047
G1 X132.29 Y122.29 F30000
;TYPE:External perimeter
G1 F6000
G1 X87.71 Y122.29 E5.63824
G1 X87.71 Y97.71 E6.40893
G1 X132.29 Y97.71 E7.8067
G1 X132.29 Y110 E8.19204
G1 X132.29 Y122.23 E8.5755
G1 X131.894 Y122.289 F30000
G1 E6.5755 F2400
G92 E0
G1 Z.6 F30000
G1 X131.8 Y98.963
G1 Z.2
G1 E2 F2400
;TYPE:Solid infill
;WIDTH:0.420462
G1 F6000
G1 X131.206 Y98.37 E2.02635
G1 X130.672 Y98.37 E2.04311
G1 X131.63 Y99.328 E2.08564
G1 X131.63 Y99.862 E2.1024
G1 X130.138 Y98.37 E2.16864
G1 X129.604 Y98.37 E2.1854
G1 X131.63 Y100.396 E2.27535
G1 X131.63 Y100.929 E2.29208
G1 X129.071 Y98.37 E2.40569
G1 X128.537 Y98.37 E2.42245
G1 X131.63 Y101.463 E2.55977
G1 X131.63 Y101.997 E2.57653
G1 X128.003 Y98.37 E2.73755
G1 X127.469 Y98.37 E2.75431
G1 X131.63 Y102.531 E2.93904
G1 X131.63 Y103.065 E2.9558
G1 X126.935 Y98.37 E3.16424
G1 X126.401 Y98.37 E3.181
G1 X131.63 Y103.599 E3.41315
G1 X131.63 Y104.133 E3.42991
G1 X125.867 Y98.37 E3.68576
G1 X125.333 Y98.37 E3.70252
G1 X131.63 Y104.667 E3.98208
G1 X131.63 Y105.201 E3.99884
G1 X124.799 Y98.37 E4.30211
G1 X124.265 Y98.37 E4.31887
G1 X131.63 Y105.735 E4.64585
G1 X131.63 Y106.269 E4.66261
G1 X123.731 Y98.37 E5.01329
G1 X123.197 Y98.37 E5.03005
G1 X131.63 Y106.803 E5.40444
G1 X131.63 Y107.337 E5.4212
G1 X122.663 Y98.37 E5.8193
G1 X122.13 Y98.37 E5.83603
G1 X131.63 Y107.87 E6.25779
G1 X131.63 Y108.404 E6.27455
G1 X121.596 Y98.37 E6.72002
G1 X121.062 Y98.37 E6.73678
G1 X131.63 Y108.938 E7.20596
G1 X131.63 Y109.472 E7.22272
G1 X120.528 Y98.37 E7.7156
G1 X119.994 Y98.37 E7.73236
G1 X131.63 Y110.006 E8.24895
G1 X131.63 Y110.54 E8.26571
G1 X119.46 Y98.37 E8.80601
G1 X118.926 Y98.37 E8.82277
G1 X131.63 Y111.074 E9.38678
G1 X131.63 Y111.608 E9.40354
G1 X118.392 Y98.37 E9.99125
G1 X117.858 Y98.37 E10.00801
G1 X131.63 Y112.142 E10.61943
G1 X131.63 Y112.676 E10.63619
G1 X117.324 Y98.37 E11.27132
G1 X116.79 Y98.37 E11.28808
G1 X131.63 Y113.21 E11.94692
G1 X131.63 Y113.744 E11.96368
G1 X116.256 Y98.37 E12.64622
G1 X115.722 Y98.37 E12.66298
G1 X131.63 Y114.278 E13.36923
G1 X131.63 Y114.812 E13.38599
G1 X115.188 Y98.37 E14.11595
G1 X114.655 Y98.37 E14.13268
G1 X131.63 Y115.345 E14.8863
G1 X131.63 Y115.879 E14.90306
G1 X114.121 Y98.37 E15.68039
G1 X113.587 Y98.37 E15.69715
G1 X131.63 Y116.413 E16.49819
G1 X131.63 Y116.947 E16.51495
G1 X113.053 Y98.37 E17.3397
G1 X112.519 Y98.37 E17.35646
G1 X131.63 Y117.481 E18.20491
G1 X131.63 Y118.015 E18.22167
G1 X111.985 Y98.37 E19.09383
G1 X111.451 Y98.37 E19.11059
G1 X131.63 Y118.549 E20.00646
G1 X131.63 Y119.083 E20.02322
G1 X110.917 Y98.37 E20.9428
G1 X110.383 Y98.37 E20.95956
G1 X131.63 Y119.617 E21.90284
G1 X131.63 Y120.151 E21.9196
G1 X109.849 Y98.37 E22.88659
G1 X109.315 Y98.37 E22.90335
G1 X131.63 Y120.685 E23.89405
G1 X131.63 Y121.219 E23.91081
G1 X108.781 Y98.37 E24.92522
G1 X108.247 Y98.37 E24.94198
G1 X131.508 Y121.63 E25.97465
G1 X130.974 Y121.63 E25.99141
G1 X107.714 Y98.37 E27.02406
G1 X107.18 Y98.37 E27.04082
G1 X130.44 Y121.63 E28.07347
G1 X129.906 Y121.63 E28.09023
G1 X106.646 Y98.37 E29.12288
G1 X106.112 Y98.37 E29.13964
G1 X129.372 Y121.63 E30.17229
G1 X128.838 Y121.63 E30.18905
G1 X105.578 Y98.37 E31.2217
G1 X105.044 Y98.37 E31.23846
G1 X128.304 Y121.63 E32.27111
G1 X127.77 Y121.63 E32.28787
G1 X104.51 Y98.37 E33.32052
G1 X103.976 Y98.37 E33.33728
G1 X127.236 Y121.63 E34.36993
G1 X126.702 Y121.63 E34.38669
G1 X103.442 Y98.37 E35.41934
G1 X102.908 Y98.37 E35.4361
G1 X126.168 Y121.63 E36.46875
G1 X125.635 Y121.63 E36.48548
G1 X102.374 Y98.37 E37.51815
G1 X101.84 Y98.37 E37.53491
G1 X125.101 Y121.63 E38.56758
G1 X124.567 Y121.63 E38.58434
G1 X101.306 Y98.37 E39.61701
G1 X100.773 Y98.37 E39.63374
G1 X124.033 Y121.63 E40.66639
G1 X123.499 Y121.63 E40.68315
G1 X100.239 Y98.37 E41.7158
G1 X99.705 Y98.37 E41.73256
G1 X122.965 Y121.63 E42.76521
G1 X122.431 Y121.63 E42.78197
G1 X99.171 Y98.37 E43.81462
G1 X98.637 Y98.37 E43.83138
G1 X121.897 Y121.63 E44.86403
G1 X121.363 Y121.63 E44.88079
G1 X98.103 Y98.37 E45.91344
G1 X97.569 Y98.37 E45.9302
G1 X120.829 Y121.63 E46.96285
G1 X120.295 Y121.63 E46.97961
G1 X97.035 Y98.37 E48.01226
G1 X96.501 Y98.37 E48.02902
G1 X119.761 Y121.63 E49.06167
G1 X119.227 Y121.63 E49.07843
G1 X95.967 Y98.37 E50.11108
G1 X95.433 Y98.37 E50.12784
G1 X118.693 Y121.63 E51.16049
G1 X118.16 Y121.63 E51.17722
G1 X94.899 Y98.37 E52.20989
G1 X94.365 Y98.37 E52.22665
G1 X117.626 Y121.63 E53.25932
G1 X117.092 Y121.63 E53.27608
G1 X93.831 Y98.37 E54.30875
G1 X93.298 Y98.37 E54.32548
G1 X116.558 Y121.63 E55.35813
G1 X116.024 Y121.63 E55.37489
G1 X92.764 Y98.37 E56.40754
G1 X92.23 Y98.37 E56.4243
G1 X115.49 Y121.63 E57.45695
G1 X114.956 Y121.63 E57.47371
G1 X91.696 Y98.37 E58.50636
G1 X91.162 Y98.37 E58.52312
G1 X114.422 Y121.63 E59.55577
G1 X113.888 Y121.63 E59.57253
G1 X90.628 Y98.37 E60.60518
G1 X90.094 Y98.37 E60.62194
G1 X113.354 Y121.63 E61.65459
G1 X112.82 Y121.63 E61.67135
G1 X89.56 Y98.37 E62.704
G1 X89.026 Y98.37 E62.72076
G1 X112.286 Y121.63 E63.75341
G1 X111.752 Y121.63 E63.77017
G1 X88.492 Y98.37 E64.80282
G1 X88.37 Y98.37 E64.80665
G1 X88.37 Y98.781 E64.81955
G1 X111.219 Y121.63 E65.83396
G1 X110.685 Y121.63 E65.85072
G1 X88.37 Y99.315 E66.84142
G1 X88.37 Y99.849 E66.85818
G1 X110.151 Y121.63 E67.82517
G1 X109.617 Y121.63 E67.84193
G1 X88.37 Y100.383 E68.78521
G1 X88.37 Y100.917 E68.80197
G1 X109.083 Y121.63 E69.72155
G1 X108.549 Y121.63 E69.73831
G1 X88.37 Y101.451 E70.63418
G1 X88.37 Y101.985 E70.65094
G1 X108.015 Y121.63 E71.5231
G1 X107.481 Y121.63 E71.53986
G1 X88.37 Y102.519 E72.38831
G1 X88.37 Y103.053 E72.40507
G1 X106.947 Y121.63 E73.22982
G1 X106.413 Y121.63 E73.24658
G1 X88.37 Y103.587 E74.04762
G1 X88.37 Y104.121 E74.06438
G1 X105.879 Y121.63 E74.84171
G1 X105.345 Y121.63 E74.85847
G1 X88.37 Y104.655 E75.61209
G1 X88.37 Y105.189 E75.62885
G1 X104.811 Y121.63 E76.35877
G1 X104.278 Y121.63 E76.3755
G1 X88.37 Y105.722 E77.08175
G1 X88.37 Y106.256 E77.09851
G1 X103.744 Y121.63 E77.78105
G1 X103.21 Y121.63 E77.79781
G1 X88.37 Y106.79 E78.45665
G1 X88.37 Y107.324 E78.47341
G1 X102.676 Y121.63 E79.10854
G1 X102.142 Y121.63 E79.1253
G1 X88.37 Y107.858 E79.73672
G1 X88.37 Y108.392 E79.75348
G1 X101.608 Y121.63 E80.34119
G1 X101.074 Y121.63 E80.35795
G1 X88.37 Y108.926 E80.92196
G1 X88.37 Y109.46 E80.93872
G1 X100.54 Y121.63 E81.47902
G1 X100.006 Y121.63 E81.49578
G1 X88.37 Y109.994 E82.01237
G1 X88.37 Y110.528 E82.02913
G1 X99.472 Y121.63 E82.52201
G1 X98.938 Y121.63 E82.53877
G1 X88.37 Y111.062 E83.00795
G1 X88.37 Y111.596 E83.02471
G1 X98.404 Y121.63 E83.47018
G1 X97.87 Y121.63 E83.48694
G1 X88.37 Y112.13 E83.9087
G1 X88.37 Y112.664 E83.92546
G1 X97.336 Y121.63 E84.32351
G1 X96.803 Y121.63 E84.34024
G1 X88.37 Y113.197 E84.71463
G1 X88.37 Y113.731 E84.73139
G1 X96.269 Y121.63 E85.08207
G1 X95.735 Y121.63 E85.09883
G1 X88.37 Y114.265 E85.42581
G1 X88.37 Y114.799 E85.44257
G1 X95.201 Y121.63 E85.74584
G1 X94.667 Y121.63 E85.7626
G1 X88.37 Y115.333 E86.04216
G1 X88.37 Y115.867 E86.05892
G1 X94.133 Y121.63 E86.31477
G1 X93.599 Y121.63 E86.33153
G1 X88.37 Y116.401 E86.56368
G1 X88.37 Y116.935 E86.58044
G1 X93.065 Y121.63 E86.78888
G1 X92.531 Y121.63 E86.80564
G1 X88.37 Y117.469 E86.99037
G1 X88.37 Y118.003 E87.00713
G1 X91.997 Y121.63 E87.16815
G1 X91.463 Y121.63 E87.18491
G1 X88.37 Y118.537 E87.32223
G1 X88.37 Y119.071 E87.33899
G1 X90.929 Y121.63 E87.4526
G1 X90.395 Y121.63 E87.46936
G1 X88.37 Y119.605 E87.55926
G1 X88.37 Y120.138 E87.57599
G1 X89.862 Y121.63 E87.64223
G1 X89.328 Y121.63 E87.65899
G1 X88.37 Y120.672 E87.70152
G1 X88.37 Y121.206 E87.71828
G1 X88.963 Y121.8 E87.74463
;LAYER_CHANGE
;Z:0.4
;HEIGHT:0.2
G1 Z.4 F30000
M140 S100 ; set bed temperature
G1 E85.74463 F2400
G92 E0
G1 X88.963 Y121.8 Z.8 F30000
G1 X131.868 Y121.868
G1 Z.4
G1 E2 F2400
G92 E0
;TYPE:Perimeter
;WIDTH:0.449999
G1 F19500
G1 X88.132 Y121.868 E1.48041
G1 X88.132 Y98.132 E2.28384
G1 X131.868 Y98.132 E3.76425
G1 X131.868 Y110 E4.16597
G1 X131.868 Y121.808 E4.56566
G1 X132.275 Y122.275 F30000
;TYPE:External perimeter
G1 F15600
G1 X87.725 Y122.275 E6.07362
G1 X87.725 Y97.725 E6.90461
G1 X132.275 Y97.725 E8.41257
G1 X132.275 Y110 E8.82806
G1 X132.275 Y122.215 E9.24152
G1 X131.879 Y122.274 F30000
G1 E7.24152 F2400
G92 E0
G1 Z.8 F30000
G1 X88.548 Y98.47
G1 Z.4
G1 E2 F2400
;TYPE:Solid infill
;WIDTH:0.548766
G1 F18978.107
G1 X88.503 Y98.426 E2.00265
G1 X88.442 Y98.442 E2.0053
G1 X88.426 Y98.503 E2.00795
G1 X88.47 Y98.548 E2.0106
G1 X88.531 Y98.531 E2.01326
;WIDTH:0.449999
G1 F19500
G1 X88.437 Y99.182 E2.03552
G1 X89.182 Y98.437 E2.07118
G1 X89.757 Y98.437 E2.09064
G1 X88.437 Y99.757 E2.15383
G1 X88.437 Y100.333 E2.17333
G1 X90.333 Y98.437 E2.26409
G1 X90.909 Y98.437 E2.28359
G1 X88.437 Y100.909 E2.40192
G1 X88.437 Y101.484 E2.42138
G1 X91.484 Y98.437 E2.56724
G1 X92.06 Y98.437 E2.58674
G1 X88.437 Y102.06 E2.76017
G1 X88.437 Y102.636 E2.77967
G1 X92.636 Y98.437 E2.98067
G1 X93.212 Y98.437 E3.00017
G1 X88.437 Y103.212 E3.22875
G1 X88.437 Y103.787 E3.24821
G1 X93.787 Y98.437 E3.50431
G1 X94.363 Y98.437 E3.52381
G1 X88.437 Y104.363 E3.80748
G1 X88.437 Y104.939 E3.82698
G1 X94.939 Y98.437 E4.13823
G1 X95.514 Y98.437 E4.15769
G1 X88.437 Y105.514 E4.49646
G1 X88.437 Y106.09 E4.51596
G1 X96.09 Y98.437 E4.8823
G1 X96.666 Y98.437 E4.9018
G1 X88.437 Y106.666 E5.29572
G1 X88.437 Y107.241 E5.31518
G1 X97.241 Y98.437 E5.73662
G1 X97.817 Y98.437 E5.75612
G1 X88.437 Y107.817 E6.20513
G1 X88.437 Y108.393 E6.22463
G1 X98.393 Y98.437 E6.70122
G1 X98.969 Y98.437 E6.72072
G1 X88.437 Y108.969 E7.22488
G1 X88.437 Y109.544 E7.24434
G1 X99.544 Y98.437 E7.77603
G1 X100.12 Y98.437 E7.79553
G1 X88.437 Y110.12 E8.35479
G1 X88.437 Y110.696 E8.37429
G1 X100.696 Y98.437 E8.96112
G1 X101.271 Y98.437 E8.98058
G1 X88.437 Y111.271 E9.59494
G1 X88.437 Y111.847 E9.61444
G1 X101.847 Y98.437 E10.25637
G1 X102.423 Y98.437 E10.27587
G1 X88.437 Y112.423 E10.94537
G1 X88.437 Y112.998 E10.96483
G1 X102.998 Y98.437 E11.66186
G1 X103.574 Y98.437 E11.68136
G1 X88.437 Y113.574 E12.40596
G1 X88.437 Y114.15 E12.42546
G1 X104.15 Y98.437 E13.17763
G1 X104.726 Y98.437 E13.19713
G1 X88.437 Y114.726 E13.97687
G1 X88.437 Y115.301 E13.99633
G1 X105.301 Y98.437 E14.8036
G1 X105.877 Y98.437 E14.8231
G1 X88.437 Y115.877 E15.65794
G1 X88.437 Y116.453 E15.67744
G1 X106.453 Y98.437 E16.53985
G1 X107.028 Y98.437 E16.55931
G1 X88.437 Y117.028 E17.44925
G1 X88.437 Y117.604 E17.46875
G1 X107.604 Y98.437 E18.38626
G1 X108.18 Y98.437 E18.40576
G1 X88.437 Y118.18 E19.35085
G1 X88.437 Y118.755 E19.37031
G1 X108.755 Y98.437 E20.34292
G1 X109.331 Y98.437 E20.36242
G1 X88.437 Y119.331 E21.3626
G1 X88.437 Y119.907 E21.3821
G1 X109.907 Y98.437 E22.40986
G1 X110.482 Y98.437 E22.42932
G1 X88.437 Y120.482 E23.4846
G1 X88.437 Y121.058 E23.5041
G1 X111.058 Y98.437 E24.58695
G1 X111.634 Y98.437 E24.60645
G1 X88.509 Y121.563 E25.71345
G1 X88.397 Y121.531 E25.71739
;WIDTH:0.41646
G1 X88.284 Y121.499 E25.72104
;WIDTH:0.38292
G1 X88.299 Y121.701 E25.72677
;WIDTH:0.449999
G1 X89.084 Y121.563 E25.75375
G1 X112.21 Y98.437 E26.86078
G1 X112.785 Y98.437 E26.88024
G1 X89.66 Y121.563 E27.98724
G1 X90.236 Y121.563 E28.00674
G1 X113.361 Y98.437 E29.11374
G1 X113.937 Y98.437 E29.13324
G1 X90.811 Y121.563 E30.24027
G1 X91.387 Y121.563 E30.25977
G1 X114.512 Y98.437 E31.36677
G1 X115.088 Y98.437 E31.38627
G1 X91.963 Y121.563 E32.49327
G1 X92.539 Y121.563 E32.51277
G1 X115.664 Y98.437 E33.61977
G1 X116.239 Y98.437 E33.63923
G1 X93.114 Y121.563 E34.74623
G1 X93.69 Y121.563 E34.76573
G1 X116.815 Y98.437 E35.87273
G1 X117.391 Y98.437 E35.89223
G1 X94.266 Y121.563 E36.99923
G1 X94.841 Y121.563 E37.01869
G1 X117.967 Y98.437 E38.12572
G1 X118.542 Y98.437 E38.14518
G1 X95.417 Y121.563 E39.25218
G1 X95.993 Y121.563 E39.27168
G1 X119.118 Y98.437 E40.37868
G1 X119.694 Y98.437 E40.39818
G1 X96.568 Y121.563 E41.50521
G1 X97.144 Y121.563 E41.52471
G1 X120.269 Y98.437 E42.63171
G1 X120.845 Y98.437 E42.65121
G1 X97.72 Y121.563 E43.75821
G1 X98.295 Y121.563 E43.77767
G1 X121.421 Y98.437 E44.8847
G1 X121.996 Y98.437 E44.90416
G1 X98.871 Y121.563 E46.01116
G1 X99.447 Y121.563 E46.03066
G1 X122.572 Y98.437 E47.13766
G1 X123.148 Y98.437 E47.15716
G1 X100.023 Y121.563 E48.26416
G1 X100.598 Y121.563 E48.28362
G1 X123.724 Y98.437 E49.39065
G1 X124.299 Y98.437 E49.41011
G1 X101.174 Y121.563 E50.51711
G1 X101.75 Y121.563 E50.53661
G1 X124.875 Y98.437 E51.64361
G1 X125.451 Y98.437 E51.66311
G1 X102.325 Y121.563 E52.77014
G1 X102.901 Y121.563 E52.78964
G1 X126.026 Y98.437 E53.89664
G1 X126.602 Y98.437 E53.91614
G1 X103.477 Y121.563 E55.02314
G1 X104.052 Y121.563 E55.0426
G1 X127.178 Y98.437 E56.14963
G1 X127.753 Y98.437 E56.16909
G1 X104.628 Y121.563 E57.27609
G1 X105.204 Y121.563 E57.29559
G1 X128.329 Y98.437 E58.40259
G1 X128.905 Y98.437 E58.42209
G1 X105.78 Y121.563 E59.52909
G1 X106.355 Y121.563 E59.54855
G1 X129.48 Y98.437 E60.65555
G1 X130.056 Y98.437 E60.67505
G1 X106.931 Y121.563 E61.78205
G1 X107.507 Y121.563 E61.80155
G1 X130.632 Y98.437 E62.90855
G1 X131.208 Y98.437 E62.92805
G1 X108.082 Y121.563 E64.03508
G1 X108.658 Y121.563 E64.05458
G1 X131.563 Y98.658 E65.15103
G1 X131.623 Y98.518 E65.15619
;WIDTH:0.41646
G1 X131.683 Y98.377 E65.16095
;WIDTH:0.38292
G1 X131.642 Y98.388 E65.16215
G1 X131.623 Y98.317 E65.16423
G1 X131.694 Y98.336 E65.16631
G1 X131.694 Y98.336 F30000
G1 X131.563 Y99.234
;WIDTH:0.449999
G1 F19500
G1 X109.234 Y121.563 E66.23519
G1 X109.809 Y121.563 E66.25465
G1 X131.563 Y99.809 E67.296
G1 X131.563 Y100.385 E67.3155
G1 X110.385 Y121.563 E68.32928
G1 X110.961 Y121.563 E68.34878
G1 X131.563 Y100.961 E69.33498
G1 X131.563 Y101.537 E69.35448
G1 X111.537 Y121.563 E70.31311
G1 X112.112 Y121.563 E70.33257
G1 X131.563 Y102.112 E71.26368
G1 X131.563 Y102.688 E71.28318
G1 X112.688 Y121.563 E72.18671
G1 X113.264 Y121.563 E72.20621
G1 X131.563 Y103.264 E73.08217
G1 X131.563 Y103.839 E73.10163
G1 X113.839 Y121.563 E73.95007
G1 X114.415 Y121.563 E73.96957
G1 X131.563 Y104.415 E74.79043
G1 X131.563 Y104.991 E74.80993
G1 X114.991 Y121.563 E75.60322
G1 X115.566 Y121.563 E75.62268
G1 X131.563 Y105.566 E76.38845
G1 X131.563 Y106.142 E76.40795
G1 X116.142 Y121.563 E77.14614
G1 X116.718 Y121.563 E77.16564
G1 X131.563 Y106.718 E77.87626
G1 X131.563 Y107.293 E77.89572
G1 X117.293 Y121.563 E78.57882
G1 X117.869 Y121.563 E78.59832
G1 X131.563 Y107.869 E79.25384
G1 X131.563 Y108.445 E79.27334
G1 X118.445 Y121.563 E79.90129
G1 X119.021 Y121.563 E79.92079
G1 X131.563 Y109.021 E80.52117
G1 X131.563 Y109.596 E80.54063
G1 X119.596 Y121.563 E81.11348
G1 X120.172 Y121.563 E81.13298
G1 X131.563 Y110.172 E81.67826
G1 X131.563 Y110.748 E81.69776
G1 X120.748 Y121.563 E82.21547
G1 X121.323 Y121.563 E82.23493
G1 X131.563 Y111.323 E82.72511
G1 X131.563 Y111.899 E82.74461
G1 X121.899 Y121.563 E83.20722
G1 X122.475 Y121.563 E83.22672
G1 X131.563 Y112.475 E83.66176
G1 X131.563 Y113.05 E83.68122
G1 X123.05 Y121.563 E84.08873
G1 X123.626 Y121.563 E84.10823
G1 X131.563 Y113.626 E84.48817
G1 X131.563 Y114.202 E84.50767
G1 X124.202 Y121.563 E84.86004
G1 X124.778 Y121.563 E84.87954
G1 X131.563 Y114.778 E85.20433
G1 X131.563 Y115.353 E85.22379
G1 X125.353 Y121.563 E85.52106
G1 X125.929 Y121.563 E85.54056
G1 X131.563 Y115.929 E85.81026
G1 X131.563 Y116.505 E85.82976
