; generated by PrusaSlicer 2.8.0+win64 on 2024-09-05 at 16:04:53 UTC


;
;
; 

; external perimeters extrusion width = 0.45mm
; perimeters extrusion width = 0.45mm
; infill extrusion width = 0.45mm
; solid infill extrusion width = 0.45mm
; top infill extrusion width = 0.40mm
; first layer extrusion width = 0.42mm

;TYPE:Custom
M82 ;absolute extrusion mode
M140 S0
M104 S0 
START_PRINT EXTRUDER_TEMP=260 BED_TEMP=100
G92 E0
G92 E0
G1 F2400 E-0.5
G21 ; set units to millimeters
G90 ; use absolute coordinates
M82 ; use absolute distances for extrusion
G92 E0
; Filament gcode
M107
;LAYER_CHANGE
;Z:0.2
;HEIGHT:0.2
G1 E-2 F2400
G1 Z.6 F30000
G1 X94.386 Y98.994
G1 Z.2
G1 E0 F2400
;TYPE:Skirt/Brim
;WIDTH:0.42
G1 F6000
G1 X95.565 Y98.19 E.04474
G1 X96.741 Y97.681 E.08492
G1 X97.891 Y97.402 E.12202
G1 X98.761 Y97.322 E.14941
G1 X99.63 Y97.344 E.17667
G1 X100.947 Y97.588 E.21867
G1 X102.192 Y98.067 E.2605
G1 X103.416 Y98.839 E.30587
G1 X104.519 Y99.874 E.3533
G1 X105.328 Y99.043 E.38966
G1 X106.529 Y98.211 E.43547
G1 X107.708 Y97.692 E.47586
G1 X108.892 Y97.402 E.51408
G1 X110.603 Y97.342 E.56776
G1 X111.951 Y97.589 E.61073
G1 X113.257 Y98.1 E.6547
G1 X114.385 Y98.814 E.69656
G1 X115.52 Y99.873 E.74523
G1 X116.326 Y99.045 E.78146
G1 X117.43 Y98.266 E.82382
G1 X118.806 Y97.659 E.87097
G1 X119.895 Y97.402 E.90605
G1 X120.765 Y97.322 E.93344
G1 X121.661 Y97.347 E.96154
G1 X122.91 Y97.577 E1.00136
G1 X124.221 Y98.081 E1.0454
G1 X125.385 Y98.814 E1.08853
G1 X126.344 Y99.703 E1.12953
G1 X126.904 Y100.416 E1.15796
G1 X127.402 Y101.249 E1.18839
G1 X127.853 Y102.359 E1.22596
G1 X128.134 Y103.704 E1.26904
G1 X128.15 Y105.137 E1.31397
G1 X127.884 Y106.533 E1.35853
G1 X127.381 Y107.788 E1.40092
G1 X126.931 Y108.542 E1.42845
G1 X126.4 Y109.23 E1.4557
G1 X125.598 Y110.01 E1.49078
G1 X126.409 Y110.779 E1.52582
G1 X126.943 Y111.476 E1.55335
G1 X127.376 Y112.202 E1.57985
G1 X127.854 Y113.366 E1.6193
G1 X128.139 Y114.75 E1.6636
G1 X128.142 Y116.222 E1.70975
G1 X127.883 Y117.541 E1.7519
G1 X127.396 Y118.762 E1.79312
G1 X126.945 Y119.525 E1.82091
G1 X126.402 Y120.232 E1.84886
G1 X125.606 Y121.01 E1.88376
G1 X124.427 Y121.811 E1.92845
G1 X123.108 Y122.365 E1.97331
G1 X121.633 Y122.654 E2.02044
G1 X120.349 Y122.654 E2.0607
G1 X119.154 Y122.443 E2.09875
G1 X117.596 Y121.827 E2.15128
G1 X116.471 Y121.076 E2.19369
G1 X115.504 Y120.136 E2.23597
G1 X114.551 Y121.055 E2.27748
G1 X113.458 Y121.794 E2.31885
G1 X112.111 Y122.364 E2.36471
G1 X110.711 Y122.647 E2.40949
G1 X109.352 Y122.654 E2.4521
G1 X108.183 Y122.45 E2.48931
G1 X107.352 Y122.177 E2.51674
G1 X106.567 Y121.811 E2.5439
G1 X105.5 Y121.1 E2.5841
G1 X104.501 Y120.14 E2.62754
G1 X103.524 Y121.076 E2.66996
G1 X102.39 Y121.83 E2.71266
G1 X101.072 Y122.376 E2.75739
G1 X99.669 Y122.651 E2.80222
G1 X98.241 Y122.644 E2.84699
G1 X97.095 Y122.428 E2.88355
G1 X95.511 Y121.78 E2.93721
G1 X94.442 Y121.053 E2.97774
G1 X93.527 Y120.155 E3.01794
G1 X92.743 Y119.031 E3.06091
G1 X92.183 Y117.769 E3.1042
G1 X91.875 Y116.424 E3.14746
G1 X91.832 Y115.001 E3.1921
G1 X92.156 Y113.315 E3.24593
G1 X92.608 Y112.222 E3.28302
G1 X93.339 Y111.08 E3.32553
G1 X94.375 Y109.984 E3.37282
G1 X93.479 Y109.094 E3.41242
G1 X92.741 Y108.024 E3.45318
G1 X92.194 Y106.8 E3.49522
G1 X91.875 Y105.421 E3.5396
G1 X91.832 Y103.994 E3.58436
G1 X92.147 Y102.338 E3.63721
G1 X92.623 Y101.189 E3.67621
G1 X93.361 Y100.048 E3.71882
G1 X94.344 Y99.037 E3.76303
G1 X94.344 Y99.037 F30000
G1 X94.612 Y99.296
G1 F6000
G1 X94.614 Y99.294 E3.76312
G1 X95.763 Y98.512 E3.8067
G1 X96.846 Y98.043 E3.8437
G1 X97.94 Y97.776 E3.87901
G1 X99.605 Y97.721 E3.93124
G1 X100.861 Y97.955 E3.9713
G1 X102.038 Y98.412 E4.01089
G1 X103.199 Y99.147 E4.05397
G1 X104.096 Y99.992 E4.09261
G1 X104.495 Y100.517 E4.11329
G1 X105.558 Y99.342 E4.16297
G1 X106.728 Y98.531 E4.20761
G1 X107.844 Y98.044 E4.24579
G1 X108.941 Y97.776 E4.2812
G1 X110.58 Y97.718 E4.33262
G1 X111.864 Y97.956 E4.37356
G1 X113.101 Y98.444 E4.41525
G1 X114.167 Y99.123 E4.45488
G1 X115.095 Y99.991 E4.49472
G1 X115.496 Y100.517 E4.51546
G1 X116.558 Y99.342 E4.56512
G1 X117.631 Y98.586 E4.60628
G1 X118.941 Y98.012 E4.65112
G1 X119.943 Y97.776 E4.6834
G1 X120.766 Y97.699 E4.70932
G1 X121.636 Y97.724 E4.73661
G1 X122.792 Y97.935 E4.77345
G1 X124.036 Y98.411 E4.81521
G1 X125.169 Y99.124 E4.85718
G1 X126.075 Y99.969 E4.89602
G1 X126.587 Y100.621 E4.92201
G1 X127.058 Y101.406 E4.95071
G1 X127.487 Y102.453 E4.98619
G1 X127.761 Y103.763 E5.02815
G1 X127.773 Y105.121 E5.07073
G1 X127.527 Y106.41 E5.11188
G1 X127.037 Y107.633 E5.15319
G1 X126.128 Y108.969 E5.20386
G1 X125.007 Y109.97 E5.25098
G1 X126.138 Y111.042 E5.29984
G1 X127.033 Y112.359 E5.34977
G1 X127.498 Y113.493 E5.3882
G1 X127.762 Y114.771 E5.42912
G1 X127.769 Y116.169 E5.47295
G1 X127.526 Y117.418 E5.51285
G1 X127.064 Y118.583 E5.55215
G1 X126.626 Y119.323 E5.57911
G1 X126.111 Y119.991 E5.60556
G1 X125.355 Y120.729 E5.63869
G1 X124.263 Y121.471 E5.68009
G1 X122.98 Y122.01 E5.72372
G1 X121.58 Y122.281 E5.76843
G1 X120.367 Y122.277 E5.80646
G1 X119.26 Y122.081 E5.84171
G1 X117.768 Y121.491 E5.89202
G1 X116.695 Y120.772 E5.93252
G1 X115.826 Y119.923 E5.97061
G1 X115.509 Y119.483 E5.98761
G1 X115.109 Y119.994 E6.00796
G1 X114.326 Y120.752 E6.04213
G1 X113.262 Y121.471 E6.08239
G1 X111.982 Y122.009 E6.12592
G1 X110.656 Y122.273 E6.16831
G1 X109.368 Y122.277 E6.20869
G1 X108.287 Y122.088 E6.2431
G1 X106.74 Y121.476 E6.29526
G1 X105.724 Y120.796 E6.33359
G1 X104.852 Y119.954 E6.3716
G1 X104.504 Y119.472 E6.39024
G1 X104.11 Y119.992 E6.4107
G1 X103.301 Y120.772 E6.44594
G1 X102.197 Y121.506 E6.48751
G1 X100.946 Y122.02 E6.52992
G1 X99.616 Y122.277 E6.57239
G1 X98.261 Y122.267 E6.61488
G1 X97.204 Y122.067 E6.64861
G1 X95.685 Y121.445 E6.70008
G1 X94.693 Y120.772 E6.73767
G1 X93.826 Y119.924 E6.7757
G1 X93.08 Y118.86 E6.81644
G1 X92.546 Y117.666 E6.85745
G1 X92.252 Y116.393 E6.89841
G1 X92.208 Y115.035 E6.94101
G1 X92.518 Y113.421 E6.99254
G1 X92.95 Y112.382 E7.02782
G1 X93.646 Y111.299 E7.06818
G1 X94.525 Y110.373 E7.10821
G1 X95.033 Y110.007 E7.12784
G1 X94.697 Y109.771 E7.14071
G1 X93.779 Y108.865 E7.18115
G1 X93.061 Y107.825 E7.22077
G1 X92.546 Y106.663 E7.26062
G1 X92.252 Y105.391 E7.30155
G1 X92.21 Y103.998 E7.34525
G1 X92.509 Y102.443 E7.3949
G1 X92.965 Y101.35 E7.43203
G1 X93.646 Y100.297 E7.47135
G1 X94.571 Y99.339 E7.5131
G1 X94.571 Y99.339 F30000
G1 X94.84 Y99.598
G1 F6000
G1 X94.843 Y99.594 E7.51326
G1 X95.929 Y98.851 E7.55452
G1 X96.98 Y98.396 E7.59043
G1 X98.015 Y98.146 E7.62381
G1 X99.552 Y98.095 E7.67203
G1 X100.741 Y98.313 E7.70993
G1 X101.884 Y98.757 E7.74838
G1 X102.953 Y99.434 E7.78805
G1 X103.825 Y100.255 E7.8256
G1 X104.521 Y101.182 E7.86195
G1 X104.979 Y100.484 E7.88813
G1 X105.816 Y99.618 E7.92589
G1 X106.896 Y98.869 E7.9671
G1 X107.979 Y98.396 E8.00415
G1 X109.016 Y98.146 E8.0376
G1 X110.556 Y98.095 E8.08591
G1 X111.777 Y98.323 E8.12486
G1 X112.915 Y98.772 E8.16322
G1 X113.923 Y99.41 E8.20062
G1 X114.825 Y100.255 E8.23937
G1 X115.521 Y101.182 E8.27572
G1 X115.979 Y100.484 E8.3019
G1 X116.817 Y99.618 E8.33968
G1 X117.832 Y98.905 E8.37857
G1 X119.044 Y98.375 E8.42005
G1 X120.016 Y98.146 E8.45136
G1 X120.767 Y98.077 E8.47501
G1 X121.583 Y98.098 E8.5006
G1 X122.706 Y98.303 E8.53639
G1 X123.883 Y98.756 E8.57593
G1 X124.952 Y99.432 E8.61559
G1 X125.807 Y100.234 E8.65235
G1 X126.283 Y100.844 E8.67661
G1 X126.715 Y101.563 E8.70291
G1 X127.122 Y102.549 E8.73636
G1 X127.385 Y103.786 E8.77601
G1 X127.399 Y105.07 E8.81627
G1 X127.17 Y106.288 E8.85513
G1 X126.706 Y107.452 E8.89442
G1 X125.838 Y108.728 E8.94281
G1 X125.077 Y109.465 E8.97603
G1 X124.277 Y109.999 E9.00619
G1 X124.953 Y110.437 E9.03145
G1 X125.848 Y111.283 E9.07006
G1 X126.702 Y112.541 E9.11773
G1 X127.133 Y113.586 E9.15317
G1 X127.389 Y114.829 E9.19296
G1 X127.392 Y116.15 E9.23438
G1 X127.159 Y117.328 E9.27203
G1 X126.719 Y118.429 E9.30921
G1 X126.308 Y119.12 E9.33442
G1 X125.838 Y119.731 E9.35859
G1 X125.104 Y120.447 E9.39074
G1 X124.068 Y121.148 E9.42996
G1 X122.853 Y121.655 E9.47124
G1 X121.562 Y121.904 E9.51246
G1 X120.416 Y121.902 E9.54839
G1 X119.339 Y121.712 E9.58268
G1 X117.965 Y121.169 E9.629
G1 X116.92 Y120.469 E9.66844
G1 X116.103 Y119.667 E9.70434
G1 X115.498 Y118.807 E9.73731
G1 X114.837 Y119.732 E9.77296
G1 X114.075 Y120.469 E9.8062
G1 X113.067 Y121.148 E9.84431
G1 X111.889 Y121.643 E9.88437
G1 X110.635 Y121.896 E9.92448
G1 X109.416 Y121.902 E9.9627
G1 X108.366 Y121.719 E9.99612
G1 X106.937 Y121.154 E10.0443
G1 X105.948 Y120.492 E10.08162
G1 X105.128 Y119.696 E10.11745
G1 X104.513 Y118.828 E10.1508
G1 X103.836 Y119.732 E10.18621
G1 X103.076 Y120.468 E10.21938
G1 X102.035 Y121.165 E10.25866
G1 X100.855 Y121.654 E10.29871
G1 X99.599 Y121.9 E10.33884
G1 X98.313 Y121.893 E10.37916
G1 X97.312 Y121.705 E10.41109
G1 X95.885 Y121.125 E10.45939
G1 X94.919 Y120.47 E10.49598
G1 X94.103 Y119.667 E10.53188
G1 X93.4 Y118.66 E10.57039
G1 X92.898 Y117.53 E10.60916
G1 X92.623 Y116.327 E10.64785
G1 X92.584 Y115.069 E10.68731
G1 X92.685 Y114.298 E10.71169
G1 X92.872 Y113.552 E10.7358
G1 X93.276 Y112.572 E10.76904
G1 X93.953 Y111.519 E10.80829
G1 X94.785 Y110.648 E10.84606
G1 X95.705 Y109.995 E10.88143
G1 X94.947 Y109.489 E10.91001
G1 X94.057 Y108.61 E10.94923
G1 X93.383 Y107.626 E10.98663
G1 X92.899 Y106.528 E11.02425
G1 X92.623 Y105.325 E11.06295
G1 X92.587 Y104.004 E11.10438
G1 X92.863 Y102.574 E11.15004
G1 X93.292 Y101.539 E11.18517
G1 X93.93 Y100.544 E11.22223
G1 X94.798 Y99.641 E11.2615
G1 X94.798 Y99.641 F30000
G1 X95.068 Y99.899
G1 F6000
G1 X95.074 Y99.893 E11.26177
G1 X96.096 Y99.189 E11.30068
G1 X97.115 Y98.748 E11.33549
G1 X98.089 Y98.516 E11.36688
G1 X99.499 Y98.468 E11.41112
G1 X100.655 Y98.681 E11.44798
G1 X101.729 Y99.101 E11.48414
G1 X102.708 Y99.721 E11.52047
G1 X103.556 Y100.52 E11.557
G1 X104.494 Y101.919 E11.60981
G1 X105.263 Y100.733 E11.65413
G1 X106.074 Y99.893 E11.69074
G1 X107.064 Y99.208 E11.72849
G1 X108.115 Y98.749 E11.76445
G1 X109.089 Y98.516 E11.79585
G1 X109.79 Y98.453 E11.81792
G1 X110.531 Y98.471 E11.84116
G1 X111.689 Y98.69 E11.87811
G1 X112.729 Y99.101 E11.91317
G1 X113.679 Y99.698 E11.94835
G1 X114.557 Y100.52 E11.98606
G1 X115.495 Y101.919 E12.03887
G1 X116.263 Y100.733 E12.08317
G1 X117.075 Y99.893 E12.1198
G1 X118.032 Y99.225 E12.15639
G1 X119.147 Y98.738 E12.19454
G1 X120.09 Y98.516 E12.22492
G1 X120.769 Y98.454 E12.2463
G1 X121.53 Y98.471 E12.27017
G1 X122.621 Y98.671 E12.30495
G1 X123.698 Y99.085 E12.34113
G1 X124.708 Y99.72 E12.37854
G1 X125.538 Y100.498 E12.41421
G1 X125.978 Y101.066 E12.43674
G1 X126.372 Y101.72 E12.46068
G1 X126.767 Y102.676 E12.49311
G1 X127.012 Y103.844 E12.53053
G1 X127.022 Y105.054 E12.56847
G1 X126.803 Y106.199 E12.60502
G1 X126.362 Y107.297 E12.64212
G1 X125.565 Y108.467 E12.68651
G1 X124.827 Y109.182 E12.71873
G1 X123.581 Y110.005 E12.76555
G1 X124.708 Y110.723 E12.80745
G1 X125.578 Y111.547 E12.84502
G1 X126.359 Y112.698 E12.88863
G1 X126.777 Y113.713 E12.92305
G1 X127.015 Y114.885 E12.96055
G1 X127.015 Y116.131 E12.99962
G1 X126.793 Y117.236 E13.03496
G1 X126.375 Y118.274 E13.07005
G1 X125.99 Y118.917 E13.09355
G1 X125.565 Y119.47 E13.11542
G1 X124.853 Y120.165 E13.14662
G1 X123.873 Y120.824 E13.18365
G1 X122.761 Y121.288 E13.22143
G1 X121.544 Y121.526 E13.26031
G1 X120.433 Y121.525 E13.29514
G1 X119.42 Y121.343 E13.32741
G1 X118.136 Y120.833 E13.37073
G1 X117.172 Y120.188 E13.4071
G1 X116.38 Y119.41 E13.44191
G1 X115.738 Y118.491 E13.47706
G1 X115.524 Y118.033 E13.49291
G1 X114.547 Y119.49 E13.54791
G1 X113.826 Y120.186 E13.57933
G1 X112.873 Y120.824 E13.61529
G1 X111.762 Y121.288 E13.65304
G1 X110.58 Y121.523 E13.69083
G1 X109.433 Y121.525 E13.72679
G1 X108.446 Y121.35 E13.75822
G1 X107.778 Y121.129 E13.78028
G1 X107.109 Y120.818 E13.80341
G1 X106.198 Y120.21 E13.83775
G1 X105.403 Y119.438 E13.8725
G1 X104.738 Y118.491 E13.90878
G1 X104.523 Y118.033 E13.92464
G1 X103.564 Y119.471 E13.97883
G1 X102.851 Y120.165 E14.01003
G1 X101.872 Y120.824 E14.04703
G1 X100.762 Y121.288 E14.08475
G1 X99.581 Y121.523 E14.12251
G1 X98.365 Y121.519 E14.16064
G1 X97.419 Y121.343 E14.19081
G1 X96.083 Y120.804 E14.23598
G1 X95.171 Y120.188 E14.27049
G1 X94.38 Y119.411 E14.30526
G1 X93.72 Y118.46 E14.34156
G1 X93.251 Y117.395 E14.37805
G1 X92.995 Y116.262 E14.41447
G1 X92.961 Y115.074 E14.45173
G1 X93.226 Y113.683 E14.49613
G1 X93.618 Y112.731 E14.52841
G1 X94.238 Y111.766 E14.56437
G1 X95.045 Y110.922 E14.60098
G1 X96.033 Y110.228 E14.63884
G1 X96.449 Y110.033 E14.65325
G1 X95.198 Y109.207 E14.70025
G1 X94.357 Y108.38 E14.73723
G1 X93.72 Y107.457 E14.77239
G1 X93.262 Y106.425 E14.80779
G1 X93 Y105.295 E14.84416
G1 X92.963 Y104.04 E14.88353
G1 X93.057 Y103.355 E14.90521
G1 X93.226 Y102.679 E14.92706
G1 X93.618 Y101.727 E14.95934
G1 X94.216 Y100.791 E14.99417
G1 X95.027 Y99.942 E15.03098
G1 X95.027 Y99.942 F30000
G1 X95.299 Y100.203
G1 F6000
G1 X95.332 Y100.169 E15.03247
G1 X96.263 Y99.528 E15.06791
G1 X97.249 Y99.101 E15.1016
G1 X98.162 Y98.886 E15.13101
G1 X98.791 Y98.83 E15.15081
G1 X99.476 Y98.845 E15.17229
G1 X100.534 Y99.038 E15.20601
G1 X101.575 Y99.446 E15.24107
G1 X102.49 Y100.029 E15.27509
G1 X103.267 Y100.763 E15.3086
G1 X104.028 Y101.878 E15.35093
G1 X104.497 Y103.003 E15.38915
G1 X104.946 Y101.916 E15.42603
G1 X105.547 Y100.981 E15.46088
G1 X106.333 Y100.169 E15.49631
G1 X107.231 Y99.546 E15.53058
G1 X108.25 Y99.101 E15.56544
G1 X109.162 Y98.886 E15.59482
G1 X110.506 Y98.848 E15.63698
G1 X111.569 Y99.048 E15.67089
G1 X112.544 Y99.429 E15.70371
G1 X113.462 Y100.007 E15.73772
G1 X114.268 Y100.763 E15.77237
G1 X114.661 Y101.271 E15.79251
G1 X115.029 Y101.878 E15.81477
G1 X115.498 Y103.003 E15.85299
G1 X115.946 Y101.916 E15.88985
G1 X116.548 Y100.981 E15.92472
G1 X117.333 Y100.169 E15.96013
G1 X118.232 Y99.546 E15.99442
G1 X119.25 Y99.101 E16.02926
G1 X120.163 Y98.886 E16.05867
G1 X121.477 Y98.845 E16.09989
G1 X122.536 Y99.038 E16.13364
G1 X123.544 Y99.43 E16.16755
G1 X124.463 Y100.007 E16.20157
G1 X125.268 Y100.763 E16.2362
G1 X125.673 Y101.287 E16.25696
G1 X126.029 Y101.877 E16.27857
G1 X126.411 Y102.804 E16.31001
G1 X126.638 Y103.902 E16.34517
G1 X126.644 Y105.037 E16.38076
G1 X126.437 Y106.109 E16.41499
G1 X126.031 Y107.115 E16.449
G1 X125.275 Y108.226 E16.49113
G1 X124.602 Y108.879 E16.52053
G1 X123.711 Y109.48 E16.55423
G1 X122.462 Y110.007 E16.59673
G1 X123.576 Y110.449 E16.63431
G1 X124.463 Y111.01 E16.66722
G1 X125.288 Y111.788 E16.70278
G1 X126.029 Y112.881 E16.74418
G1 X126.411 Y113.807 E16.77559
G1 X126.638 Y114.905 E16.81075
G1 X126.641 Y116.077 E16.8475
G1 X126.437 Y117.112 E16.88058
G1 X126.031 Y118.118 E16.91459
G1 X125.673 Y118.713 E16.93636
G1 X125.292 Y119.21 E16.956
G1 X124.602 Y119.882 E16.9862
G1 X123.679 Y120.5 E17.02103
G1 X122.635 Y120.933 E17.05647
G1 X121.526 Y121.149 E17.0919
G1 X120.451 Y121.148 E17.12561
G1 X119.501 Y120.975 E17.15589
G1 X118.909 Y120.775 E17.17548
G1 X118.308 Y120.497 E17.19624
G1 X117.397 Y119.885 E17.23065
G1 X116.658 Y119.155 E17.26322
G1 X116.059 Y118.292 E17.29616
G1 X115.485 Y117.001 E17.34046
G1 X115.031 Y118.118 E17.37827
G1 X114.661 Y118.729 E17.40067
G1 X114.274 Y119.229 E17.42049
G1 X113.602 Y119.882 E17.44987
G1 X112.678 Y120.5 E17.48472
G1 X111.67 Y120.922 E17.51898
G1 X110.525 Y121.149 E17.55558
G1 X109.45 Y121.148 E17.58929
G1 X108.526 Y120.981 E17.61873
G1 X107.908 Y120.775 E17.63916
G1 X107.281 Y120.483 E17.66085
G1 X106.423 Y119.907 E17.69325
G1 X105.68 Y119.181 E17.72582
G1 X105.058 Y118.292 E17.75984
G1 X104.485 Y117.001 E17.80413
G1 X104.031 Y118.118 E17.84194
G1 X103.274 Y119.229 E17.88409
G1 X102.601 Y119.882 E17.91349
G1 X101.678 Y120.5 E17.94832
G1 X100.669 Y120.922 E17.98261
G1 X99.561 Y121.146 E18.01805
G1 X98.416 Y121.145 E18.05395
G1 X97.526 Y120.982 E18.08232
G1 X96.281 Y120.483 E18.12437
G1 X95.423 Y119.907 E18.15677
G1 X94.657 Y119.155 E18.19043
G1 X94.041 Y118.261 E18.22447
G1 X93.615 Y117.293 E18.25763
G1 X93.372 Y116.232 E18.29176
G1 X93.339 Y115.079 E18.32793
G1 X93.429 Y114.42 E18.34878
G1 X93.58 Y113.813 E18.36839
G1 X93.946 Y112.919 E18.39868
G1 X94.524 Y112.013 E18.43238
G1 X95.304 Y111.196 E18.4678
G1 X96.231 Y110.549 E18.50324
