; generated by PrusaSlicer 2.6.0+win64 on 2023-11-13 at 12:28:43 UTC


;
;

;
;
; 

; external perimeters extrusion width = 0.50mm
; perimeters extrusion width = 0.50mm
; infill extrusion width = 0.50mm
; solid infill extrusion width = 0.50mm
; top infill extrusion width = 0.50mm
; support material extrusion width = 0.50mm
; first layer extrusion width = 0.80mm

; external perimeters extrusion width = 0.50mm
; perimeters extrusion width = 0.50mm
; infill extrusion width = 0.50mm
; solid infill extrusion width = 0.50mm
; top infill extrusion width = 0.50mm
; support material extrusion width = 0.50mm
; first layer extrusion width = 0.80mm

M73 P0 R47
M201 X2500 Y2500 Z400 E5000 ; sets maximum accelerations, mm/sec^2
M203 X300 Y300 Z20 E80 ; sets maximum feedrates, mm / sec
M204 S1250 T2000 ; sets acceleration (S) and retract acceleration (R), mm/sec^2
M205 X8.00 Y8.00 Z2.00 E10.00 ; sets the jerk limits, mm/sec
M205 S0 T0 ; sets the minimum extruding and travel feed rate, mm/sec
;TYPE:Custom
M80 ;
G90 ; use absolute coordinates
M83 ; extruder relative mode
M140 S115 ; set bed temp
M104 S240 ; set extruder temp
M190 S115 ; wait for bed temp
M109 S240 ; wait for extruder temp
G28 ; home all without mesh bed level
G29 ;
G92 E0.0
G1 Y0 X179 F2400
G1 Z3 F720


; intro line
M73 P0 R46
G1 X170 F1000
G1 Z0.2 F720
G1 X110 E8 F900
G1 X40 E10 F700
G92 E0

M221 S95 ; set flow
G21 ; set units to millimeters
G90 ; use absolute coordinates
M83 ; use relative distances for extrusion
; Filament gcode
M107
;LAYER_CHANGE
;Z:0.15
;HEIGHT:0.15
;BEFORE_LAYER_CHANGE
G92 E0.0
;0.15


G1 E-5 F3600
G1 Z.4 F9000
;AFTER_LAYER_CHANGE
;0.15
G1 X121.24 Y66.218
G1 Z.15
G1 E5 F3600
;TYPE:Skirt/Brim
;WIDTH:0.8
G1 F1800
G1 X121.465 Y65.993 E.01524
G1 X123.093 Y65.318 E.08439
G1 X178.414 Y65.318 E2.64892
G1 X180.043 Y65.993 E.08443
G1 X180.268 Y66.218 E.01524
G1 X180.941 Y67.764 E.08074
G1 X182.371 Y107.732 E1.915
G1 X182.342 Y129.674 E1.05064
G1 X182.087 Y131.429 E.08492
G1 X181.663 Y132.829 E.07004
G1 X180.815 Y134.588 E.0935
G1 X180.165 Y135.56 E.05599
G1 X178.865 Y137.016 E.09346
G1 X177.916 Y137.809 E.05922
G1 X177.138 Y138.343 E.04518
G1 X176.052 Y138.936 E.05925
G1 X174.972 Y139.383 E.05597
G1 X173.785 Y139.731 E.05923
G1 X172.858 Y139.904 E.04515
G1 X171.559 Y140.012 E.06241
G1 X131.475 Y140.012 E1.91933
G1 X129.953 Y139.871 E.07319
G1 X128.062 Y139.383 E.09351
G1 X127.187 Y139.032 E.04514
G1 X126.091 Y138.459 E.05922
G1 X125.118 Y137.809 E.05603
G1 X124.169 Y137.016 E.05922
G1 X123.51 Y136.341 E.04517
G1 X122.734 Y135.378 E.05922
G1 X122.22 Y134.588 E.04513
G1 X121.646 Y133.492 E.05924
G1 X121.295 Y132.616 E.04519
G1 X120.947 Y131.429 E.05923
G1 X120.684 Y129.561 E.09033
G1 X120.565 Y117.274 E.58836
G1 X120.565 Y67.847 E2.3667
G1 X121.217 Y66.273 E.08158
G1 X121.783 Y66.761 F9000
G1 F1800
G1 X122.008 Y66.536 E.01524
G1 X123.093 Y66.086 E.05624
G1 X178.414 Y66.086 E2.64892
G1 X179.5 Y66.536 E.05629
G1 X179.725 Y66.761 E.01524
G1 X180.174 Y67.792 E.05385
G1 X181.603 Y107.732 E1.91366
G1 X181.578 Y129.599 E1.04705
M73 P1 R46
G1 X181.334 Y131.279 E.08129
G1 X180.953 Y132.535 E.06285
G1 X180.137 Y134.226 E.0899
G1 X179.572 Y135.073 E.04875
G1 X178.322 Y136.473 E.08987
G1 X177.429 Y137.216 E.05562
G1 X175.69 Y138.258 E.09707
G1 X174.749 Y138.648 E.04877
G1 X173.635 Y138.978 E.05563
G1 X172.783 Y139.14 E.04153
G1 X171.522 Y139.245 E.06059
G1 X131.513 Y139.245 E1.91574
G1 X130.102 Y139.118 E.06784
G1 X128.285 Y138.648 E.08987
G1 X126.453 Y137.782 E.09703
G1 X125.606 Y137.216 E.04878
G1 X124.104 Y135.854 E.09709
G1 X122.897 Y134.226 E.09704
G1 X122.03 Y132.393 E.09709
G1 X121.7 Y131.279 E.05563
G1 X121.451 Y129.523 E.08492
G1 X121.333 Y117.274 E.58654
G1 X121.333 Y67.847 E2.3667
G1 X121.76 Y66.816 E.05343
G1 X122.326 Y67.304 F9000
G1 F1800
G1 X122.551 Y67.079 E.01524
G1 X123.093 Y66.854 E.0281
G1 X178.414 Y66.854 E2.64892
G1 X178.957 Y67.079 E.02814
G1 X179.182 Y67.304 E.01524
G1 X179.406 Y67.819 E.02689
G1 X180.835 Y107.732 E1.91237
G1 X180.816 Y129.486 E1.04164
G1 X180.581 Y131.129 E.07947
G1 X180.244 Y132.241 E.05564
G1 X179.46 Y133.864 E.08631
G1 X178.978 Y134.586 E.04157
G1 X177.779 Y135.93 E.08624
G1 X176.942 Y136.622 E.052
G1 X175.328 Y137.581 E.0899
G1 X173.485 Y138.225 E.09348
G1 X172.707 Y138.376 E.03795
G1 X171.484 Y138.478 E.05876
G1 X131.55 Y138.478 E1.91215
G1 X130.252 Y138.365 E.06239
G1 X128.508 Y137.913 E.08627
G1 X126.814 Y137.105 E.08987
G1 X126.093 Y136.622 E.04155
G1 X124.748 Y135.423 E.08628
G1 X123.574 Y133.864 E.09345
G1 X122.765 Y132.17 E.08989
G1 X122.453 Y131.129 E.05204
G1 X122.218 Y129.486 E.07947
G1 X122.101 Y117.274 E.58477
G1 X122.101 Y67.847 E2.3667
G1 X122.303 Y67.359 E.02529
G1 E-5 F3600
G1 Z.55 F9000
G1 X138.752 Y77.23
G1 Z.15
G1 E5 F3600
G1 F1800
G1 X139.471 Y76.199 E.06019
G1 X140.444 Y75.234 E.06562
G1 X141.416 Y74.563 E.05655
G1 X142.506 Y74.074 E.0572
G1 X144.175 Y73.734 E.08156
G1 X157.428 Y73.742 E.63459
G1 X159.046 Y74.091 E.07926
G1 X160.165 Y74.603 E.05892
G1 X161.148 Y75.307 E.05789
G1 X161.984 Y76.137 E.05641
G1 X162.705 Y77.145 E.05934
G1 X163.257 Y78.366 E.06416
G1 X163.535 Y79.545 E.058
G1 X163.518 Y87.513 E.38153
G1 X163.243 Y88.591 E.05327
G1 X162.716 Y89.763 E.06153
G1 X162.08 Y90.67 E.05304
G1 X161.064 Y91.686 E.0688
G1 X159.78 Y92.565 E.07451
G1 X161.063 Y93.435 E.07423
G1 X162.182 Y94.574 E.07645
G1 X162.841 Y95.593 E.05811
G1 X163.339 Y96.824 E.06358
G1 X163.561 Y97.987 E.05669
G1 X163.577 Y99.586 E.07657
G1 X171.549 Y99.59 E.38172
G1 X173.034 Y99.776 E.07166
G1 X174.697 Y100.326 E.08387
G1 X176.255 Y101.242 E.08654
G1 X177.173 Y102.042 E.05831
G1 X177.987 Y102.994 E.05998
G1 X178.82 Y104.408 E.07858
G1 X179.38 Y106.042 E.08271
G1 X179.593 Y107.722 E.08109
G1 X179.593 Y129.077 E1.02254
G1 X179.431 Y130.544 E.07067
G1 X179.039 Y131.896 E.0674
G1 X178.088 Y133.691 E.09727
G1 X177.228 Y134.724 E.06436
G1 X176.184 Y135.63 E.06619
G1 X174.857 Y136.423 E.07402
G1 X173.344 Y136.974 E.0771
G1 X171.563 Y137.23 E.08616
G1 X131.601 Y137.238 E1.91349
G1 X130.134 Y137.075 E.07068
G1 X128.782 Y136.683 E.0674
G1 X126.987 Y135.731 E.09729
G1 X125.997 Y134.914 E.06146
G1 X125.131 Y133.941 E.06237
G1 X124.224 Y132.434 E.08422
G1 X123.666 Y130.832 E.08123
G1 X123.441 Y129.105 E.08339
G1 X123.441 Y107.742 E1.02292
G1 X123.61 Y106.243 E.07223
G1 X124.024 Y104.851 E.06954
G1 X124.879 Y103.234 E.08758
G1 X125.866 Y102.039 E.07421
G1 X127.144 Y100.987 E.07926
G1 X128.669 Y100.183 E.08255
G1 X129.979 Y99.779 E.06564
G1 X131.394 Y99.595 E.06832
G1 X137.933 Y99.587 E.31311
G1 X137.956 Y97.901 E.08074
G1 X138.196 Y96.729 E.05728
G1 X138.669 Y95.585 E.05928
G1 X139.567 Y94.289 E.0755
G1 X140.599 Y93.307 E.06821
G1 X141.717 Y92.581 E.06383
G1 X140.393 Y91.643 E.07769
G1 X139.427 Y90.67 E.06565
G1 X138.757 Y89.699 E.05649
G1 X138.246 Y88.542 E.06056
G1 X137.952 Y87.182 E.06662
G1 X137.943 Y79.812 E.3529
G1 X138.199 Y78.529 E.06264
G1 X138.729 Y77.285 E.06475
G1 X139.406 Y77.634 F9000
G1 F1800
G1 X140.038 Y76.719 E.05325
G1 X140.96 Y75.804 E.0622
G1 X141.818 Y75.218 E.04975
G1 X142.778 Y74.793 E.05027
G1 X144.213 Y74.502 E.07011
G1 X157.387 Y74.509 E.63081
G1 X158.764 Y74.807 E.06746
G1 X159.81 Y75.285 E.05507
G1 X160.671 Y75.91 E.05094
G1 X161.417 Y76.656 E.05052
G1 X162.057 Y77.558 E.05296
G1 X162.52 Y78.584 E.0539
G1 X162.767 Y79.593 E.04974
G1 X162.761 Y87.374 E.37258
G1 X162.528 Y88.312 E.04628
G1 X162.063 Y89.357 E.05477
G1 X161.512 Y90.152 E.04632
G1 X160.548 Y91.116 E.06528
G1 X159.63 Y91.736 E.05304
G1 X158.725 Y92.131 E.04728
G1 X158.251 Y92.244 E.02333
G1 X158.209 Y92.803 E.02684
G1 X159.579 Y93.359 E.0708
G1 X160.544 Y94.002 E.05552
G1 X161.605 Y95.083 E.07253
G1 X162.175 Y95.976 E.05073
G1 X162.592 Y97.005 E.05316
G1 X162.8 Y98.095 E.05313
G1 X162.811 Y100.354 E.10817
G1 X171.481 Y100.356 E.41514
G1 X172.831 Y100.518 E.06511
G1 X174.416 Y101.042 E.07993
G1 X175.83 Y101.882 E.07875
G1 X176.644 Y102.6 E.05197
G1 X177.345 Y103.416 E.05151
G1 X178.108 Y104.698 E.07144
G1 X178.624 Y106.18 E.07514
G1 X178.826 Y107.747 E.07565
G1 X178.826 Y129.057 E1.02038
G1 X178.684 Y130.367 E.06309
G1 X178.34 Y131.576 E.06019
G1 X177.47 Y133.234 E.08966
G1 X176.698 Y134.168 E.05802
G1 X175.76 Y134.989 E.05969
G1 X174.496 Y135.744 E.0705
G1 X173.123 Y136.238 E.06987
G1 X171.485 Y136.466 E.07919
G1 X131.621 Y136.47 E1.9088
G1 X130.311 Y136.328 E.06309
G1 X129.102 Y135.984 E.06019
G1 X127.444 Y135.114 E.08966
G1 X126.51 Y134.341 E.05805
G1 X125.729 Y133.459 E.05641
G1 X124.934 Y132.14 E.07374
G1 X124.422 Y130.69 E.07363
G1 X124.209 Y129.079 E.07781
G1 X124.209 Y107.763 E1.02067
G1 X124.357 Y106.424 E.06451
G1 X124.722 Y105.175 E.06231
G1 X125.538 Y103.63 E.08366
M73 P2 R46
G1 X126.431 Y102.56 E.06673
G1 X127.599 Y101.606 E.07221
G1 X128.929 Y100.906 E.07197
G1 X130.172 Y100.523 E.06228
G1 X131.466 Y100.36 E.06245
G1 X138.697 Y100.355 E.34624
G1 X138.716 Y98.018 E.11191
G1 X138.941 Y96.921 E.05362
G1 X139.361 Y95.92 E.05198
G1 X140.125 Y94.818 E.06421
G1 X141.1 Y93.89 E.06445
G1 X141.954 Y93.346 E.04848
G1 X142.811 Y92.98 E.04462
G1 X143.247 Y92.875 E.02147
G1 X143.293 Y92.322 E.02657
G1 X141.768 Y91.675 E.07932
G1 X140.913 Y91.077 E.04996
G1 X139.997 Y90.155 E.06223
G1 X139.411 Y89.296 E.04979
G1 X138.986 Y88.337 E.05023
G1 X138.719 Y87.138 E.05882
G1 X138.711 Y79.851 E.34892
G1 X138.943 Y78.722 E.05519
G1 X139.383 Y77.689 E.05376
G1 E-5 F3600
G1 Z.55 F9000
G1 X143.069 Y93.705
G1 Z.15
G1 E5 F3600
G1 F1800
G1 X144.252 Y93.47 E.05775
G1 X157.343 Y93.477 E.62683
G1 X158.302 Y93.663 E.04678
G1 X159.191 Y94.023 E.04593
G1 X160.026 Y94.57 E.0478
G1 X161.027 Y95.59 E.06843
G1 X161.505 Y96.352 E.04307
G1 X161.864 Y97.252 E.0464
G1 X162.038 Y98.198 E.04606
G1 X162.044 Y101.122 E.14001
G1 X171.46 Y101.123 E.45086
G1 X172.631 Y101.26 E.05645
G1 X174.064 Y101.725 E.07214
G1 X175.353 Y102.485 E.07165
G1 X176.08 Y103.121 E.04625
G1 X176.741 Y103.892 E.04863
G1 X177.398 Y104.991 E.06131
G1 X177.868 Y106.321 E.06754
G1 X178.058 Y107.772 E.07007
G1 X178.058 Y129.037 E1.01823
G1 X177.935 Y130.194 E.05571
G1 X177.64 Y131.26 E.05296
G1 X176.85 Y132.779 E.08198
G1 X176.165 Y133.614 E.05171
G1 X175.332 Y134.351 E.05326
G1 X174.2 Y135.035 E.06333
G1 X172.903 Y135.501 E.06599
G1 X171.409 Y135.702 E.07218
G1 X131.641 Y135.702 E1.9042
M73 P2 R45
G1 X130.484 Y135.579 E.05571
G1 X129.419 Y135.284 E.05292
G1 X127.899 Y134.494 E.08202
G1 X127.064 Y133.809 E.05171
G1 X126.327 Y132.976 E.05326
G1 X125.643 Y131.844 E.06333
G1 X125.177 Y130.547 E.06599
G1 X124.976 Y129.053 E.07218
G1 X124.976 Y107.783 E1.01847
G1 X125.104 Y106.602 E.05688
G1 X125.42 Y105.497 E.05503
G1 X126.197 Y104.026 E.07966
G1 X126.992 Y103.084 E.05902
G1 X128.052 Y102.227 E.06527
G1 X129.189 Y101.629 E.06151
G1 X130.365 Y101.267 E.05892
G1 X131.534 Y101.125 E.05639
G1 X139.463 Y101.122 E.37966
G1 X139.476 Y98.13 E.14327
G1 X139.666 Y97.176 E.04658
G1 X140.019 Y96.318 E.04442
G1 X140.684 Y95.346 E.05639
G1 X141.601 Y94.473 E.06062
G1 X142.284 Y94.04 E.03872
G1 X143.014 Y93.729 E.03799
G1 X143.311 Y94.436 F9000
G1 F1800
G1 X144.289 Y94.238 E.04778
G1 X157.305 Y94.245 E.62324
G1 X158.053 Y94.39 E.03648
G1 X158.809 Y94.69 E.03895
G1 X159.512 Y95.143 E.04004
G1 X160.403 Y96.039 E.0605
G1 X160.808 Y96.676 E.03614
G1 X161.118 Y97.436 E.0393
G1 X161.271 Y98.237 E.03905
G1 X161.277 Y101.889 E.17487
G1 X171.439 Y101.891 E.48658
G1 X172.436 Y102.004 E.04804
G1 X173.715 Y102.41 E.06425
G1 X174.875 Y103.087 E.06431
G1 X175.553 Y103.68 E.04313
G1 X176.135 Y104.363 E.04297
G1 X176.716 Y105.348 E.05476
G1 X177.129 Y106.534 E.06013
G1 X177.29 Y107.796 E.06092
G1 X177.29 Y129.018 E1.01617
G1 X177.186 Y130.02 E.04824
G1 X176.91 Y131.016 E.04949
G1 X176.231 Y132.323 E.07052
G1 X175.592 Y133.102 E.04824
G1 X174.853 Y133.75 E.04706
G1 X173.84 Y134.356 E.05652
G1 X172.686 Y134.764 E.05861
G1 X171.384 Y134.934 E.06287
G1 X131.66 Y134.934 E1.90209
G1 X130.658 Y134.83 E.04824
G1 X129.663 Y134.555 E.04943
G1 X128.355 Y133.875 E.07059
G1 X127.576 Y133.236 E.04824
G1 X126.928 Y132.497 E.04706
G1 X126.323 Y131.484 E.0565
G1 X125.915 Y130.33 E.05861
G1 X125.744 Y129.029 E.06283
G1 X125.744 Y107.803 E1.01636
G1 X125.852 Y106.78 E.04926
G1 X126.147 Y105.746 E.05149
G1 X126.813 Y104.486 E.06824
G1 X127.508 Y103.654 E.05191
G1 X128.448 Y102.886 E.05812
G1 X129.451 Y102.352 E.05441
G1 X130.557 Y102.011 E.05542
G1 X131.556 Y101.893 E.04817
G1 X140.23 Y101.89 E.41533
G1 X140.237 Y98.237 E.17492
G1 X140.391 Y97.432 E.03924
G1 X140.714 Y96.648 E.0406
G1 X141.243 Y95.874 E.04489
G1 X142.101 Y95.057 E.05673
G1 X142.66 Y94.71 E.0315
G1 X143.256 Y94.459 E.03097
G1 X143.55 Y95.168 F9000
G1 F1800
G1 X144.326 Y95.005 E.03797
G1 X157.264 Y95.013 E.61951
G1 X157.862 Y95.135 E.02922
G1 X158.484 Y95.386 E.03212
G1 X159.055 Y95.76 E.03268
G1 X159.823 Y96.544 E.05255
G1 X160.137 Y97.049 E.02847
G1 X160.39 Y97.683 E.03269
G1 X160.509 Y98.338 E.03188
G1 X160.509 Y102.657 E.20681
G1 X171.419 Y102.659 E.5224
G1 X172.246 Y102.748 E.03983
G1 X173.371 Y103.098 E.05641
G1 X174.401 Y103.692 E.05693
G1 X174.988 Y104.201 E.0372
G1 X175.527 Y104.834 E.03981
G1 X176.035 Y105.702 E.04816
G1 X176.373 Y106.673 E.04923
G1 X176.522 Y107.821 E.05543
G1 X176.522 Y128.997 E1.01396
G1 X176.426 Y129.906 E.04377
G1 X176.183 Y130.768 E.04288
G1 X175.61 Y131.87 E.05947
G1 X175.061 Y132.547 E.04174
G1 X174.375 Y133.148 E.04367
G1 X173.485 Y133.674 E.0495
G1 X172.474 Y134.025 E.05124
G1 X171.361 Y134.166 E.05372
G1 X131.681 Y134.166 E1.89999
G1 X130.772 Y134.071 E.04376
G1 X129.91 Y133.827 E.0429
G1 X128.808 Y133.254 E.05947
G1 X128.131 Y132.705 E.04174
G1 X127.53 Y132.019 E.04367
G1 X127.004 Y131.129 E.0495
G1 X126.653 Y130.118 E.05124
G1 X126.512 Y129.005 E.05372
G1 X126.512 Y107.824 E1.0142
G1 X126.612 Y106.897 E.04464
G1 X126.873 Y105.999 E.04478
G1 X127.43 Y104.944 E.05712
G1 X128.027 Y104.221 E.0449
G1 X128.848 Y103.543 E.05098
G1 X129.718 Y103.073 E.04735
G1 X130.686 Y102.769 E.04858
G1 X131.58 Y102.661 E.04312
G1 X140.999 Y102.657 E.45101
G1 X140.999 Y98.338 E.20681
G1 X141.117 Y97.685 E.03177
G1 X141.408 Y96.977 E.03665
G1 X141.801 Y96.402 E.03335
G1 X142.598 Y95.644 E.05267
G1 X143.029 Y95.383 E.02413
G1 X143.494 Y95.191 E.02409
G1 X143.788 Y95.9 F9000
G1 F1800
G1 X144.364 Y95.773 E.02824
G1 X157.221 Y95.781 E.61563
G1 X157.662 Y95.876 E.0216
G1 X158.152 Y96.079 E.0254
G1 X158.591 Y96.374 E.02533
G1 X159.24 Y97.045 E.0447
G1 X159.435 Y97.364 E.0179
G1 X159.662 Y97.931 E.02924
G1 X159.741 Y98.371 E.02141
G1 X159.741 Y103.425 E.242
G1 X171.397 Y103.427 E.55812
G1 X172.123 Y103.507 E.03497
G1 X173.097 Y103.816 E.04893
G1 X173.926 Y104.296 E.04587
G1 X174.461 Y104.76 E.03391
G1 X174.917 Y105.302 E.03392
G1 X175.35 Y106.051 E.04143
G1 X175.634 Y106.882 E.04205
G1 X175.754 Y107.844 E.04642
G1 X175.754 Y128.979 E1.012
G1 X175.678 Y129.73 E.03614
G1 X175.455 Y130.522 E.0394
G1 X174.989 Y131.417 E.04832
G1 X174.486 Y132.036 E.03819
G1 X173.901 Y132.543 E.03707
G1 X173.133 Y132.99 E.04255
G1 X172.267 Y133.285 E.04381
G1 X171.338 Y133.399 E.04482
G1 X131.7 Y133.399 E1.89798
G1 X130.948 Y133.322 E.0362
G1 X130.157 Y133.099 E.03935
G1 X129.262 Y132.633 E.04832
G1 X128.642 Y132.13 E.03823
G1 X128.135 Y131.545 E.03707
G1 X127.688 Y130.778 E.04251
G1 X127.394 Y129.911 E.04384
G1 X127.28 Y128.982 E.04482
G1 X127.28 Y107.845 E1.0121
G1 X127.371 Y107.017 E.03989
G1 X127.597 Y106.256 E.03801
G1 X128.05 Y105.398 E.04646
G1 X128.55 Y104.785 E.03788
G1 X129.252 Y104.196 E.04388
G1 X129.99 Y103.792 E.04029
G1 X130.818 Y103.526 E.04164
G1 X131.605 Y103.429 E.03797
G1 X141.766 Y103.425 E.48654
G1 X141.766 Y98.371 E.242
G1 X141.845 Y97.931 E.02141
G1 X142.071 Y97.366 E.02914
G1 X142.367 Y96.923 E.02551
G1 X143.039 Y96.274 E.04473
G1 X143.353 Y96.081 E.01765
G1 X143.733 Y95.923 E.01971
G1 X144.026 Y96.633 F9000
G1 F1800
G1 X144.106 Y96.6 E.00414
G1 X144.401 Y96.541 E.01441
G1 X157.176 Y96.548 E.6117
G1 X157.397 Y96.598 E.01085
G1 X157.823 Y96.774 E.02207
G1 X158.073 Y96.941 E.0144
G1 X158.616 Y97.494 E.03711
G1 X158.737 Y97.684 E.01079
G1 X158.934 Y98.178 E.02547
G1 X158.973 Y98.403 E.01093
G1 X158.973 Y104.192 E.27719
G1 X171.375 Y104.195 E.59384
