; generated by PrusaSlicer 2.8.0+win64 on 2024-09-20 at 14:41:22 UTC


;
;
; 

; external perimeters extrusion width = 0.45mm
; perimeters extrusion width = 0.45mm
; infill extrusion width = 0.45mm
; solid infill extrusion width = 0.45mm
; top infill extrusion width = 0.40mm
; support material extrusion width = 0.35mm
; first layer extrusion width = 0.42mm

; external perimeters extrusion width = 0.45mm
; perimeters extrusion width = 0.45mm
; infill extrusion width = 0.45mm
; solid infill extrusion width = 0.45mm
; top infill extrusion width = 0.40mm
; support material extrusion width = 0.35mm
; first layer extrusion width = 0.42mm

;TYPE:Custom
M82 ;absolute extrusion mode
M140 S0
M104 S0 
START_PRINT EXTRUDER_TEMP=260 BED_TEMP=100
G92 E0
G92 E0
G1 F2400 E-0.5
G21 ; set units to millimeters
G90 ; use absolute coordinates
M82 ; use absolute distances for extrusion
G92 E0
; Filament gcode
M107
;LAYER_CHANGE
;Z:0.2
;HEIGHT:0.2
G1 E-2 F2400
G1 Z.6 F30000
G92 E0
G1 X117.594 Y93.27
G1 Z.2
G1 E2 F2400
G92 E0
;TYPE:Perimeter
;WIDTH:0.419999
G1 F6000
G1 X117.638 Y93.236 E.00174
G1 X118.009 Y93.051 E.01474
G1 X118.413 Y92.948 E.02781
;WIDTH:0.409671
G1 X118.804 Y92.928 E.03975
;WIDTH:0.413947
G1 X119.21 Y92.969 E.05234
;WIDTH:0.419999
G1 X119.599 Y93.095 E.06516
G1 X119.954 Y93.298 E.07798
G1 X120.263 Y93.565 E.09078
G1 X120.514 Y93.888 E.10361
G1 X120.697 Y94.254 E.11644
G1 X120.805 Y94.648 E.12925
G1 X120.834 Y95.055 E.14204
G1 X120.784 Y95.461 E.15487
G1 X120.655 Y95.849 E.16769
G1 X120.452 Y96.204 E.18051
G1 X120.185 Y96.513 E.19331
G1 X119.862 Y96.764 E.20614
G1 X119.496 Y96.947 E.21897
G1 X119.102 Y97.055 E.23178
G1 X118.695 Y97.084 E.24457
G1 X118.289 Y97.034 E.2574
G1 X117.792 Y96.846 E.27406
G1 X117.546 Y96.702 E.283
G1 X117.237 Y96.435 E.2958
G1 X116.986 Y96.112 E.30863
G1 X116.803 Y95.746 E.32146
G1 X116.695 Y95.352 E.33427
G1 X116.666 Y94.945 E.34706
G1 X116.695 Y94.648 E.35642
G1 X116.845 Y94.151 E.3727
G1 X117.048 Y93.796 E.38552
G1 X117.315 Y93.487 E.39832
G1 X117.547 Y93.307 E.40753
G1 X117.547 Y93.307 F30000
G1 X117.801 Y93.58
;TYPE:External perimeter
G1 F6000
G1 X117.816 Y93.569 E.40811
G1 X118.115 Y93.413 E.41868
G1 X118.449 Y93.319 E.42956
G1 X118.768 Y93.291 E.4396
G1 X119.102 Y93.327 E.45013
G1 X119.421 Y93.428 E.46062
G1 X119.715 Y93.589 E.47113
G1 X119.972 Y93.804 E.48164
G1 X120.181 Y94.066 E.49215
G1 X120.336 Y94.363 E.50265
G1 X120.43 Y94.685 E.51317
G1 X120.459 Y95.018 E.52365
G1 X120.423 Y95.352 E.53418
G1 X120.322 Y95.671 E.54467
G1 X120.161 Y95.965 E.55518
G1 X119.945 Y96.222 E.56571
G1 X119.684 Y96.431 E.57619
G1 X119.387 Y96.586 E.58669
G1 X119.065 Y96.68 E.59721
G1 X118.732 Y96.709 E.60769
G1 X118.398 Y96.673 E.61822
G1 X117.97 Y96.514 E.63254
G1 X117.554 Y96.222 E.64848
G1 X117.319 Y95.934 E.66013
G1 X117.164 Y95.637 E.67063
G1 X117.07 Y95.315 E.68115
G1 X117.041 Y94.982 E.69163
G1 X117.07 Y94.685 E.70099
G1 X117.178 Y94.329 E.71265
G1 X117.339 Y94.035 E.72316
G1 X117.554 Y93.778 E.73367
G1 X117.754 Y93.618 E.7417
G1 X118.107 Y93.428 F30000
G1 E-1.2583 F2400
G92 E0
G1 Z.6 F30000
G1 X129.713 Y93.537
G1 Z.2
G1 E2 F2400
;TYPE:Perimeter
G1 F6000
G1 X129.865 Y93.69 E2.00676
G1 X130.155 Y94.151 E2.02384
G1 X130.301 Y94.648 E2.04008
;WIDTH:0.410752
G1 X130.323 Y95.054 E2.05252
;WIDTH:0.415826
G1 X130.282 Y95.46 E2.06517
;WIDTH:0.419999
G1 X130.155 Y95.849 E2.078
G1 X129.952 Y96.204 E2.09082
G1 X129.685 Y96.513 E2.10362
G1 X129.362 Y96.764 E2.11645
G1 X128.996 Y96.947 E2.12928
G1 X128.602 Y97.055 E2.14209
G1 X128.195 Y97.084 E2.15488
G1 X127.789 Y97.034 E2.16771
G1 X127.401 Y96.905 E2.18053
G1 X127.046 Y96.702 E2.19335
G1 X126.737 Y96.435 E2.20615
G1 X126.486 Y96.112 E2.21898
G1 X126.345 Y95.849 E2.22834
G1 X126.195 Y95.352 E2.24462
G1 X126.166 Y94.945 E2.25741
G1 X126.216 Y94.539 E2.27024
G1 X126.345 Y94.151 E2.28306
G1 X126.548 Y93.796 E2.29588
G1 X126.815 Y93.487 E2.30868
G1 X127.138 Y93.236 E2.32151
G1 X127.507 Y93.052 E2.33444
G1 X127.908 Y92.949 E2.34742
;WIDTH:0.409799
G1 X128.304 Y92.928 E2.35952
;WIDTH:0.413874
G1 X128.71 Y92.969 E2.37211
;WIDTH:0.419999
G1 X129.099 Y93.095 E2.38493
G1 X129.56 Y93.385 E2.40201
G1 X129.67 Y93.495 E2.40689
G1 X129.67 Y93.495 F30000
G1 X129.444 Y93.806
;TYPE:External perimeter
G1 F6000
G1 X129.662 Y94.036 E2.41683
G1 X129.836 Y94.363 E2.42844
G1 X129.93 Y94.685 E2.43896
G1 X129.959 Y95.018 E2.44944
G1 X129.923 Y95.352 E2.45997
G1 X129.822 Y95.671 E2.47046
G1 X129.661 Y95.965 E2.48097
G1 X129.445 Y96.222 E2.4915
G1 X129.184 Y96.431 E2.50198
G1 X128.887 Y96.586 E2.51248
G1 X128.565 Y96.68 E2.523
G1 X128.232 Y96.709 E2.53348
G1 X127.898 Y96.673 E2.54401
G1 X127.579 Y96.572 E2.5545
G1 X127.285 Y96.411 E2.56501
G1 X127.028 Y96.196 E2.57552
G1 X126.819 Y95.934 E2.58603
G1 X126.678 Y95.671 E2.59539
G1 X126.57 Y95.315 E2.60705
G1 X126.541 Y94.982 E2.61753
G1 X126.577 Y94.648 E2.62806
G1 X126.678 Y94.329 E2.63855
G1 X126.839 Y94.035 E2.64906
G1 X127.054 Y93.778 E2.65957
G1 X127.316 Y93.569 E2.67008
G1 X127.614 Y93.413 E2.68063
G1 X127.944 Y93.319 E2.69139
G1 X128.268 Y93.291 E2.70159
G1 X128.602 Y93.327 E2.71212
G1 X128.921 Y93.428 E2.72261
G1 X129.321 Y93.676 E2.73737
G1 X129.403 Y93.762 E2.7411
G1 X129.663 Y94.066 F30000
G1 E.7411 F2400
G92 E0
G1 Z.6 F30000
G1 X119.155 Y115.037
G1 Z.2
G1 E2 F2400
;TYPE:Perimeter
G1 F6000
G1 X119.102 Y115.051 E2.00172
;WIDTH:0.410739
G1 X118.696 Y115.073 E2.01416
;WIDTH:0.414169
G1 X118.29 Y115.031 E2.02676
;WIDTH:0.419999
G1 X117.901 Y114.905 E2.03958
G1 X117.546 Y114.702 E2.0524
G1 X117.237 Y114.435 E2.0652
G1 X116.986 Y114.112 E2.07803
G1 X116.803 Y113.746 E2.09086
G1 X116.695 Y113.352 E2.10367
G1 X116.666 Y112.945 E2.11646
G1 X116.716 Y112.539 E2.12929
G1 X116.845 Y112.151 E2.14211
G1 X117.048 Y111.796 E2.15493
G1 X117.351 Y111.471 E2.16886
G1 X117.638 Y111.236 E2.18049
G1 X118.009 Y111.051 E2.19349
G1 X118.412 Y110.943 E2.20657
G1 X118.805 Y110.916 E2.21892
G1 X119.211 Y110.966 E2.23175
G1 X119.599 Y111.095 E2.24457
G1 X119.954 Y111.298 E2.25739
G1 X120.263 Y111.565 E2.27019
G1 X120.514 Y111.888 E2.28302
G1 X120.697 Y112.254 E2.29585
G1 X120.805 Y112.648 E2.30866
G1 X120.834 Y112.945 E2.31802
G1 X120.784 Y113.461 E2.33427
G1 X120.655 Y113.849 E2.34709
G1 X120.452 Y114.204 E2.35991
G1 X120.185 Y114.513 E2.37271
G1 X119.862 Y114.764 E2.38554
G1 X119.496 Y114.947 E2.39837
G1 X119.213 Y115.021 E2.40754
G1 X119.213 Y115.021 F30000
G1 X119.083 Y114.675
;TYPE:External perimeter
G1 F6000
G1 X119.065 Y114.68 E2.40813
G1 X118.732 Y114.709 E2.41861
G1 X118.398 Y114.673 E2.42914
G1 X118.079 Y114.572 E2.43963
G1 X117.785 Y114.411 E2.45014
G1 X117.528 Y114.196 E2.46065
G1 X117.319 Y113.934 E2.47116
G1 X117.164 Y113.637 E2.48166
G1 X117.052 Y113.135 E2.49779
G1 X117.077 Y112.648 E2.51308
G1 X117.178 Y112.329 E2.52357
G1 X117.339 Y112.035 E2.53408
G1 X117.584 Y111.754 E2.54577
G1 X117.816 Y111.569 E2.55507
G1 X118.115 Y111.413 E2.56564
G1 X118.449 Y111.319 E2.57652
G1 X118.768 Y111.291 E2.58656
G1 X119.102 Y111.327 E2.59709
G1 X119.421 Y111.428 E2.60758
G1 X119.715 Y111.589 E2.61809
G1 X119.972 Y111.804 E2.6286
G1 X120.181 Y112.066 E2.63911
G1 X120.336 Y112.363 E2.64961
G1 X120.43 Y112.685 E2.66013
G1 X120.459 Y112.982 E2.66949
G1 X120.423 Y113.352 E2.68115
G1 X120.322 Y113.671 E2.69164
G1 X120.161 Y113.965 E2.70215
G1 X119.945 Y114.222 E2.71268
G1 X119.684 Y114.431 E2.72316
G1 X119.387 Y114.586 E2.73366
G1 X119.141 Y114.658 E2.7417
G1 X118.743 Y114.698 F30000
G1 E.7417 F2400
G92 E0
G1 Z.6 F30000
G1 X129.967 Y114.147
G1 Z.2
G1 E2 F2400
;TYPE:Perimeter
G1 F6000
G1 X129.865 Y114.31 E2.00603
G1 X129.56 Y114.615 E2.01955
G1 X129.099 Y114.905 E2.03663
G1 X128.602 Y115.051 E2.05287
;WIDTH:0.410739
G1 X128.196 Y115.073 E2.06531
;WIDTH:0.414169
G1 X127.79 Y115.031 E2.07791
;WIDTH:0.419999
G1 X127.401 Y114.905 E2.09073
G1 X127.046 Y114.702 E2.10355
G1 X126.737 Y114.435 E2.11635
G1 X126.486 Y114.112 E2.12918
G1 X126.303 Y113.746 E2.14201
G1 X126.195 Y113.352 E2.15482
G1 X126.166 Y112.944 E2.16764
G1 X126.216 Y112.539 E2.18043
G1 X126.345 Y112.151 E2.19325
G1 X126.548 Y111.796 E2.20607
G1 X126.815 Y111.487 E2.21887
G1 X127.141 Y111.235 E2.23179
G1 X127.507 Y111.052 E2.24462
G1 X127.908 Y110.944 E2.25764
G1 X128.305 Y110.916 E2.27012
G1 X128.711 Y110.966 E2.28295
G1 X129.099 Y111.095 E2.29577
G1 X129.454 Y111.298 E2.30859
G1 X129.763 Y111.565 E2.32139
G1 X130.014 Y111.888 E2.33422
G1 X130.197 Y112.254 E2.34705
G1 X130.301 Y112.648 E2.35983
;WIDTH:0.410752
G1 X130.323 Y113.054 E2.37227
;WIDTH:0.415826
G1 X130.282 Y113.46 E2.38492
;WIDTH:0.419999
G1 X130.155 Y113.849 E2.39775
G1 X129.999 Y114.097 E2.40694
G1 X129.999 Y114.097 F30000
G1 X129.656 Y113.939
;TYPE:External perimeter
G1 F6000
G1 X129.574 Y114.071 E2.41181
G1 X129.214 Y114.412 E2.42736
G1 X128.921 Y114.572 E2.43783
G1 X128.565 Y114.68 E2.44949
G1 X128.232 Y114.709 E2.45997
G1 X127.898 Y114.673 E2.4705
G1 X127.579 Y114.572 E2.48099
G1 X127.285 Y114.411 E2.4915
G1 X127.028 Y114.196 E2.50201
G1 X126.819 Y113.934 E2.51252
G1 X126.664 Y113.637 E2.52302
G1 X126.57 Y113.315 E2.53354
G1 X126.541 Y112.981 E2.54405
G1 X126.577 Y112.648 E2.55455
G1 X126.678 Y112.329 E2.56504
G1 X126.839 Y112.035 E2.57555
G1 X127.054 Y111.778 E2.58606
G1 X127.319 Y111.567 E2.59668
G1 X127.614 Y111.413 E2.60711
G1 X127.944 Y111.319 E2.61787
G1 X128.268 Y111.291 E2.62807
G1 X128.602 Y111.327 E2.6386
G1 X128.921 Y111.428 E2.64909
G1 X129.215 Y111.589 E2.6596
G1 X129.472 Y111.804 E2.67011
G1 X129.681 Y112.066 E2.68062
G1 X129.836 Y112.363 E2.69112
G1 X129.93 Y112.685 E2.70164
G1 X129.959 Y113.018 E2.71212
G1 X129.923 Y113.352 E2.72265
G1 X129.822 Y113.671 E2.73314
G1 X129.687 Y113.888 E2.74115
G1 X129.432 Y114.196 F30000
G1 E.74115 F2400
G92 E0
G1 Z.6 F30000
G1 X117.151 Y111.144
G1 Z.2
G1 E2 F2400
;TYPE:Perimeter
;WIDTH:0.413145
G1 F6000
G1 X117.01 Y111.271 E2.00584
;WIDTH:0.419999
G1 X116.652 Y111.33 E2.01722
G1 X93.729 Y111.33 E2.73595
G1 X93.426 Y111.233 E2.74593
;WIDTH:0.41315
G1 X93.244 Y111.05 E2.75388
;WIDTH:0.419999
G1 X93.163 Y110.757 E2.76341
G1 X93.163 Y98.32 E3.15336
G1 X93.203 Y98.113 E3.15997
G1 X93.38 Y97.877 E3.16922
G1 X93.551 Y97.785 E3.17531
G1 X94.186 Y97.756 E3.19524
G1 X96.282 Y97.756 E3.26096
G1 X116.771 Y97.756 E3.90338
G1 X117.051 Y97.83 E3.91246
G1 X117.236 Y98 E3.92034
G1 X117.328 Y98.219 E3.92779
G1 X117.337 Y110.765 E4.32116
G1 X117.256 Y111.05 E4.33045
;WIDTH:0.413145
G1 X117.195 Y111.104 E4.33296
G1 X117.195 Y111.104 F30000
G1 X116.899 Y110.886
;TYPE:External perimeter
;WIDTH:0.419999
G1 F6000
G1 X116.883 Y110.917 E4.33405
G1 X116.652 Y110.953 E4.34138
G1 X93.729 Y110.953 E5.06011
G1 X93.609 Y110.911 E5.0641
G1 X93.54 Y110.757 E5.06939
G1 X93.54 Y98.321 E5.45931
G1 X93.612 Y98.174 E5.46444
G1 X93.729 Y98.133 E5.46833
G1 X96.282 Y98.133 E5.54838
G1 X116.771 Y98.133 E6.1908
G1 X116.903 Y98.186 E6.19526
G1 X116.96 Y98.322 E6.19988
G1 X116.96 Y110.765 E6.59002
G1 X116.926 Y110.832 E6.59238
G1 X116.543 Y110.947 F30000
G1 E4.59238 F2400
G92 E0
G1 Z.6 F30000
G1 X90.594 Y96.73
G1 Z.2
G1 E2 F2400
;TYPE:Perimeter
G1 F6000
G1 X90.546 Y96.702 E2.00174
G1 X90.237 Y96.435 E2.01454
G1 X89.986 Y96.112 E2.02737
G1 X89.803 Y95.746 E2.0402
G1 X89.699 Y95.352 E2.05298
;WIDTH:0.410732
G1 X89.677 Y94.946 E2.06542
;WIDTH:0.414164
G1 X89.719 Y94.54 E2.07802
;WIDTH:0.419999
G1 X89.845 Y94.151 E2.09084
G1 X90.133 Y93.692 E2.10783
G1 X90.44 Y93.385 E2.12144
G1 X90.901 Y93.095 E2.13852
G1 X91.408 Y92.949 E2.15506
;WIDTH:0.410243
G1 X91.804 Y92.927 E2.16717
;WIDTH:0.414157
G1 X92.21 Y92.969 E2.17977
;WIDTH:0.419999
G1 X92.599 Y93.095 E2.19259
G1 X92.954 Y93.298 E2.20541
G1 X93.263 Y93.565 E2.21821
G1 X93.514 Y93.888 E2.23104
G1 X93.697 Y94.254 E2.24387
G1 X93.805 Y94.648 E2.25668
G1 X93.834 Y95.055 E2.26947
G1 X93.784 Y95.461 E2.2823
G1 X93.655 Y95.849 E2.29512
G1 X93.452 Y96.204 E2.30794
G1 X93.185 Y96.513 E2.32074
G1 X92.954 Y96.702 E2.3301
G1 X92.496 Y96.947 E2.34639
G1 X92.102 Y97.055 E2.3592
G1 X91.695 Y97.084 E2.37199
G1 X91.289 Y97.034 E2.38482
G1 X90.901 Y96.905 E2.39764
G1 X90.646 Y96.76 E2.40684
G1 X90.646 Y96.76 F30000
G1 X90.801 Y96.42
;TYPE:External perimeter
G1 F6000
G1 X90.785 Y96.411 E2.40742
G1 X90.528 Y96.196 E2.41793
G1 X90.319 Y95.934 E2.42844
G1 X90.164 Y95.637 E2.43894
G1 X90.07 Y95.315 E2.44946
G1 X90.041 Y94.982 E2.45994
G1 X90.077 Y94.648 E2.47047
G1 X90.178 Y94.329 E2.48096
G1 X90.424 Y93.931 E2.49563
G1 X90.786 Y93.588 E2.51127
G1 X91.114 Y93.413 E2.52293
G1 X91.444 Y93.319 E2.53369
G1 X91.768 Y93.291 E2.54389
G1 X92.102 Y93.327 E2.55442
G1 X92.421 Y93.428 E2.56491
G1 X92.715 Y93.589 E2.57542
G1 X92.972 Y93.804 E2.58593
G1 X93.181 Y94.066 E2.59644
G1 X93.336 Y94.363 E2.60694
G1 X93.43 Y94.685 E2.61746
G1 X93.459 Y95.018 E2.62794
G1 X93.423 Y95.352 E2.63847
G1 X93.322 Y95.671 E2.64896
G1 X93.161 Y95.965 E2.65947
G1 X92.945 Y96.222 E2.67
G1 X92.715 Y96.411 E2.67933
G1 X92.387 Y96.586 E2.69099
G1 X92.065 Y96.68 E2.70151
G1 X91.732 Y96.709 E2.71199
G1 X91.398 Y96.673 E2.72252
G1 X91.079 Y96.572 E2.73301
G1 X90.854 Y96.449 E2.74105
G1 X90.544 Y96.196 F30000
G1 E.74105 F2400
G92 E0
G1 Z.6 F30000
G1 X92.546 Y114.922
G1 Z.2
G1 E2 F2400
;TYPE:Perimeter
G1 F6000
G1 X92.496 Y114.947 E2.00175
G1 X92.102 Y115.051 E2.01453
;WIDTH:0.410739
G1 X91.696 Y115.073 E2.02697
;WIDTH:0.414169
G1 X91.29 Y115.031 E2.03957
;WIDTH:0.419999
G1 X90.901 Y114.905 E2.05239
G1 X90.44 Y114.615 E2.06947
G1 X90.135 Y114.31 E2.08299
G1 X89.845 Y113.849 E2.10007
G1 X89.699 Y113.352 E2.11631
;WIDTH:0.410732
G1 X89.677 Y112.946 E2.12875
;WIDTH:0.414164
G1 X89.719 Y112.54 E2.14135
;WIDTH:0.419999
G1 X89.845 Y112.151 E2.15417
G1 X90.048 Y111.796 E2.16699
G1 X90.315 Y111.487 E2.17979
G1 X90.638 Y111.236 E2.19262
G1 X91.007 Y111.052 E2.20555
G1 X91.438 Y110.941 E2.2195
G1 X91.805 Y110.916 E2.23103
G1 X92.211 Y110.966 E2.24386
G1 X92.606 Y111.099 E2.25693
G1 X92.952 Y111.3 E2.26948
;WIDTH:0.41315
G1 X93.258 Y111.569 E2.28202
;WIDTH:0.419999
G1 X93.514 Y111.888 E2.29484
G1 X93.697 Y112.254 E2.30767
G1 X93.805 Y112.648 E2.32048
G1 X93.823 Y113.171 E2.33689
G1 X93.784 Y113.461 E2.34606
G1 X93.655 Y113.849 E2.35888
G1 X93.452 Y114.204 E2.3717
G1 X93.185 Y114.513 E2.3845
G1 X92.862 Y114.764 E2.39733
G1 X92.6 Y114.895 E2.40651
G1 X92.6 Y114.895 F30000
G1 X92.403 Y114.578
;TYPE:External perimeter
G1 F6000
G1 X92.387 Y114.586 E2.40707
G1 X92.065 Y114.68 E2.41759
G1 X91.732 Y114.709 E2.42807
G1 X91.398 Y114.673 E2.4386
G1 X91.079 Y114.572 E2.44909
G1 X90.679 Y114.324 E2.46385
G1 X90.338 Y113.964 E2.4794
G1 X90.164 Y113.637 E2.49101
G1 X90.07 Y113.315 E2.50153
G1 X90.041 Y112.982 E2.51201
G1 X90.077 Y112.648 E2.52254
G1 X90.178 Y112.329 E2.53303
G1 X90.339 Y112.035 E2.54354
G1 X90.554 Y111.778 E2.55405
G1 X90.816 Y111.569 E2.56456
G1 X91.114 Y111.413 E2.57511
G1 X91.474 Y111.316 E2.5868
G1 X91.768 Y111.291 E2.59605
G1 X92.102 Y111.327 E2.60658
G1 X92.428 Y111.432 E2.61732
G1 X92.715 Y111.589 E2.62758
G1 X92.972 Y111.804 E2.63809
G1 X93.181 Y112.066 E2.6486
G1 X93.336 Y112.363 E2.6591
G1 X93.43 Y112.685 E2.66962
G1 X93.448 Y113.135 E2.68374
G1 X93.336 Y113.637 E2.69987
G1 X93.161 Y113.965 E2.71153
G1 X92.945 Y114.222 E2.72206
G1 X92.684 Y114.431 E2.73254
G1 X92.457 Y114.55 E2.74058
G1 X92.074 Y114.667 F30000
G1 E.74058 F2400
G92 E0
G1 Z.6 F30000
G1 X89.351 Y93.5
G1 Z.2
G1 E2 F2400
;TYPE:Perimeter
G1 F6000
G1 X89.353 Y93.369 E2.00411
G1 X89.472 Y93.035 E2.01523
G1 X89.706 Y92.775 E2.0262
G1 X90.031 Y92.62 E2.03749
G1 X90.475 Y92.587 E2.05145
G1 X91.247 Y92.585 E2.07566
;WIDTH:0.415362
G1 X91.822 Y92.575 E2.09347
;WIDTH:0.419999
G1 X118.255 Y92.585 E2.92226
;WIDTH:0.414874
G1 X118.822 Y92.576 E2.9398
;WIDTH:0.419999
G1 X127.748 Y92.585 E3.21967
;WIDTH:0.415011
G1 X128.322 Y92.576 E3.23743
;WIDTH:0.419999
G1 X129.708 Y92.588 E3.28089
G1 X130.098 Y92.659 E3.29332
G1 X130.393 Y92.856 E3.30444
G1 X130.591 Y93.152 E3.31561
G1 X130.663 Y93.548 E3.32823
G1 X130.668 Y94.63 E3.36216
;WIDTH:0.414586
G1 X130.666 Y95.426 E3.38676
;WIDTH:0.419999
G1 X130.668 Y112.63 E3.92618
;WIDTH:0.414586
G1 X130.666 Y113.426 E3.95078
;WIDTH:0.419999
G1 X130.647 Y114.634 E3.98866
G1 X130.528 Y114.965 E3.99969
G1 X130.291 Y115.227 E4.01077
