; generated by PrusaSlicer 2.6.0+win64 on 2023-11-10 at 18:12:23 UTC


;
;

;
;
; 

; external perimeters extrusion width = 0.50mm
; perimeters extrusion width = 0.50mm
; infill extrusion width = 0.50mm
; solid infill extrusion width = 0.50mm
; top infill extrusion width = 0.50mm
; support material extrusion width = 0.50mm
; first layer extrusion width = 0.80mm

M73 P0 R8
M201 X2500 Y2500 Z400 E5000 ; sets maximum accelerations, mm/sec^2
M203 X300 Y300 Z20 E80 ; sets maximum feedrates, mm / sec
M204 S1250 T2000 ; sets acceleration (S) and retract acceleration (R), mm/sec^2
M205 X8.00 Y8.00 Z2.00 E10.00 ; sets the jerk limits, mm/sec
M205 S0 T0 ; sets the minimum extruding and travel feed rate, mm/sec
;TYPE:Custom
M80 ;
G90 ; use absolute coordinates
M83 ; extruder relative mode
M140 S115 ; set bed temp
M104 S240 ; set extruder temp
M190 S115 ; wait for bed temp
M109 S240 ; wait for extruder temp
G28 ; home all without mesh bed level
G29 ;
G92 E0.0
G1 Y0 X179 F2400
G1 Z3 F720


; intro line
M73 P0 R7
G1 X170 F1000
G1 Z0.2 F720
M73 P1 R7
G1 X110 E8 F900
G1 X40 E10 F700
G92 E0

M221 S95 ; set flow
G21 ; set units to millimeters
G90 ; use absolute coordinates
M83 ; use relative distances for extrusion
; Filament gcode
M107
;LAYER_CHANGE
;Z:0.15
;HEIGHT:0.15
;BEFORE_LAYER_CHANGE
G92 E0.0
;0.15


G1 E-5 F3600
M73 P3 R7
G1 Z.4 F9000
;AFTER_LAYER_CHANGE
;0.15
G1 X119.635 Y94.046
G1 Z.15
G1 E5 F3600
;TYPE:Skirt/Brim
;WIDTH:0.8
G1 F1800
G1 X120.793 Y92.879 E.07872
G1 X122.681 Y91.436 E.11378
G1 X124.242 Y90.567 E.08555
G1 X125.897 Y89.897 E.08549
G1 X127.622 Y89.435 E.08551
G1 X129.41 Y89.187 E.08643
G1 X153.762 Y89.149 E1.16604
G1 X156.091 Y89.379 E.11206
G1 X157.258 Y89.639 E.05725
G1 X158.819 Y90.155 E.07872
G1 X160.562 Y90.978 E.0923
G1 X162.425 Y92.212 E.107
G1 X163.861 Y93.497 E.09227
G1 X164.945 Y94.733 E.07872
G1 X165.639 Y95.706 E.05723
G1 X166.775 Y97.793 E.11378
G1 X167.433 Y99.605 E.09231
G1 X167.72 Y100.764 E.05717
G1 X167.954 Y102.392 E.07875
G1 X167.999 Y104.177 E.0855
G1 X167.803 Y106.095 E.09232
G1 X167.21 Y108.396 E.11378
G1 X166.775 Y109.508 E.05717
G1 X166.025 Y110.971 E.07872
G1 X164.663 Y112.918 E.11377
G1 X163.335 Y114.315 E.09229
G1 X162.066 Y115.36 E.07871
G1 X161.072 Y116.024 E.05724
G1 X159.365 Y116.919 E.09229
G1 X157.69 Y117.539 E.08552
M73 P4 R7
G1 X155.952 Y117.948 E.08549
G1 X154.318 Y118.131 E.07873
G1 X130.656 Y118.155 E1.133
G1 X128.943 Y118.071 E.08212
G1 X127.622 Y117.866 E.06401
G1 X125.897 Y117.404 E.08551
G1 X124.242 Y116.734 E.08549
G1 X122.802 Y115.94 E.07874
G1 X120.793 Y114.423 E.12054
G1 X119.635 Y113.255 E.07875
G1 X118.459 Y111.728 E.09229
G1 X117.834 Y110.71 E.0572
G1 X117.117 Y109.23 E.07874
G1 X116.354 Y106.831 E.12054
G1 X116.084 Y105.21 E.07869
G1 X116.002 Y103.426 E.08551
G1 X116.084 Y102.091 E.06404
G1 X116.354 Y100.47 E.07869
G1 X117.117 Y98.071 E.12054
G1 X117.834 Y96.591 E.07874
G1 X118.537 Y95.454 E.06401
G1 X119.598 Y94.093 E.08263
G1 X120.195 Y94.573 F9000
G1 F1800
G1 X121.328 Y93.43 E.07706
G1 X123.186 Y92.026 E.11151
G1 X124.584 Y91.255 E.07645
G1 X126.152 Y90.621 E.08099
G1 X127.786 Y90.185 E.08098
G1 X129.48 Y89.951 E.08188
G1 X153.737 Y89.916 E1.16149
G1 X155.927 Y90.129 E.10536
G1 X157.48 Y90.501 E.07647
G1 X158.564 Y90.88 E.05499
G1 X160.178 Y91.643 E.08548
G1 X161.962 Y92.825 E.10247
G1 X163.294 Y94.014 E.08549
G1 X164.065 Y94.864 E.05495
G1 X165.013 Y96.15 E.0765
G1 X166.077 Y98.114 E.10696
G1 X166.688 Y99.792 E.08551
G1 X166.965 Y100.906 E.05497
G1 X167.192 Y102.486 E.07643
G1 X167.228 Y104.272 E.08554
G1 X166.945 Y106.488 E.10697
G1 X166.662 Y107.6 E.05494
G1 X166.114 Y109.1 E.07647
G1 X165.065 Y111.073 E.107
G1 X164.003 Y112.509 E.08552
G1 X163.228 Y113.355 E.05494
G1 X162.036 Y114.417 E.07644
G1 X160.567 Y115.433 E.08552
G1 X159.066 Y116.212 E.08097
G1 X157.48 Y116.8 E.08099
G1 X155.834 Y117.189 E.08099
G1 X154.153 Y117.373 E.08097
G1 X130.656 Y117.387 E1.1251
G1 X129.014 Y117.307 E.07872
M73 P5 R7
G1 X127.786 Y117.116 E.05951
G1 X126.152 Y116.68 E.08098
G1 X124.584 Y116.046 E.08099
G1 X123.105 Y115.225 E.081
G1 X121.739 Y114.228 E.08098
G1 X120.506 Y113.07 E.08099
G1 X119.424 Y111.77 E.08099
G1 X118.557 Y110.429 E.07646
G1 X117.584 Y108.313 E.11152
G1 X117.129 Y106.783 E.07643
G1 X116.901 Y105.562 E.05948
G1 X116.772 Y103.331 E.107
G1 X116.901 Y101.739 E.07648
G1 X117.129 Y100.518 E.05948
G1 X117.616 Y98.898 E.081
G1 X118.255 Y97.435 E.07644
G1 X119.424 Y95.531 E.10698
G1 X120.157 Y94.62 E.05599
G1 X120.739 Y95.116 F9000
G1 F1800
G1 X122.276 Y93.627 E.10247
G1 X123.155 Y92.965 E.05269
G1 X124.482 Y92.165 E.07419
G1 X125.983 Y91.495 E.07871
G1 X127.465 Y91.043 E.07419
G1 X129.598 Y90.713 E.10335
G1 X153.712 Y90.684 E1.15464
G1 X155.763 Y90.879 E.09865
G1 X156.837 Y91.116 E.05266
G1 X158.308 Y91.604 E.07421
G1 X159.794 Y92.308 E.07873
G1 X161.536 Y93.467 E.10019
G1 X162.371 Y94.184 E.0527
G1 X163.436 Y95.31 E.07421
G1 X164.412 Y96.633 E.07872
G1 X165.398 Y98.478 E.10017
G1 X165.794 Y99.505 E.0527
G1 X166.2 Y101 E.07418
G1 X166.462 Y103.077 E.10024
G1 X166.43 Y104.721 E.07873
G1 X166.211 Y106.255 E.0742
G1 X165.944 Y107.322 E.05267
G1 X165.38 Y108.866 E.07871
G1 X164.412 Y110.668 E.09795
G1 X163.436 Y111.992 E.07876
G1 X162.694 Y112.804 E.05267
G1 X161.536 Y113.834 E.07421
G1 X159.794 Y114.993 E.10019
G1 X158.767 Y115.505 E.05495
G1 X157.27 Y116.062 E.07648
G1 X155.716 Y116.43 E.07647
G1 X154.129 Y116.605 E.07645
G1 X130.656 Y116.619 E1.12395
G1 X129.084 Y116.542 E.07536
M73 P6 R7
G1 X127.511 Y116.27 E.07644
G1 X125.983 Y115.806 E.07646
G1 X124.523 Y115.159 E.07647
G1 X123.154 Y114.336 E.07648
G1 X122.239 Y113.645 E.0549
G1 X121.073 Y112.553 E.07649
G1 X120.051 Y111.327 E.07643
G1 X119.187 Y109.984 E.07646
G1 X118.316 Y108.081 E.10021
G1 X117.874 Y106.595 E.07423
G1 X117.608 Y105.021 E.07644
G1 X117.537 Y103.875 E.05498
G1 X117.603 Y102.327 E.07419
G1 X117.997 Y100.224 E.10245
G1 X118.494 Y98.756 E.07421
G1 X118.974 Y97.714 E.05493
G1 X119.791 Y96.342 E.07646
G1 X120.703 Y95.164 E.07133
G1 X121.682 Y95.949 F9000
G1 F1800
G1 X121.854 Y95.735 E.01315
G1 X122.899 Y94.726 E.06956
G1 X124.045 Y93.865 E.06864
G1 X125.265 Y93.161 E.06745
G1 X126.587 Y92.599 E.06878
G1 X128.033 Y92.188 E.07198
G1 X129.5 Y91.968 E.07103
G1 X130.948 Y91.933 E.06935
G1 X132.345 Y92.07 E.06721
G1 X133.701 Y92.369 E.06649
G1 X135.088 Y92.858 E.07042
G1 X136.534 Y93.578 E.07735
G1 X137.358 Y93.114 E.04528
G1 X138.562 Y92.607 E.06255
G1 X139.893 Y92.219 E.06638
G1 X141.361 Y91.981 E.07121
G1 X142.92 Y91.932 E.07469
G1 X144.307 Y92.064 E.06671
G1 X145.705 Y92.37 E.06852
G1 X147.039 Y92.837 E.06768
G1 X148.005 Y93.305 E.0514
G1 X148.311 Y93.138 E.01669
G1 X149.534 Y92.617 E.06365
G1 X150.958 Y92.205 E.07098
G1 X152.458 Y91.972 E.07269
G1 X153.952 Y91.933 E.07156
G1 X155.288 Y92.061 E.06426
G1 X156.627 Y92.348 E.06557
G1 X158.004 Y92.822 E.06973
G1 X159.543 Y93.598 E.08253
G1 X160.598 Y94.313 E.06102
G1 X161.56 Y95.129 E.0604
G1 X162.683 Y96.352 E.0795
G1 X163.433 Y97.411 E.06214
G1 X164.075 Y98.573 E.06357
G1 X164.642 Y99.982 E.07272
G1 X165.035 Y101.517 E.07587
G1 X165.216 Y103.055 E.07415
G1 X165.199 Y104.512 E.06977
G1 X165.028 Y105.821 E.06321
G1 X164.716 Y107.087 E.06243
G1 X164.201 Y108.456 E.07004
G1 X163.465 Y109.839 E.07502
G1 X162.547 Y111.117 E.07535
G1 X161.639 Y112.096 E.06394
G1 X160.66 Y112.941 E.06192
G1 X159.324 Y113.83 E.07684
G1 X157.972 Y114.492 E.07208
G1 X156.617 Y114.954 E.06855
G1 X155.245 Y115.247 E.06718
G1 X153.86 Y115.371 E.06658
G1 X152.446 Y115.329 E.06774
G1 X150.974 Y115.1 E.07133
G1 X149.58 Y114.7 E.06944
G1 X148.367 Y114.191 E.06299
G1 X148.008 Y113.995 E.01958
G1 X146.974 Y114.491 E.05491
G1 X145.625 Y114.952 E.06826
G1 X144.302 Y115.238 E.06481
G1 X142.865 Y115.371 E.0691
G1 X141.354 Y115.32 E.07239
G1 X139.886 Y115.08 E.07123
G1 X138.492 Y114.668 E.0696
G1 X137.264 Y114.14 E.064
G1 X136.538 Y113.723 E.04009
G1 X135.111 Y114.434 E.07634
G1 X133.705 Y114.93 E.07139
G1 X132.314 Y115.236 E.0682
G1 X130.866 Y115.371 E.06963
G1 X129.217 Y115.306 E.07902
G1 X127.856 Y115.073 E.06612
G1 X126.488 Y114.667 E.06833
G1 X125.143 Y114.079 E.07029
G1 X123.977 Y113.392 E.0648
G1 X122.946 Y112.615 E.06182
G1 X121.845 Y111.556 E.07315
G1 X120.902 Y110.38 E.07218
G1 X120.133 Y109.12 E.07068
M73 P7 R7
G1 X119.54 Y107.806 E.06903
G1 X119.123 Y106.469 E.06706
G1 X118.872 Y105.111 E.06613
G1 X118.779 Y103.612 E.07191
G1 X118.86 Y102.277 E.06404
G1 X119.091 Y100.96 E.06402
G1 X119.581 Y99.389 E.0788
G1 X120.164 Y98.125 E.06665
G1 X120.893 Y96.934 E.06686
G1 X121.645 Y95.996 E.05757
G1 X122.242 Y96.474 F9000
G1 F1800
G1 X122.406 Y96.269 E.01257
G1 X123.38 Y95.325 E.06495
G1 X124.487 Y94.493 E.06631
G1 X125.626 Y93.838 E.06291
G1 X126.863 Y93.315 E.06431
G1 X128.216 Y92.934 E.0673
G1 X129.588 Y92.731 E.06641
G1 X130.941 Y92.701 E.0648
G1 X132.245 Y92.832 E.06275
G1 X133.51 Y93.113 E.06205
G1 X134.809 Y93.573 E.06598
G1 X135.993 Y94.166 E.06341
G1 X136.488 Y94.487 E.02825
G1 X137.677 Y93.813 E.06544
G1 X138.839 Y93.324 E.06037
G1 X140.083 Y92.963 E.06202
G1 X141.457 Y92.743 E.06663
G1 X142.918 Y92.7 E.06999
G1 X144.209 Y92.826 E.06211
G1 X145.516 Y93.114 E.06408
G1 X146.762 Y93.553 E.06326
G1 X148.033 Y94.174 E.06773
G1 X148.634 Y93.835 E.03304
G1 X149.814 Y93.333 E.0614
G1 X151.102 Y92.959 E.06422
G1 X152.504 Y92.738 E.06796
G1 X153.903 Y92.7 E.06701
G1 X155.192 Y92.823 E.062
G1 X156.442 Y93.093 E.06123
G1 X157.728 Y93.539 E.06518
G1 X159.134 Y94.248 E.0754
G1 X160.118 Y94.913 E.05687
G1 X161.046 Y95.699 E.05823
G1 X162.071 Y96.816 E.07259
G1 X162.793 Y97.837 E.05988
G1 X163.39 Y98.922 E.0593
G1 X163.92 Y100.243 E.06815
G1 X164.284 Y101.68 E.07098
G1 X164.45 Y103.118 E.06931
G1 X164.435 Y104.436 E.06311
G1 X164.277 Y105.659 E.05905
G1 X163.976 Y106.882 E.06031
G1 X163.511 Y108.119 E.06328
G1 X162.825 Y109.413 E.07013
G1 X161.966 Y110.614 E.0707
G1 X161.121 Y111.529 E.05964
G1 X160.176 Y112.344 E.05975
G1 X158.964 Y113.152 E.06975
G1 X157.657 Y113.791 E.06966
G1 X156.393 Y114.22 E.06391
G1 X155.11 Y114.49 E.06278
G1 X153.816 Y114.604 E.0622
G1 X152.539 Y114.566 E.06117
G1 X151.16 Y114.355 E.0668
G1 X149.856 Y113.983 E.06493
G1 X148.686 Y113.492 E.06076
G1 X148.036 Y113.128 E.03567
G1 X146.703 Y113.773 E.07091
G1 X145.398 Y114.218 E.06602
G1 X144.164 Y114.482 E.06042
G1 X142.867 Y114.603 E.06237
G1 X141.405 Y114.553 E.07005
G1 X140.036 Y114.327 E.06644
G1 X138.734 Y113.939 E.06505
G1 X137.591 Y113.445 E.05962
G1 X136.493 Y112.809 E.06076
G1 X135.943 Y113.164 E.03134
G1 X134.833 Y113.718 E.0594
G1 X133.473 Y114.198 E.06906
G1 X132.174 Y114.481 E.06366
G1 X130.87 Y114.603 E.06271
G1 X129.321 Y114.545 E.07422
G1 X128.008 Y114.32 E.06379
G1 X126.732 Y113.938 E.06378
G1 X125.473 Y113.385 E.06584
G1 X124.421 Y112.764 E.05849
G1 X123.46 Y112.044 E.0575
G1 X122.427 Y111.055 E.06848
G1 X121.544 Y109.957 E.06747
G1 X120.822 Y108.781 E.06608
G1 X120.265 Y107.553 E.06457
G1 X119.873 Y106.304 E.06268
G1 X119.637 Y105.039 E.06162
G1 X119.547 Y103.589 E.06956
G1 X119.624 Y102.348 E.05954
G1 X119.843 Y101.12 E.05973
G1 X120.306 Y99.644 E.07407
G1 X120.851 Y98.469 E.06202
G1 X121.535 Y97.356 E.06255
G1 X122.204 Y96.521 E.05123
G1 X122.801 Y96.999 F9000
G1 F1800
G1 X122.959 Y96.803 E.01205
G1 X123.861 Y95.924 E.06031
G1 X124.929 Y95.121 E.06398
G1 X125.987 Y94.517 E.05833
G1 X127.096 Y94.047 E.05767
G1 X128.356 Y93.69 E.06271
G1 X129.632 Y93.498 E.06179
G1 X130.89 Y93.468 E.06025
G1 X132.104 Y93.587 E.05841
M73 P8 R7
G1 X133.278 Y93.845 E.05756
G1 X134.487 Y94.271 E.06138
G1 X135.628 Y94.841 E.06107
G1 X136.513 Y95.424 E.05074
G1 X136.941 Y95.114 E.0253
G1 X137.997 Y94.512 E.0582
G1 X139.116 Y94.04 E.05815
G1 X140.272 Y93.708 E.05759
G1 X141.552 Y93.505 E.06206
G1 X142.913 Y93.468 E.06519
G1 X144.109 Y93.587 E.05755
G1 X145.326 Y93.858 E.0597
G1 X146.484 Y94.269 E.05884
G1 X147.498 Y94.767 E.05409
G1 X147.994 Y95.083 E.02816
G1 X148.956 Y94.532 E.05308
G1 X150.092 Y94.049 E.05911
G1 X151.291 Y93.704 E.05974
G1 X152.552 Y93.505 E.06113
G1 X153.856 Y93.466 E.06247
G1 X155.053 Y93.579 E.05757
G1 X156.256 Y93.839 E.05893
G1 X157.451 Y94.255 E.06059
G1 X158.724 Y94.898 E.06829
G1 X159.67 Y95.537 E.05466
G1 X160.53 Y96.268 E.05405
G1 X161.459 Y97.281 E.06581
G1 X162.132 Y98.227 E.05559
G1 X162.706 Y99.271 E.05705
G1 X163.197 Y100.503 E.0635
G1 X163.533 Y101.842 E.0661
G1 X163.685 Y103.18 E.06448
G1 X163.67 Y104.36 E.05651
G1 X163.519 Y105.538 E.05687
G1 X163.236 Y106.674 E.05606
G1 X162.82 Y107.783 E.05672
G1 X162.184 Y108.99 E.06533
G1 X161.385 Y110.112 E.06595
G1 X160.572 Y110.992 E.05737
G1 X159.694 Y111.746 E.05542
G1 X158.602 Y112.474 E.06284
G1 X157.385 Y113.073 E.06495
G1 X156.21 Y113.474 E.05945
G1 X155.017 Y113.728 E.0584
G1 X153.815 Y113.836 E.05779
G1 X152.586 Y113.799 E.05887
G1 X151.302 Y113.6 E.06222
G1 X150.132 Y113.266 E.05826
G1 X149.005 Y112.794 E.05851
G1 X147.992 Y112.219 E.05577
G1 X147.468 Y112.551 E.0297
G1 X146.43 Y113.054 E.05523
G1 X145.213 Y113.473 E.06163
G1 X144.068 Y113.72 E.05609
G1 X142.866 Y113.834 E.05781
G1 X141.503 Y113.791 E.0653
G1 X140.23 Y113.583 E.06176
G1 X139.017 Y113.225 E.06056
G1 X137.917 Y112.75 E.05737
G1 X136.844 Y112.124 E.05948
G1 X136.509 Y111.879 E.01987
G1 X135.579 Y112.488 E.05323
G1 X134.512 Y113.02 E.05709
G1 X133.284 Y113.453 E.06235
G1 X132.079 Y113.718 E.05908
G1 X130.823 Y113.836 E.06041
G1 X129.423 Y113.783 E.06708
G1 X128.205 Y113.578 E.05914
G1 X126.975 Y113.21 E.06148
G1 X125.804 Y112.692 E.06131
G1 X124.863 Y112.137 E.05231
G1 X123.972 Y111.471 E.05326
G1 X123.008 Y110.552 E.06377
G1 X122.184 Y109.533 E.06275
G1 X121.511 Y108.441 E.06142
G1 X120.974 Y107.257 E.06225
G1 X120.623 Y106.139 E.05611
G1 X120.401 Y104.968 E.05707
G1 X120.315 Y103.567 E.06721
G1 X120.389 Y102.42 E.05504
G1 X120.594 Y101.28 E.05546
G1 X121.03 Y99.9 E.0693
G1 X121.537 Y98.815 E.05734
G1 X122.176 Y97.78 E.05824
G1 X122.764 Y97.046 E.04503
G1 X123.361 Y97.524 F9000
G1 F1800
G1 X123.513 Y97.335 E.01161
G1 X124.343 Y96.522 E.05563
G1 X125.371 Y95.749 E.06159
G1 X126.309 Y95.214 E.05171
G1 X127.331 Y94.779 E.05318
G1 X128.496 Y94.445 E.05803
G1 X129.677 Y94.265 E.0572
G1 X130.841 Y94.234 E.05576
G1 X131.963 Y94.342 E.05397
G1 X133.048 Y94.578 E.05317
G1 X134.166 Y94.969 E.05671
G1 X135.262 Y95.517 E.05867
G1 X136.153 Y96.109 E.05122
G1 X136.5 Y96.393 E.02147
G1 X137.342 Y95.768 E.05021
G1 X138.357 Y95.19 E.05593
G1 X139.352 Y94.771 E.0517
G1 X140.416 Y94.462 E.05305
G1 X141.646 Y94.268 E.05962
G1 X142.907 Y94.237 E.0604
G1 X144.008 Y94.349 E.05299
G1 X145.092 Y94.59 E.05317
G1 X146.166 Y94.968 E.05452
G1 X147.138 Y95.446 E.05187
G1 X148.009 Y96.008 E.04963
G1 X148.329 Y95.777 E.0189
G1 X149.279 Y95.229 E.05251
G1 X150.37 Y94.765 E.05677
G1 X151.479 Y94.449 E.05522
G1 X152.6 Y94.272 E.05434
G1 X153.81 Y94.233 E.05797
G1 X154.914 Y94.334 E.05308
G1 X156.07 Y94.584 E.05663
G1 X157.172 Y94.971 E.05593
G1 X158.316 Y95.549 E.06137
G1 X159.189 Y96.136 E.05037
M73 P9 R7
G1 X160.014 Y96.838 E.05187
G1 X160.848 Y97.747 E.05907
G1 X161.47 Y98.617 E.05121
G1 X162.022 Y99.62 E.05482
G1 X162.459 Y100.716 E.0565
G1 X162.773 Y101.956 E.06125
G1 X162.917 Y103.198 E.05987
G1 X162.906 Y104.285 E.05205
G1 X162.76 Y105.417 E.05465
G1 X162.497 Y106.465 E.05174
G1 X162.111 Y107.488 E.05236
G1 X161.518 Y108.607 E.06064
G1 X160.803 Y109.61 E.05898
G1 X160.055 Y110.424 E.05293
G1 X159.212 Y111.148 E.05321
G1 X158.199 Y111.82 E.05821
G1 X157.071 Y112.372 E.06013
G1 X155.986 Y112.739 E.05484
G1 X154.882 Y112.972 E.05403
G1 X153.772 Y113.069 E.05335
G1 X152.636 Y113.033 E.05442
G1 X151.446 Y112.845 E.05769
G1 X150.367 Y112.535 E.05376
G1 X149.326 Y112.095 E.05412
G1 X148.357 Y111.543 E.0534
G1 X148.01 Y111.292 E.02051
G1 X147.111 Y111.871 E.0512
G1 X146.116 Y112.353 E.05294
G1 X145.029 Y112.727 E.05504
G1 X143.929 Y112.965 E.05389
G1 X142.82 Y113.068 E.05333
G1 X141.555 Y113.025 E.06061
G1 X140.379 Y112.83 E.05708
G1 X139.299 Y112.511 E.05392
G1 X138.283 Y112.074 E.05296
G1 X137.253 Y111.474 E.05708
G1 X136.502 Y110.906 E.04509
G1 X136.144 Y111.2 E.02218
G1 X135.215 Y111.811 E.05324
G1 X134.19 Y112.322 E.05484
G1 X133.096 Y112.708 E.05555
G1 X131.937 Y112.963 E.05682
