; generated by PrusaSlicer 2.8.0+win64 on 2024-08-21 at 19:20:22 UTC


;
;
; 

; external perimeters extrusion width = 0.45mm
; perimeters extrusion width = 0.45mm
; infill extrusion width = 0.45mm
; solid infill extrusion width = 0.45mm
; top infill extrusion width = 0.40mm
; first layer extrusion width = 0.42mm

; external perimeters extrusion width = 0.45mm
; perimeters extrusion width = 0.45mm
; infill extrusion width = 0.45mm
; solid infill extrusion width = 0.45mm
; top infill extrusion width = 0.40mm
; first layer extrusion width = 0.42mm

;TYPE:Custom
M82 ;absolute extrusion mode
M140 S0
M104 S0 
START_PRINT EXTRUDER_TEMP=260 BED_TEMP=100
G92 E0
G92 E0
G1 F2400 E-0.5
G21 ; set units to millimeters
G90 ; use absolute coordinates
M82 ; use absolute distances for extrusion
G92 E0
; Filament gcode
M107
;LAYER_CHANGE
;Z:0.2
;HEIGHT:0.2
G1 E-2 F2400
G1 Z.6 F30000
G92 E0
G1 X106.413 Y98.087
G1 Z.2
G1 E2 F2400
G92 E0
;TYPE:Perimeter
;WIDTH:0.419999
G1 F6000
G1 X106.413 Y104.5 E.20107
G1 X106.413 Y121.913 E.74704
G1 X93.587 Y121.913 E1.14919
G1 X93.587 Y98.087 E1.89624
G1 X106.353 Y98.087 E2.29651
G1 X106.79 Y97.71 F30000
;TYPE:External perimeter
G1 F6000
G1 X106.79 Y104.5 E2.50941
G1 X106.79 Y122.29 E3.0672
G1 X93.21 Y122.29 E3.49299
G1 X93.21 Y97.71 E4.26368
G1 X106.73 Y97.71 E4.68759
G1 X106.789 Y98.106 F30000
G1 X106.3 Y98.963
;TYPE:Solid infill
;WIDTH:0.420126
G1 F6000
G1 X105.707 Y98.37 E4.71389
G1 X105.174 Y98.37 E4.73061
G1 X106.13 Y99.327 E4.77304
G1 X106.13 Y99.86 E4.78976
G1 X104.64 Y98.37 E4.85585
G1 X104.107 Y98.37 E4.87257
G1 X106.13 Y100.393 E4.9623
G1 X106.13 Y100.927 E4.97905
G1 X103.573 Y98.37 E5.09247
G1 X103.04 Y98.37 E5.10919
G1 X106.13 Y101.46 E5.24625
G1 X106.13 Y101.994 E5.263
G1 X102.506 Y98.37 E5.42375
G1 X101.973 Y98.37 E5.44047
G1 X106.13 Y102.527 E5.62486
G1 X106.13 Y103.061 E5.64161
G1 X101.439 Y98.37 E5.84969
G1 X100.906 Y98.37 E5.86641
G1 X106.13 Y103.594 E6.09813
G1 X106.13 Y104.128 E6.11488
G1 X100.372 Y98.37 E6.37028
G1 X99.839 Y98.37 E6.387
G1 X106.13 Y104.661 E6.66605
G1 X106.13 Y105.194 E6.68277
G1 X99.306 Y98.37 E6.98546
G1 X98.772 Y98.37 E7.00221
G1 X106.13 Y105.728 E7.32859
G1 X106.13 Y106.261 E7.34531
G1 X98.239 Y98.37 E7.69533
G1 X97.705 Y98.37 E7.71208
G1 X106.13 Y106.795 E8.08578
G1 X106.13 Y107.328 E8.1025
G1 X97.172 Y98.37 E8.49985
G1 X96.638 Y98.37 E8.5166
G1 X106.13 Y107.862 E8.93763
G1 X106.13 Y108.395 E8.95435
G1 X96.105 Y98.37 E9.39902
G1 X95.571 Y98.37 E9.41577
G1 X106.13 Y108.929 E9.88413
G1 X106.13 Y109.462 E9.90085
G1 X95.038 Y98.37 E10.39285
G1 X94.505 Y98.37 E10.40957
G1 X106.13 Y109.995 E10.92521
G1 X106.13 Y110.529 E10.94196
G1 X93.971 Y98.37 E11.48129
G1 X93.87 Y98.37 E11.48446
G1 X93.87 Y98.802 E11.49801
G1 X106.13 Y111.062 E12.04182
G1 X106.13 Y111.596 E12.05857
G1 X93.87 Y99.336 E12.60238
G1 X93.87 Y99.869 E12.6191
G1 X106.13 Y112.129 E13.16291
G1 X106.13 Y112.663 E13.17966
G1 X93.87 Y100.403 E13.72347
G1 X93.87 Y100.936 E13.74019
G1 X106.13 Y113.196 E14.284
G1 X106.13 Y113.73 E14.30075
G1 X93.87 Y101.469 E14.84458
G1 X93.87 Y102.003 E14.86133
G1 X106.13 Y114.263 E15.40514
G1 X106.13 Y114.797 E15.42189
G1 X93.87 Y102.536 E15.96572
G1 X93.87 Y103.07 E15.98247
G1 X106.13 Y115.33 E16.52628
G1 X106.13 Y115.863 E16.543
G1 X93.87 Y103.603 E17.08681
G1 X93.87 Y104.137 E17.10356
G1 X106.13 Y116.397 E17.64737
G1 X106.13 Y116.93 E17.66409
G1 X93.87 Y104.67 E18.2079
G1 X93.87 Y105.204 E18.22465
G1 X106.13 Y117.464 E18.76846
G1 X106.13 Y117.997 E18.78518
G1 X93.87 Y105.737 E19.32899
G1 X93.87 Y106.27 E19.34571
G1 X106.13 Y118.531 E19.88954
G1 X106.13 Y119.064 E19.90626
G1 X93.87 Y106.804 E20.45007
G1 X93.87 Y107.337 E20.46679
G1 X106.13 Y119.598 E21.01062
G1 X106.13 Y120.131 E21.02734
G1 X93.87 Y107.871 E21.57115
G1 X93.87 Y108.404 E21.58787
G1 X106.13 Y120.664 E22.13168
G1 X106.13 Y121.198 E22.14843
G1 X93.87 Y108.938 E22.69224
G1 X93.87 Y109.471 E22.70896
G1 X106.029 Y121.63 E23.24829
G1 X105.495 Y121.63 E23.26504
G1 X93.87 Y110.005 E23.78068
G1 X93.87 Y110.538 E23.7974
G1 X104.962 Y121.63 E24.2894
G1 X104.428 Y121.63 E24.30615
G1 X93.87 Y111.072 E24.77447
G1 X93.87 Y111.605 E24.79119
G1 X103.895 Y121.63 E25.23586
G1 X103.362 Y121.63 E25.25258
G1 X93.87 Y112.138 E25.67361
G1 X93.87 Y112.672 E25.69036
G1 X102.828 Y121.63 E26.08771
G1 X102.295 Y121.63 E26.10443
G1 X93.87 Y113.205 E26.47813
G1 X93.87 Y113.739 E26.49488
G1 X101.761 Y121.63 E26.8449
G1 X101.228 Y121.63 E26.86162
G1 X93.87 Y114.272 E27.188
G1 X93.87 Y114.806 E27.20475
G1 X100.694 Y121.63 E27.50744
G1 X100.161 Y121.63 E27.52416
G1 X93.87 Y115.339 E27.80321
G1 X93.87 Y115.873 E27.81996
G1 X99.627 Y121.63 E28.07532
G1 X99.094 Y121.63 E28.09204
G1 X93.87 Y116.406 E28.32376
G1 X93.87 Y116.939 E28.34048
G1 X98.561 Y121.63 E28.54856
G1 X98.027 Y121.63 E28.56531
G1 X93.87 Y117.473 E28.7497
G1 X93.87 Y118.006 E28.76642
G1 X97.494 Y121.63 E28.92717
G1 X96.96 Y121.63 E28.94392
G1 X93.87 Y118.54 E29.08098
G1 X93.87 Y119.073 E29.0977
G1 X96.427 Y121.63 E29.21112
G1 X95.893 Y121.63 E29.22787
G1 X93.87 Y119.607 E29.3176
G1 X93.87 Y120.14 E29.33432
G1 X95.36 Y121.63 E29.40041
G1 X94.826 Y121.63 E29.41716
G1 X93.87 Y120.674 E29.45956
G1 X93.87 Y121.207 E29.47628
G1 X94.463 Y121.8 E29.50258
G1 E27.50258 F2400
G92 E0
G1 X94.463 Y121.8 Z.6 F30000
G92 E0
G1 X126.413 Y121.913
G1 Z.2
G1 E2 F2400
;TYPE:Perimeter
;WIDTH:0.419999
G1 F6000
G1 X113.587 Y121.913 E2.40215
G1 X113.587 Y98.087 E3.1492
G1 X126.413 Y98.087 E3.55135
G1 X126.413 Y104.5 E3.75242
G1 X126.413 Y121.853 E4.29651
G1 X126.79 Y122.29 F30000
;TYPE:External perimeter
G1 F6000
G1 X113.21 Y122.29 E4.7223
G1 X113.21 Y97.71 E5.49299
G1 X126.79 Y97.71 E5.91878
G1 X126.79 Y104.5 E6.13168
G1 X126.79 Y122.23 E6.68759
G1 X126.394 Y122.289 F30000
G1 E4.68759 F2400
G92 E0
G1 Z.6 F30000
G1 X126.3 Y98.963
G1 Z.2
G1 E2 F2400
;TYPE:Solid infill
;WIDTH:0.420126
G1 F6000
G1 X125.707 Y98.37 E2.0263
G1 X125.173 Y98.37 E2.04305
G1 X126.13 Y99.327 E2.0855
G1 X126.13 Y99.86 E2.10222
G1 X124.64 Y98.37 E2.16831
G1 X124.107 Y98.37 E2.18503
G1 X126.13 Y100.393 E2.27476
G1 X126.13 Y100.927 E2.29151
G1 X123.573 Y98.37 E2.40493
G1 X123.04 Y98.37 E2.42165
G1 X126.13 Y101.46 E2.55871
G1 X126.13 Y101.994 E2.57546
G1 X122.506 Y98.37 E2.73621
G1 X121.973 Y98.37 E2.75293
G1 X126.13 Y102.527 E2.93732
G1 X126.13 Y103.061 E2.95407
G1 X121.439 Y98.37 E3.16215
G1 X120.906 Y98.37 E3.17887
G1 X126.13 Y103.594 E3.41059
G1 X126.13 Y104.128 E3.42734
G1 X120.372 Y98.37 E3.68274
G1 X119.839 Y98.37 E3.69946
G1 X126.13 Y104.661 E3.97851
G1 X126.13 Y105.194 E3.99523
G1 X119.306 Y98.37 E4.29792
G1 X118.772 Y98.37 E4.31467
G1 X126.13 Y105.728 E4.64105
G1 X126.13 Y106.261 E4.65777
G1 X118.239 Y98.37 E5.00779
G1 X117.705 Y98.37 E5.02454
G1 X126.13 Y106.795 E5.39824
G1 X126.13 Y107.328 E5.41496
G1 X117.172 Y98.37 E5.81231
G1 X116.638 Y98.37 E5.82906
G1 X126.13 Y107.862 E6.25009
G1 X126.13 Y108.395 E6.26681
G1 X116.105 Y98.37 E6.71148
G1 X115.571 Y98.37 E6.72823
G1 X126.13 Y108.929 E7.19659
G1 X126.13 Y109.462 E7.21331
G1 X115.038 Y98.37 E7.70531
G1 X114.504 Y98.37 E7.72206
G1 X126.13 Y109.996 E8.23775
G1 X126.13 Y110.529 E8.25447
G1 X113.971 Y98.37 E8.7938
G1 X113.87 Y98.37 E8.79697
G1 X113.87 Y98.802 E8.81052
G1 X126.13 Y111.062 E9.35433
G1 X126.13 Y111.596 E9.37108
G1 X113.87 Y99.336 E9.91489
G1 X113.87 Y99.869 E9.93161
G1 X126.13 Y112.129 E10.47542
G1 X126.13 Y112.663 E10.49217
G1 X113.87 Y100.403 E11.03598
G1 X113.87 Y100.936 E11.0527
G1 X126.13 Y113.196 E11.59651
G1 X126.13 Y113.73 E11.61326
G1 X113.87 Y101.469 E12.15709
G1 X113.87 Y102.003 E12.17384
G1 X126.13 Y114.263 E12.71765
G1 X126.13 Y114.797 E12.7344
G1 X113.87 Y102.536 E13.27823
G1 X113.87 Y103.07 E13.29498
G1 X126.13 Y115.33 E13.83879
G1 X126.13 Y115.863 E13.85551
G1 X113.87 Y103.603 E14.39932
G1 X113.87 Y104.137 E14.41607
G1 X126.13 Y116.397 E14.95988
G1 X126.13 Y116.93 E14.9766
G1 X113.87 Y104.67 E15.52041
G1 X113.87 Y105.204 E15.53716
G1 X126.13 Y117.464 E16.08097
G1 X126.13 Y117.997 E16.09769
G1 X113.87 Y105.737 E16.6415
G1 X113.87 Y106.27 E16.65822
G1 X126.13 Y118.531 E17.20205
G1 X126.13 Y119.064 E17.21877
G1 X113.87 Y106.804 E17.76258
G1 X113.87 Y107.337 E17.7793
G1 X126.13 Y119.598 E18.32313
G1 X126.13 Y120.131 E18.33985
G1 X113.87 Y107.871 E18.88366
G1 X113.87 Y108.404 E18.90038
G1 X126.13 Y120.665 E19.44421
G1 X126.13 Y121.198 E19.46093
G1 X113.87 Y108.938 E20.00474
G1 X113.87 Y109.471 E20.02146
G1 X126.029 Y121.63 E20.56079
G1 X125.495 Y121.63 E20.57754
G1 X113.87 Y110.005 E21.09318
G1 X113.87 Y110.538 E21.1099
G1 X124.962 Y121.63 E21.6019
G1 X124.428 Y121.63 E21.61865
G1 X113.87 Y111.072 E22.08697
G1 X113.87 Y111.605 E22.10369
G1 X123.895 Y121.63 E22.54836
G1 X123.362 Y121.63 E22.56508
G1 X113.87 Y112.138 E22.98611
G1 X113.87 Y112.672 E23.00286
G1 X122.828 Y121.63 E23.40021
G1 X122.295 Y121.63 E23.41693
G1 X113.87 Y113.205 E23.79063
G1 X113.87 Y113.739 E23.80738
G1 X121.761 Y121.63 E24.1574
G1 X121.228 Y121.63 E24.17412
G1 X113.87 Y114.272 E24.5005
G1 X113.87 Y114.806 E24.51725
G1 X120.694 Y121.63 E24.81994
G1 X120.161 Y121.63 E24.83666
G1 X113.87 Y115.339 E25.11571
G1 X113.87 Y115.873 E25.13246
G1 X119.627 Y121.63 E25.38782
G1 X119.094 Y121.63 E25.40454
G1 X113.87 Y116.406 E25.63626
G1 X113.87 Y116.939 E25.65298
G1 X118.561 Y121.63 E25.86106
G1 X118.027 Y121.63 E25.87781
G1 X113.87 Y117.473 E26.0622
G1 X113.87 Y118.006 E26.07892
G1 X117.494 Y121.63 E26.23967
G1 X116.96 Y121.63 E26.25642
G1 X113.87 Y118.54 E26.39348
G1 X113.87 Y119.073 E26.4102
G1 X116.427 Y121.63 E26.52362
G1 X115.893 Y121.63 E26.54037
G1 X113.87 Y119.607 E26.6301
G1 X113.87 Y120.14 E26.64682
G1 X115.36 Y121.63 E26.71291
G1 X114.826 Y121.63 E26.72966
G1 X113.87 Y120.674 E26.77206
G1 X113.87 Y121.207 E26.78878
G1 X114.463 Y121.8 E26.81508
;LAYER_CHANGE
;Z:0.4
;HEIGHT:0.2
G1 Z.4 F30000
M140 S100 ; set bed temperature
G1 E24.81508 F2400
G92 E0
G1 X114.463 Y121.8 Z.8 F30000
G92 E0
G1 X106.368 Y98.132
G1 Z.4
G1 E2 F2400
G92 E0
;TYPE:Perimeter
;WIDTH:0.449999
G1 F16398
G1 X106.368 Y104.5 E.21555
G1 X106.368 Y121.868 E.80344
G1 X93.632 Y121.868 E1.23454
G1 X93.632 Y98.132 E2.03797
G1 X106.308 Y98.132 E2.46704
G1 X106.775 Y97.725 F30000
;TYPE:External perimeter
G1 F15600
G1 X106.775 Y104.5 E2.69637
G1 X106.775 Y122.275 E3.29803
G1 X93.225 Y122.275 E3.75668
G1 X93.225 Y97.725 E4.58767
G1 X106.715 Y97.725 E5.04429
G1 X106.774 Y98.121 F30000
G1 E3.04429 F2400
G92 E0
G1 Z.8 F30000
G1 X94.048 Y98.47
G1 Z.4
G1 E2 F2400
;TYPE:Solid infill
;WIDTH:0.548766
G1 F16398
G1 X94.003 Y98.426 E2.00265
G1 X93.942 Y98.442 E2.0053
G1 X93.926 Y98.503 E2.00795
G1 X93.97 Y98.548 E2.0106
G1 X94.031 Y98.531 E2.01326
;WIDTH:0.449999
G1 X93.937 Y99.182 E2.03552
G1 X94.682 Y98.437 E2.07118
G1 X94.775 Y98.366 E2.07514
;WIDTH:0.41646
G1 X94.868 Y98.294 E2.07879
;WIDTH:0.38292
G1 X94.827 Y98.305 E2.07999
G1 X94.808 Y98.234 E2.08207
G1 X94.879 Y98.253 E2.08415
;WIDTH:0.449999
G1 X95.257 Y98.437 E2.09838
G1 X93.937 Y99.757 E2.16157
G1 X93.937 Y100.333 E2.18107
G1 X95.833 Y98.437 E2.27183
G1 X96.409 Y98.437 E2.29133
G1 X93.937 Y100.909 E2.40966
G1 X93.937 Y101.484 E2.42912
G1 X96.984 Y98.437 E2.57498
G1 X97.56 Y98.437 E2.59448
G1 X93.937 Y102.06 E2.76791
G1 X93.937 Y102.636 E2.78741
G1 X98.136 Y98.437 E2.98841
G1 X98.712 Y98.437 E3.00791
G1 X93.937 Y103.212 E3.23649
G1 X93.937 Y103.787 E3.25595
G1 X99.287 Y98.437 E3.51205
G1 X99.863 Y98.437 E3.53155
G1 X93.937 Y104.363 E3.81522
G1 X93.937 Y104.939 E3.83472
G1 X100.439 Y98.437 E4.14597
G1 X101.014 Y98.437 E4.16543
G1 X93.937 Y105.514 E4.5042
G1 X93.937 Y106.09 E4.5237
G1 X101.59 Y98.437 E4.89004
G1 X102.166 Y98.437 E4.90954
G1 X93.937 Y106.666 E5.30346
G1 X93.937 Y107.241 E5.32292
G1 X102.741 Y98.437 E5.74436
G1 X103.317 Y98.437 E5.76386
G1 X93.937 Y107.817 E6.21287
G1 X93.937 Y108.393 E6.23237
G1 X103.893 Y98.437 E6.70896
G1 X104.469 Y98.437 E6.72846
G1 X93.937 Y108.969 E7.23262
G1 X93.937 Y109.544 E7.25208
G1 X105.044 Y98.437 E7.78377
G1 X105.62 Y98.437 E7.80327
G1 X93.937 Y110.12 E8.36253
G1 X93.937 Y110.696 E8.38203
G1 X106.063 Y98.57 E8.96249
G1 X106.135 Y98.462 E8.96688
;WIDTH:0.41646
G1 X106.206 Y98.354 E8.97089
;WIDTH:0.38292
G1 X106.165 Y98.365 E8.97209
G1 X106.146 Y98.294 E8.97417
G1 X106.217 Y98.313 E8.97625
G1 X106.217 Y98.313 F30000
G1 X106.063 Y99.146
;WIDTH:0.449999
G1 F16398
G1 X93.937 Y111.271 E9.55669
G1 X93.937 Y111.847 E9.57619
G1 X106.063 Y99.722 E10.15663
G1 X106.063 Y100.298 E10.17613
G1 X93.937 Y112.423 E10.75657
G1 X93.937 Y112.998 E10.77603
G1 X106.063 Y100.873 E11.35647
G1 X106.063 Y101.449 E11.37597
G1 X93.937 Y113.574 E11.95641
G1 X93.937 Y114.15 E11.97591
G1 X106.063 Y102.025 E12.55635
G1 X106.063 Y102.6 E12.57581
G1 X93.937 Y114.726 E13.15627
G1 X93.937 Y115.301 E13.17573
G1 X106.063 Y103.176 E13.75617
G1 X106.063 Y103.752 E13.77567
G1 X93.937 Y115.877 E14.35611
G1 X93.937 Y116.453 E14.37561
G1 X106.063 Y104.327 E14.95607
G1 X106.063 Y104.903 E14.97557
G1 X93.937 Y117.028 E15.55601
G1 X93.937 Y117.604 E15.57551
G1 X106.063 Y105.479 E16.15595
G1 X106.063 Y106.054 E16.17541
G1 X93.937 Y118.18 E16.75587
G1 X93.937 Y118.755 E16.77533
G1 X106.063 Y106.63 E17.35577
G1 X106.063 Y107.206 E17.37527
G1 X93.937 Y119.331 E17.95571
G1 X93.937 Y119.907 E17.97521
G1 X106.063 Y107.782 E18.55565
G1 X106.063 Y108.357 E18.57511
G1 X93.937 Y120.482 E19.15555
G1 X93.937 Y121.058 E19.17505
G1 X106.063 Y108.933 E19.75549
G1 X106.063 Y109.509 E19.77499
G1 X94.009 Y121.563 E20.35201
G1 X93.897 Y121.531 E20.35595
;WIDTH:0.41646
G1 X93.784 Y121.499 E20.3596
;WIDTH:0.38292
G1 X93.799 Y121.701 E20.36533
;WIDTH:0.449999
G1 X94.584 Y121.563 E20.39231
G1 X106.063 Y110.084 E20.9418
G1 X106.063 Y110.66 E20.9613
G1 X95.16 Y121.563 E21.48322
G1 X95.736 Y121.563 E21.50272
G1 X106.063 Y111.236 E21.99707
G1 X106.063 Y111.811 E22.01653
G1 X96.311 Y121.563 E22.48335
G1 X96.887 Y121.563 E22.50285
G1 X106.063 Y112.387 E22.9421
G1 X106.063 Y112.963 E22.9616
G1 X97.463 Y121.563 E23.37328
G1 X98.039 Y121.563 E23.39278
G1 X106.063 Y113.539 E23.77688
G1 X106.063 Y114.114 E23.79634
G1 X98.614 Y121.563 E24.15292
G1 X99.19 Y121.563 E24.17242
G1 X106.063 Y114.69 E24.50143
G1 X106.063 Y115.266 E24.52093
G1 X99.766 Y121.563 E24.82236
G1 X100.341 Y121.563 E24.84182
G1 X106.063 Y115.841 E25.11573
G1 X106.063 Y116.417 E25.13523
G1 X100.917 Y121.563 E25.38157
G1 X101.493 Y121.563 E25.40107
G1 X106.063 Y116.993 E25.61983
G1 X106.063 Y117.568 E25.63929
G1 X102.068 Y121.563 E25.83053
G1 X102.644 Y121.563 E25.85003
G1 X106.063 Y118.144 E26.0137
G1 X106.063 Y118.72 E26.0332
G1 X103.22 Y121.563 E26.16929
G1 X103.795 Y121.563 E26.18875
G1 X106.063 Y119.295 E26.29732
G1 X106.063 Y119.871 E26.31682
G1 X104.371 Y121.563 E26.39781
G1 X104.947 Y121.563 E26.41731
G1 X106.063 Y120.447 E26.47073
G1 X106.277 Y120.855 E26.48632
;WIDTH:0.38292
G1 X106.206 Y120.836 E26.4884
G1 X106.225 Y120.907 E26.49048
G1 X106.266 Y120.896 E26.49168
;WIDTH:0.41646
G1 X106.165 Y120.959 E26.49538
;WIDTH:0.449999
G1 X106.063 Y121.023 E26.49946
G1 X105.523 Y121.563 E26.52531
G1 E24.52531 F2400
G92 E0
G1 X105.523 Y121.563 Z.8 F30000
G92 E0
G1 X126.368 Y121.868
G1 Z.4
G1 E2 F2400
;TYPE:Perimeter
G1 F16398
G1 X113.632 Y121.868 E2.4311
G1 X113.632 Y98.132 E3.23453
G1 X126.368 Y98.132 E3.66563
G1 X126.368 Y104.5 E3.88118
G1 X126.368 Y121.808 E4.46703
G1 X126.775 Y122.275 F30000
;TYPE:External perimeter
G1 F15600
G1 X113.225 Y122.275 E4.92568
G1 X113.225 Y97.725 E5.75667
G1 X126.775 Y97.725 E6.21532
G1 X126.775 Y104.5 E6.44465
G1 X126.775 Y122.215 E7.04428
G1 X126.379 Y122.274 F30000
G1 E5.04428 F2400
G92 E0
G1 Z.8 F30000
G1 X114.048 Y98.47
G1 Z.4
G1 E2 F2400
;TYPE:Solid infill
;WIDTH:0.548766
G1 F16398
G1 X114.003 Y98.426 E2.00265
G1 X113.942 Y98.442 E2.0053
G1 X113.926 Y98.503 E2.00795
G1 X113.97 Y98.548 E2.0106
G1 X114.031 Y98.531 E2.01326
;WIDTH:0.449999
G1 X113.937 Y99.182 E2.03552
G1 X114.682 Y98.437 E2.07118
G1 X114.775 Y98.366 E2.07514
;WIDTH:0.41646
G1 X114.868 Y98.294 E2.07879
;WIDTH:0.38292
G1 X114.827 Y98.305 E2.07999
G1 X114.808 Y98.234 E2.08207
G1 X114.879 Y98.253 E2.08415
;WIDTH:0.449999
G1 X115.257 Y98.437 E2.09838
G1 X113.937 Y99.757 E2.16157
G1 X113.937 Y100.333 E2.18107
