; generated by PrusaSlicer 2.8.0+win64 on 2024-08-19 at 19:48:37 UTC


;
;
; 

; external perimeters extrusion width = 0.45mm
; perimeters extrusion width = 0.45mm
; infill extrusion width = 0.45mm
; solid infill extrusion width = 0.45mm
; top infill extrusion width = 0.40mm
; support material extrusion width = 0.35mm
; first layer extrusion width = 0.42mm

;TYPE:Custom
M82 ;absolute extrusion mode
M140 S0
M104 S0 
START_PRINT EXTRUDER_TEMP=260 BED_TEMP=100
G92 E0
G92 E0
G1 F2400 E-0.5
G21 ; set units to millimeters
G90 ; use absolute coordinates
M82 ; use absolute distances for extrusion
G92 E0
; Filament gcode
M107
;LAYER_CHANGE
;Z:0.2
;HEIGHT:0.2
G1 E-2 F2400
G1 Z.6 F30000
G92 E0
G1 X111.858 Y110.318
G1 Z.2
G1 E2 F2400
G92 E0
;TYPE:Perimeter
;WIDTH:0.419999
G1 F600
G1 X111.764 Y110.73 E.01325
G1 X111.539 Y111.132 E.02769
G1 X111.254 Y111.435 E.04073
G1 X110.731 Y111.763 E.06009
G1 X110.279 Y111.889 E.0748
G1 X109.871 Y111.901 E.0876
G1 X109.27 Y111.764 E.10693
G1 X108.868 Y111.539 E.12137
G1 X108.565 Y111.254 E.13441
G1 X108.346 Y110.926 E.14678
G1 X108.145 Y110.457 E.16278
G1 X108.102 Y109.845 E.18202
G1 X108.236 Y109.27 E.20053
G1 X108.461 Y108.868 E.21497
G1 X108.746 Y108.565 E.22801
G1 X109.269 Y108.236 E.24738
G1 X109.572 Y108.151 E.25725
G1 X109.997 Y108.09 E.27071
G1 X110.588 Y108.188 E.28949
G1 X111.132 Y108.461 E.30857
G1 X111.435 Y108.746 E.32161
G1 X111.764 Y109.269 E.34098
G1 X111.888 Y109.712 E.3554
G1 X111.901 Y110.128 E.36845
G1 X111.871 Y110.26 E.37269
G1 X111.871 Y110.26 F30000
G1 X112.258 Y110.366
;TYPE:External perimeter
G1 F600
G1 X112.115 Y110.875 E.38927
G1 X111.983 Y111.11 E.39772
G1 X111.721 Y111.499 E.41243
G1 X111.348 Y111.85 E.42849
G1 X110.876 Y112.114 E.44545
G1 X110.615 Y112.187 E.45395
G1 X110.154 Y112.277 E.46868
G1 X109.646 Y112.261 E.48462
G1 X109.125 Y112.115 E.50158
G1 X108.824 Y111.947 E.51239
G1 X108.381 Y111.619 E.52967
G1 X108.054 Y111.176 E.54693
G1 X107.829 Y110.705 E.5633
G1 X107.732 Y110.179 E.58007
G1 X107.74 Y109.636 E.5971
G1 X107.885 Y109.125 E.61375
G1 X108.016 Y108.892 E.62213
G1 X108.279 Y108.501 E.6369
G1 X108.652 Y108.15 E.65296
G1 X109.124 Y107.886 E.66992
G1 X109.645 Y107.739 E.68689
G1 X110.183 Y107.733 E.70376
G1 X110.705 Y107.829 E.7204
G1 X111.109 Y108.016 E.73436
G1 X111.499 Y108.279 E.74911
G1 X111.85 Y108.652 E.76517
G1 X112.114 Y109.124 E.78213
G1 X112.261 Y109.645 E.7991
G1 X112.277 Y110.157 E.81516
G1 X112.265 Y110.306 E.81985
G1 X112.165 Y110.694 F30000
G1 E-1.18015 F2400
G92 E0
G1 Z.6 F30000
G1 X110.591 Y108.308
G1 Z.2
G1 E2 F2400
;TYPE:Solid infill
;WIDTH:0.446596
G1 F600
G1 X111.306 Y109.031 E2.03413
G1 X111.5 Y109.378 E2.04747
G1 X111.609 Y109.762 E2.06087
G1 X111.62 Y109.908 E2.06578
G1 X110.1 Y108.387 E2.13796
G1 X109.991 Y108.374 E2.14164
G1 X109.761 Y108.392 E2.14938
G1 X109.583 Y108.442 E2.15559
G1 X111.558 Y110.417 E2.24934
G1 X111.501 Y110.621 E2.25645
G1 X111.39 Y110.819 E2.26407
G1 X109.181 Y108.61 E2.36893
G1 X109.031 Y108.694 E2.3747
G1 X108.849 Y108.849 E2.38272
G1 X111.151 Y111.151 E2.49199
G1 X110.969 Y111.306 E2.50001
G1 X110.819 Y111.39 E2.50578
G1 X108.61 Y109.181 E2.61064
G1 X108.499 Y109.379 E2.61826
G1 X108.441 Y109.583 E2.62538
G1 X110.416 Y111.558 E2.71913
G1 X110.23 Y111.61 E2.72561
G1 X109.907 Y111.62 E2.73646
G1 X108.388 Y110.1 E2.80859
G1 X108.423 Y110.396 E2.81859
G1 X108.491 Y110.607 E2.82603
G1 X108.694 Y110.969 E2.83996
G1 X109.399 Y111.683 E2.87364
;LAYER_CHANGE
;Z:0.4
;HEIGHT:0.2
G1 Z.4 F30000
M140 S100 ; set bed temperature
G1 E.87364 F2400
G92 E0
G1 X109.399 Y111.683 Z.8 F30000
G1 X111.812 Y110.313
G1 Z.4
G1 E2 F2400
G92 E0
;TYPE:Perimeter
;WIDTH:0.449999
G1 F600
G1 X111.769 Y110.575 E.00899
G1 X111.508 Y111.095 E.02868
G1 X111.359 Y111.257 E.03613
G1 X110.975 Y111.591 E.05336
G1 X110.503 Y111.781 E.07058
G1 X110.012 Y111.865 E.08744
G1 X109.425 Y111.769 E.10757
G1 X108.907 Y111.509 E.12719
G1 X108.739 Y111.352 E.13497
G1 X108.409 Y110.976 E.1519
G1 X108.189 Y110.447 E.17129
G1 X108.149 Y109.838 E.19195
G1 X108.277 Y109.288 E.21106
G1 X108.498 Y108.894 E.22635
G1 X108.793 Y108.587 E.24076
G1 X109.286 Y108.279 E.26044
G1 X109.87 Y108.146 E.28071
G1 X110.446 Y108.189 E.30026
G1 X110.986 Y108.418 E.32011
G1 X111.422 Y108.804 E.33982
G1 X111.721 Y109.285 E.35899
G1 X111.854 Y109.854 E.37877
G1 X111.865 Y109.988 E.38332
G1 X111.822 Y110.254 E.39244
G1 X111.822 Y110.254 F30000
G1 X112.23 Y110.363
;TYPE:External perimeter
G1 F600
G1 X112.102 Y110.867 E.41004
G1 X111.84 Y111.336 E.42822
G1 X111.607 Y111.587 E.43981
G1 X111.188 Y111.939 E.45833
G1 X110.685 Y112.153 E.47683
G1 X110.178 Y112.26 E.49437
G1 X109.639 Y112.231 E.51264
G1 X109.133 Y112.102 E.53032
G1 X108.665 Y111.84 E.54847
G1 X108.251 Y111.452 E.56768
G1 X107.97 Y111.01 E.58541
G1 X107.79 Y110.535 E.6026
G1 X107.726 Y109.997 E.62094
G1 X107.759 Y109.621 E.63372
G1 X107.899 Y109.131 E.65097
G1 X108.026 Y108.904 E.65977
G1 X108.287 Y108.515 E.67563
G1 X108.683 Y108.147 E.69393
G1 X109.13 Y107.9 E.71122
G1 X109.647 Y107.754 E.7294
G1 X110.206 Y107.749 E.74832
G1 X110.714 Y107.848 E.76584
G1 X111.208 Y108.075 E.78424
G1 X111.61 Y108.394 E.80161
G1 X111.853 Y108.683 E.81439
G1 X112.1 Y109.129 E.83165
G1 X112.171 Y109.38 E.84048
G1 X112.26 Y109.822 E.85574
G1 X112.234 Y110.303 E.87205
G1 X112.145 Y110.693 F30000
G1 E-1.12795 F2400
G92 E0
G1 Z.8 F30000
G1 X109.764 Y108.461
G1 Z.4
G1 E2 F2400
;TYPE:Solid infill
G1 F600
G1 X110.37 Y108.487 E2.02053
G1 X110.825 Y108.68 E2.03726
G1 X111.188 Y109 E2.05364
G1 X111.437 Y109.402 E2.06965
G1 X111.55 Y109.878 E2.08621
G1 X111.511 Y110.381 E2.10329
G1 X111.351 Y110.751 E2.11693
G1 X111.142 Y111.042 E2.12906
G1 X111.004 Y111.191 E2.13593
G1 X110.605 Y111.435 E2.15176
G1 X110.408 Y111.491 E2.15869
G1 X110.018 Y111.558 E2.17208
G1 X109.52 Y111.479 E2.18915
G1 X109.089 Y111.261 E2.2055
G1 X108.795 Y110.985 E2.21915
G1 X108.618 Y110.691 E2.23077
G1 X108.489 Y110.381 E2.24214
G1 X108.453 Y109.865 E2.25965
G1 X108.561 Y109.406 E2.27561
G1 X108.745 Y109.078 E2.28834
G1 X109.096 Y108.733 E2.305
G1 X109.403 Y108.563 E2.31688
G1 X109.568 Y108.516 E2.32269
G1 X109.63 Y108.936 E2.33706
G1 X109.459 Y108.997 E2.34321
G1 X109.179 Y109.222 E2.35537
G1 X108.999 Y109.458 E2.36542
G1 X108.865 Y109.825 E2.37864
G1 X108.888 Y110.294 E2.39453
G1 X109.114 Y110.727 E2.41106
G1 X109.449 Y110.996 E2.4256
G1 X109.707 Y111.112 E2.43518
G1 X110.154 Y111.139 E2.45034
G1 X110.44 Y111.058 E2.4604
G1 X110.743 Y110.873 E2.47242
G1 X110.843 Y110.765 E2.4774
G1 X111.072 Y110.416 E2.49153
G1 X111.149 Y109.974 E2.50672
G1 X111.058 Y109.558 E2.52113
G1 X110.825 Y109.2 E2.53559
G1 X110.485 Y108.978 E2.54933
G1 X110.158 Y108.871 E2.56098
G1 X109.822 Y108.868 E2.57235
G1 X109.861 Y109.301 E2.58707
G1 X109.715 Y109.321 E2.59206
G1 X109.464 Y109.513 E2.60276
G1 X109.318 Y109.722 E2.61139
G1 X109.265 Y110.011 E2.62134
G1 X109.315 Y110.271 E2.6303
G1 X109.511 Y110.54 E2.64157
G1 X109.794 Y110.712 E2.65278
G1 X110.106 Y110.73 E2.66336
G1 X110.406 Y110.602 E2.6744
G1 X110.544 Y110.489 E2.68044
G1 X110.712 Y110.206 E2.69158
G1 X110.73 Y109.894 E2.70216
G1 X110.589 Y109.553 E2.71465
G1 X110.405 Y109.386 E2.72306
G1 X110.063 Y109.273 E2.73525
G1 X110.043 Y109.737 E2.75097
;WIDTH:0.563684
G1 X110.225 Y109.852 E2.76029
G1 X110.266 Y110.028 E2.76812
G1 X110.203 Y110.174 E2.77501
G1 X110.021 Y110.272 E2.78396
G1 X109.874 Y110.236 E2.79051
G1 X109.74 Y110.077 E2.79951
G1 X109.74 Y109.932 E2.80579
G1 X109.849 Y109.787 E2.81364
;LAYER_CHANGE
;Z:0.6
;HEIGHT:0.2
G1 Z.6 F30000
G1 E.81364 F2400
G92 E0
G1 X109.849 Y109.787 Z1 F30000
G1 X111.811 Y110.313
G1 Z.6
G1 E2 F2400
G92 E0
;TYPE:Perimeter
;WIDTH:0.449999
G1 F600
G1 X111.765 Y110.588 E.00944
G1 X111.573 Y111 E.02483
G1 X111.211 Y111.412 E.04339
G1 X110.713 Y111.722 E.06325
G1 X110.146 Y111.854 E.08296
G1 X109.553 Y111.811 E.10309
G1 X109.144 Y111.648 E.11799
G1 X108.684 Y111.32 E.13711
G1 X108.411 Y110.974 E.15203
G1 X108.223 Y110.565 E.16727
G1 X108.135 Y110.016 E.18609
G1 X108.236 Y109.405 E.20705
G1 X108.492 Y108.905 E.22606
G1 X108.638 Y108.747 E.23334
G1 X109.015 Y108.416 E.25032
G1 X109.579 Y108.188 E.27091
G1 X110.031 Y108.137 E.28631
G1 X110.571 Y108.23 E.30486
G1 X111.106 Y108.498 E.32511
G1 X111.4 Y108.775 E.33878
G1 X111.722 Y109.287 E.35925
G1 X111.854 Y109.854 E.37896
G1 X111.865 Y109.988 E.38351
G1 X111.821 Y110.254 E.39264
G1 X111.821 Y110.254 F30000
G1 X112.231 Y110.363
;TYPE:External perimeter
G1 F600
G1 X112.21 Y110.534 E.39847
G1 X112.009 Y111.046 E.41709
G1 X111.713 Y111.476 E.43476
G1 X111.34 Y111.837 E.45233
G1 X110.87 Y112.101 E.47058
G1 X110.352 Y112.247 E.4888
G1 X109.831 Y112.254 E.50644
G1 X109.286 Y112.152 E.52521
G1 X108.776 Y111.915 E.54425
G1 X108.393 Y111.608 E.56086
G1 X108.062 Y111.188 E.57896
G1 X107.951 Y110.947 E.58794
G1 X107.789 Y110.503 E.60394
G1 X107.726 Y110.005 E.62093
G1 X107.783 Y109.57 E.63578
G1 X107.897 Y109.134 E.65103
G1 X108.16 Y108.664 E.66926
G1 X108.526 Y108.268 E.68751
G1 X108.967 Y107.99 E.70516
G1 X109.484 Y107.792 E.7239
G1 X110.043 Y107.728 E.74295
G1 X110.697 Y107.843 E.76543
G1 X111.095 Y108.026 E.78026
G1 X111.489 Y108.29 E.79631
G1 X111.837 Y108.66 E.8135
G1 X112.101 Y109.13 E.83175
G1 X112.173 Y109.387 E.84078
G1 X112.26 Y109.822 E.8558
G1 X112.274 Y109.996 E.86171
G1 X112.238 Y110.303 E.87217
G1 X112.141 Y110.691 F30000
G1 E-1.12783 F2400
G92 E0
G1 Z1 F30000
G1 X108.443 Y110.015
G1 Z.6
G1 E2 F2400
;TYPE:Solid infill
G1 F600
G1 X108.5 Y109.58 E2.01485
G1 X108.741 Y109.086 E2.03346
G1 X109.086 Y108.742 E2.04995
G1 X109.527 Y108.516 E2.06672
G1 X110.029 Y108.444 E2.08389
G1 X110.477 Y108.52 E2.09927
G1 X110.923 Y108.746 E2.11619
G1 X111.254 Y109.077 E2.13203
G1 X111.438 Y109.404 E2.14473
G1 X111.55 Y109.878 E2.16122
G1 X111.512 Y110.371 E2.17796
G1 X111.311 Y110.838 E2.19517
G1 X111.013 Y111.18 E2.21052
G1 X110.596 Y111.438 E2.22712
G1 X110.122 Y111.55 E2.24361
G1 X109.629 Y111.512 E2.26035
G1 X109.327 Y111.382 E2.27148
G1 X109.021 Y111.199 E2.28355
G1 X108.673 Y110.813 E2.30114
G1 X108.516 Y110.472 E2.31385
G1 X108.475 Y110.216 E2.32263
G1 X108.886 Y110.211 E2.33654
G1 X108.909 Y110.353 E2.34141
G1 X109.126 Y110.731 E2.35616
G1 X109.373 Y110.959 E2.36754
G1 X109.735 Y111.115 E2.38088
G1 X110.154 Y111.139 E2.39509
G1 X110.553 Y110.995 E2.40945
G1 X110.798 Y110.828 E2.41949
G1 X111.012 Y110.504 E2.43263
G1 X111.115 Y110.265 E2.44144
G1 X111.139 Y109.846 E2.45565
G1 X110.998 Y109.452 E2.46981
G1 X110.779 Y109.177 E2.48171
G1 X110.475 Y108.961 E2.49433
G1 X110.224 Y108.879 E2.50327
G1 X109.877 Y108.877 E2.51502
G1 X109.643 Y108.911 E2.52302
G1 X109.273 Y109.109 E2.53722
G1 X109.009 Y109.441 E2.55158
G1 X108.893 Y109.715 E2.56165
G1 X108.854 Y110.01 E2.57172
G1 X109.287 Y110.139 E2.58701
G1 X109.297 Y109.767 E2.59961
G1 X109.404 Y109.567 E2.60729
G1 X109.606 Y109.376 E2.6167
G1 X109.935 Y109.28 E2.6283
G1 X110.225 Y109.294 E2.63813
G1 X110.491 Y109.465 E2.64883
G1 X110.68 Y109.718 E2.65952
G1 X110.738 Y109.99 E2.66893
G1 X110.653 Y110.307 E2.68004
G1 X110.484 Y110.561 E2.69037
G1 X110.18 Y110.709 E2.70181
G1 X109.933 Y110.728 E2.7102
G1 X109.585 Y110.607 E2.72267
G1 X109.372 Y110.385 E2.73308
G1 X109.354 Y110.332 E2.73497
G1 X109.778 Y110.147 E2.75063
;WIDTH:0.561036
G1 X109.94 Y110.256 E2.75904
G1 X110.104 Y110.25 E2.76611
G1 X110.213 Y110.16 E2.7722
G1 X110.273 Y109.979 E2.78042
G1 X110.164 Y109.792 E2.78974
G1 X110.025 Y109.735 E2.79621
G1 X109.839 Y109.778 E2.80443
G1 X109.739 Y109.95 E2.813
M106 S255
;LAYER_CHANGE
;Z:0.8
;HEIGHT:0.2
G1 Z.8 F30000
G1 E.813 F2400
G92 E0
G1 X109.739 Y109.95 Z1.2 F30000
G1 X111.811 Y110.313
G1 Z.8
G1 E2 F2400
G92 E0
;TYPE:Perimeter
;WIDTH:0.449999
G1 F600
G1 X111.766 Y110.586 E.00937
G1 X111.563 Y111.014 E.0254
G1 X111.182 Y111.432 E.04454
G1 X110.717 Y111.721 E.06307
G1 X110.146 Y111.854 E.08292
G1 X109.553 Y111.811 E.10305
G1 X109.175 Y111.667 E.11674
G1 X108.682 Y111.318 E.13719
G1 X108.549 Y111.149 E.14447
G1 X108.284 Y110.729 E.16128
G1 X108.149 Y110.22 E.1791
G1 X108.168 Y109.661 E.19803
G1 X108.36 Y109.129 E.21717
G1 X108.676 Y108.688 E.23553
G1 X109.078 Y108.382 E.25263
G1 X109.432 Y108.223 E.26577
G1 X109.88 Y108.147 E.28115
G1 X110.444 Y108.188 E.30029
G1 X110.825 Y108.333 E.31409
G1 X111.318 Y108.682 E.33454
G1 X111.453 Y108.854 E.34194
G1 X111.718 Y109.275 E.35878
G1 X111.854 Y109.854 E.37891
G1 X111.865 Y109.988 E.38346
G1 X111.821 Y110.254 E.39259
G1 X111.821 Y110.254 F30000
G1 X112.218 Y110.361
;TYPE:External perimeter
G1 F600
G1 X112.153 Y110.711 E.40464
G1 X111.905 Y111.239 E.42439
G1 X111.608 Y111.608 E.44042
G1 X111.285 Y111.874 E.45458
G1 X110.871 Y112.1 E.47055
G1 X110.178 Y112.26 E.49462
G1 X109.736 Y112.242 E.50959
G1 X109.279 Y112.15 E.52537
G1 X108.815 Y111.941 E.5426
G1 X108.392 Y111.608 E.56082
G1 X107.983 Y111.036 E.58462
G1 X107.855 Y110.701 E.59676
G1 X107.735 Y110.136 E.61631
G1 X107.766 Y109.584 E.63502
G1 X107.899 Y109.129 E.65107
G1 X108.095 Y108.761 E.66518
G1 X108.39 Y108.395 E.68109
G1 X108.869 Y108.03 E.70147
G1 X109.3 Y107.836 E.71747
G1 X109.813 Y107.744 E.73511
G1 X110.266 Y107.755 E.75045
G1 X110.721 Y107.85 E.76618
G1 X111.185 Y108.059 E.78341
G1 X111.608 Y108.392 E.80163
G1 X111.941 Y108.815 E.81985
G1 X112.147 Y109.294 E.8375
G1 X112.26 Y109.822 E.85578
G1 X112.254 Y110.169 E.86753
G1 X112.229 Y110.302 E.87211
G1 X112.146 Y110.694 F30000
G1 E-1.12789 F2400
G92 E0
G1 Z1.2 F30000
G1 X110.178 Y108.463
G1 Z.8
G1 E2 F2400
;TYPE:Solid infill
G1 F600
G1 X110.605 Y108.563 E2.01484
G1 X110.962 Y108.791 E2.02918
G1 X111.209 Y109.038 E2.041
G1 X111.433 Y109.387 E2.05504
G1 X111.55 Y109.878 E2.07213
G1 X111.511 Y110.381 E2.08921
G1 X111.307 Y110.845 E2.10637
G1 X110.987 Y111.196 E2.12245
G1 X110.6 Y111.436 E2.13786
G1 X110.122 Y111.55 E2.15449
G1 X109.627 Y111.512 E2.17129
G1 X109.195 Y111.333 E2.18712
G1 X108.9 Y111.1 E2.19984
G1 X108.618 Y110.713 E2.21605
G1 X108.454 Y110.18 E2.23493
G1 X108.471 Y109.713 E2.25075
G1 X108.63 Y109.273 E2.26659
G1 X108.891 Y108.909 E2.28175
G1 X109.236 Y108.646 E2.29643
G1 X109.624 Y108.491 E2.31057
G1 X109.975 Y108.473 E2.32247
G1 X109.993 Y108.87 E2.33592
G1 X110.464 Y108.948 E2.35208
G1 X110.71 Y109.11 E2.36205
G1 X110.994 Y109.422 E2.37633
G1 X111.139 Y109.846 E2.3915
G1 X111.112 Y110.293 E2.40666
G1 X110.966 Y110.62 E2.41878
G1 X110.728 Y110.882 E2.43076
G1 X110.572 Y110.988 E2.43714
G1 X110.216 Y111.122 E2.45002
G1 X109.962 Y111.142 E2.45864
G1 X109.593 Y111.057 E2.47146
G1 X109.288 Y110.888 E2.48326
G1 X109.006 Y110.578 E2.49745
G1 X108.863 Y110.134 E2.51324
G1 X108.876 Y109.779 E2.52526
G1 X109.034 Y109.38 E2.53979
G1 X109.311 Y109.1 E2.55312
G1 X109.663 Y108.901 E2.56681
G1 X109.79 Y108.889 E2.57113
G1 X109.79 Y109.294 E2.58484
G1 X109.463 Y109.496 E2.59785
G1 X109.303 Y109.766 E2.60847
G1 X109.272 Y110.088 E2.61942
G1 X109.361 Y110.371 E2.62946
G1 X109.61 Y110.624 E2.64148
G1 X109.926 Y110.728 E2.65274
G1 X110.106 Y110.73 E2.65883
G1 X110.426 Y110.604 E2.67047
G1 X110.47 Y110.568 E2.67239
G1 X110.676 Y110.298 E2.68389
G1 X110.738 Y109.942 E2.69612
G1 X110.634 Y109.623 E2.70748
G1 X110.358 Y109.351 E2.7206
G1 X109.993 Y109.277 E2.73321
G1 X109.893 Y109.752 E2.74964
;WIDTH:0.564125
G1 X110.134 Y109.766 E2.7601
G1 X110.243 Y109.876 E2.76681
G1 X110.261 Y110.066 E2.77508
G1 X110.174 Y110.21 E2.78237
G1 X110.078 Y110.255 E2.78696
G1 X109.91 Y110.245 E2.79425
G1 X109.764 Y110.132 E2.80225
;WIDTH:0.563591
G1 X109.751 Y109.897 E2.81244
;LAYER_CHANGE
;Z:1
;HEIGHT:0.2
G1 Z1 F30000
G1 E.81244 F2400
G92 E0
G1 X109.751 Y109.897 Z1.4 F30000
G1 X111.812 Y110.313
G1 Z1
G1 E2 F2400
G92 E0
;TYPE:Perimeter
;WIDTH:0.449999
G1 F600
G1 X111.769 Y110.575 E.00899
G1 X111.508 Y111.095 E.02868
G1 X111.357 Y111.259 E.03623
G1 X110.975 Y111.591 E.05336
G1 X110.506 Y111.78 E.07048
G1 X110.012 Y111.865 E.08745
G1 X109.435 Y111.772 E.10723
G1 X109.032 Y111.57 E.12249
G1 X108.699 Y111.322 E.13654
G1 X108.409 Y110.975 E.15185
G1 X108.22 Y110.523 E.16843
G1 X108.137 Y110.011 E.18599
G1 X108.207 Y109.503 E.20335
G1 X108.416 Y109.02 E.22116
G1 X108.682 Y108.682 E.23572
G1 X109.026 Y108.411 E.25054
G1 X109.22 Y108.322 E.25776
G1 X109.701 Y108.159 E.27495
