; generated by PrusaSlicer 2.8.0+win64 on 2024-09-20 at 19:40:40 UTC


;
;
; 

; external perimeters extrusion width = 0.45mm
; perimeters extrusion width = 0.45mm
; infill extrusion width = 0.45mm
; solid infill extrusion width = 0.45mm
; top infill extrusion width = 0.40mm
; support material extrusion width = 0.35mm
; first layer extrusion width = 0.42mm

;TYPE:Custom
M82 ;absolute extrusion mode
M140 S0
M104 S0 
START_PRINT EXTRUDER_TEMP=260 BED_TEMP=100
G92 E0
G92 E0
G1 F2400 E-0.5
G21 ; set units to millimeters
G90 ; use absolute coordinates
M82 ; use absolute distances for extrusion
G92 E0
; Filament gcode
M107
;LAYER_CHANGE
;Z:0.2
;HEIGHT:0.2
G1 E-2 F2400
G1 Z.6 F30000
G92 E0
G1 X126.089 Y95.32
G1 Z.2
G1 E2 F2400
G92 E0
;TYPE:Support material
;WIDTH:0.42
G1 F6000
G1 X127.458 Y95.943 E.04716
G1 X128.114 Y96.585 E.07594
G1 X128.748 Y97.478 E.11028
G1 X129.107 Y98.222 E.13618
G1 X129.237 Y99.022 E.16159
G1 X129.237 Y105.629 E.36875
G1 X128.268 Y106.2 E.40401
G1 X128.268 Y114.103 E.6518
G1 X129.238 Y114.598 E.68594
G1 X129.237 Y120.996 E.88654
G1 X129.039 Y121.859 E.9143
G1 X128.524 Y122.875 E.95001
G1 X127.952 Y123.66 E.98046
G1 X126.567 Y124.527 E1.03169
G1 X126.026 Y124.646 E1.04906
G1 X125.554 Y124.729 E1.06409
G1 X114.046 Y124.736 E1.42492
G1 X113.888 Y122.726 E1.48814
G1 X115.79 Y122.729 E1.54778
G1 X116.066 Y122.606 E1.55725
G1 X116.519 Y122.102 E1.5785
G1 X116.699 Y121.727 E1.59154
G1 X116.71 Y116.11 E1.76766
G1 X116.294 Y115.694 E1.78611
G1 X116.072 Y115.694 E1.79307
G1 X115.625 Y115.507 E1.80826
G1 X113.791 Y115.475 E1.86577
G1 X113.769 Y113.466 E1.92876
G1 X119.127 Y113.471 E2.09676
G1 X119.388 Y112.966 E2.11458
G1 X120.233 Y112.367 E2.14706
G1 X120.233 Y107.797 E2.29035
G1 X118.765 Y106.889 E2.34447
G1 X118.765 Y106.539 E2.35544
G1 X113.866 Y106.55 E2.50905
G1 X113.803 Y104.524 E2.5726
G1 X115.662 Y104.523 E2.63089
G1 X115.926 Y104.411 E2.63988
G1 X116.471 Y103.852 E2.66436
G1 X116.681 Y103.404 E2.67987
G1 X116.708 Y98.095 E2.84633
G1 X116.582 Y97.817 E2.8559
G1 X116.409 Y97.664 E2.86314
G1 X115.684 Y97.323 E2.88826
G1 X113.852 Y97.281 E2.94572
G1 X113.852 Y95.268 E3.00884
G1 X125.125 Y95.256 E3.3623
G1 X126.033 Y95.317 E3.39083
G1 X126.033 Y95.317 F30000
G1 X128.854 Y121.848
G1 F6000
G1 X128.854 Y114.784 E3.61232
G1 X128.435 Y114.57 E3.62707
G1 X128.435 Y122.3 E3.86944
G1 X128.016 Y122.996 E3.89491
G1 X128.016 Y97.034 E4.70893
G1 X127.597 Y96.554 E4.72891
G1 X127.597 Y123.482 E5.57322
G1 X127.178 Y123.745 E5.58873
G1 X127.178 Y96.19 E6.4527
G1 X126.759 Y96.002 E6.4671
G1 X126.759 Y124.007 E7.34518
G1 X126.34 Y124.229 E7.36005
G1 X126.34 Y95.809 E8.25114
G1 X125.921 Y95.649 E8.2652
G1 X125.921 Y124.32 E9.16416
G1 X125.502 Y124.39 E9.17748
G1 X125.502 Y95.621 E10.07951
G1 X125.083 Y95.595 E10.09267
G1 X125.083 Y124.39 E10.99552
G1 X124.664 Y124.391 E11.00866
G1 X124.664 Y95.595 E11.91154
G1 X124.245 Y95.596 E11.92468
G1 X124.245 Y124.392 E12.82756
G1 X123.826 Y124.392 E12.8407
G1 X123.826 Y95.596 E13.74358
G1 X123.407 Y95.596 E13.75672
G1 X123.407 Y124.393 E14.65963
G1 X122.988 Y124.393 E14.67277
G1 X122.988 Y95.596 E15.57568
G1 X122.569 Y95.596 E15.58882
G1 X122.569 Y124.394 E16.49176
G1 X122.15 Y124.394 E16.5049
G1 X122.15 Y95.596 E17.40784
G1 X121.731 Y95.596 E17.42098
G1 X121.731 Y124.395 E18.32395
G1 X121.312 Y124.395 E18.33709
G1 X121.312 Y95.597 E19.24003
G1 X120.893 Y95.597 E19.25317
G1 X120.893 Y124.396 E20.15614
G1 X120.474 Y124.396 E20.16928
G1 X120.474 Y95.598 E21.07222
G1 X120.055 Y95.599 E21.08536
G1 X120.055 Y107.288 E21.45186
G1 X119.636 Y107.029 E21.4673
G1 X119.636 Y95.599 E21.82568
G1 X119.217 Y95.6 E21.83882
G1 X119.217 Y106.77 E22.18905
G1 X119.104 Y106.7 E22.19322
G1 X119.104 Y106.199 E22.20893
G1 X118.799 Y106.199 E22.21849
G1 X118.799 Y95.6 E22.55081
G1 X118.38 Y95.601 E22.56395
G1 X118.38 Y106.2 E22.89627
G1 X117.961 Y106.201 E22.90941
G1 X117.961 Y95.601 E23.24177
G1 X117.542 Y95.602 E23.25491
G1 X117.542 Y106.202 E23.58727
G1 X117.123 Y106.203 E23.60041
G1 X117.123 Y95.603 E23.93277
G1 X116.704 Y95.603 E23.94591
G1 X116.704 Y97.472 E24.00451
G1 X116.285 Y97.219 E24.01986
G1 X116.285 Y95.604 E24.0705
G1 X115.866 Y95.604 E24.08364
G1 X115.866 Y97.033 E24.12845
G1 X115.447 Y96.953 E24.14182
G1 X115.447 Y95.605 E24.18409
G1 X115.028 Y95.606 E24.19723
G1 X115.028 Y96.952 E24.23943
G1 X114.609 Y96.948 E24.25257
G1 X114.609 Y95.436 E24.29998
G1 X114.609 Y95.436 F30000
G1 X128.854 Y105.658
G1 F6000
G1 X128.854 Y98.781 E24.5156
G1 X128.78 Y98.325 E24.53008
G1 X128.435 Y97.624 E24.55458
G1 X128.435 Y105.904 E24.81419
G1 X128.435 Y105.904 F30000
G1 X120.055 Y124.566
G1 F6000
G1 X120.055 Y112.909 E25.17969
G1 X119.636 Y113.224 E25.19613
G1 X119.636 Y124.397 E25.54645
G1 X119.217 Y124.397 E25.55959
G1 X119.217 Y113.81 E25.89154
G1 X118.799 Y113.812 E25.90465
G1 X118.799 Y124.397 E26.23654
G1 X118.38 Y124.397 E26.24968
G1 X118.38 Y113.813 E26.58153
G1 X117.961 Y113.814 E26.59467
G1 X117.961 Y124.397 E26.92649
G1 X117.542 Y124.397 E26.93963
G1 X117.542 Y113.813 E27.27148
G1 X117.123 Y113.812 E27.28462
G1 X117.123 Y124.397 E27.61651
G1 X116.704 Y124.397 E27.62965
G1 X116.704 Y122.405 E27.69211
G1 X116.285 Y122.871 E27.71176
G1 X116.285 Y124.397 E27.75961
G1 X115.866 Y124.397 E27.77275
G1 X115.866 Y123.067 E27.81445
G1 X115.447 Y123.068 E27.82759
G1 X115.447 Y124.397 E27.86926
G1 X115.028 Y124.397 E27.8824
G1 X115.028 Y123.068 E27.92407
G1 X114.609 Y123.067 E27.93721
G1 X114.609 Y124.567 E27.98424
G1 E25.98424 F2400
G92 E0
G1 X114.609 Y124.567 Z.6 F30000
G1 X116.704 Y115.864
G1 Z.2
G1 E2 F2400
G1 F6000
G1 X116.704 Y113.811 E2.06437
G1 X116.285 Y113.81 E2.07751
G1 X116.285 Y115.355 E2.12595
G1 X116.138 Y115.355 E2.13056
G1 X115.866 Y115.243 E2.13978
G1 X115.866 Y113.809 E2.18474
G1 X115.447 Y113.809 E2.19788
G1 X115.447 Y115.136 E2.23949
G1 X115.028 Y115.136 E2.25263
G1 X115.028 Y113.808 E2.29427
G1 X114.609 Y113.807 E2.30741
G1 X114.609 Y115.136 E2.34908
G1 X114.19 Y115.136 E2.36222
G1 X114.19 Y113.636 E2.40925
G1 E.40925 F2400
G92 E0
G1 X114.19 Y113.636 Z.6 F30000
G1 X116.704 Y106.373
G1 Z.2
G1 E2 F2400
G1 F6000
G1 X116.704 Y104.1 E2.07127
G1 X116.285 Y104.529 E2.09007
G1 X116.285 Y106.205 E2.14262
G1 X115.866 Y106.206 E2.15576
G1 X115.866 Y104.805 E2.19969
G1 X115.447 Y104.862 E2.21295
G1 X115.447 Y106.207 E2.25512
G1 X115.028 Y106.208 E2.26826
G1 X115.028 Y104.863 E2.31043
G1 X114.609 Y104.863 E2.32357
G1 X114.609 Y106.209 E2.36577
G1 X114.195 Y106.209 E2.37875
G1 X114.19 Y104.693 E2.42628
G1 E.42628 F2400
G92 E0
G1 X114.19 Y104.693 Z.6 F30000
G1 X106.325 Y97.276
G1 Z.2
G1 E2 F2400
G1 F6000
G1 X104.167 Y97.278 E2.06766
G1 X103.851 Y97.45 E2.07894
G1 X103.434 Y98.102 E2.10321
G1 X103.294 Y98.508 E2.11668
G1 X103.294 Y103.947 E2.28722
G1 X103.811 Y104.373 E2.30822
G1 X103.977 Y104.341 E2.31352
G1 X104.454 Y104.51 E2.32939
G1 X106.288 Y104.529 E2.3869
G1 X106.446 Y106.792 E2.45803
G1 X103.168 Y106.533 E2.56113
G1 X101.263 Y106.533 E2.62086
G1 X101.263 Y113.464 E2.83818
G1 X106.262 Y113.468 E2.99492
G1 X106.246 Y115.472 E3.05776
G1 X104.134 Y115.47 E3.12398
G1 X103.837 Y115.616 E3.13436
G1 X103.418 Y116.172 E3.15619
G1 X103.28 Y116.544 E3.16863
G1 X103.294 Y121.937 E3.33772
G1 X103.464 Y122.252 E3.34894
G1 X104.413 Y122.706 E3.38192
G1 X106.183 Y122.729 E3.43742
G1 X106.214 Y124.74 E3.50048
G1 X94.414 Y124.727 E3.87046
G1 X93.382 Y124.516 E3.90349
G1 X91.854 Y123.494 E3.96113
G1 X90.927 Y121.974 E4.01695
G1 X90.767 Y121.028 E4.04703
G1 X90.78 Y98.897 E4.74093
G1 X91.058 Y97.778 E4.77708
G1 X92.018 Y96.354 E4.83093
G1 X93.504 Y95.429 E4.88581
G1 X94.466 Y95.267 E4.9164
G1 X102.904 Y95.264 E5.18097
G1 X106.714 Y94.713 E5.30167
G1 X106.334 Y97.22 E5.38117
G1 X106.334 Y97.22 F30000
G1 X106.229 Y96.777
G1 F6000
G1 X106.229 Y95.126 E5.43294
G1 X105.81 Y95.187 E5.44622
G1 X105.81 Y96.937 E5.50109
G1 X105.391 Y96.938 E5.51423
G1 X105.391 Y95.247 E5.56725
G1 X104.972 Y95.308 E5.58053
G1 X104.972 Y96.938 E5.63164
G1 X104.553 Y96.938 E5.64478
G1 X104.553 Y95.368 E5.69401
G1 X104.134 Y95.429 E5.70729
G1 X104.134 Y96.938 E5.7546
G1 X103.715 Y97.137 E5.76914
G1 X103.715 Y95.49 E5.82078
G1 X103.296 Y95.55 E5.83405
G1 X103.296 Y97.681 E5.90087
G1 X102.955 Y98.475 E5.92796
G1 X102.955 Y104.107 E6.10455
G1 X103.296 Y104.389 E6.11842
G1 X103.296 Y106.203 E6.1753
G1 X102.877 Y106.194 E6.18844
G1 X102.877 Y95.604 E6.52048
G1 X102.458 Y95.604 E6.53362
G1 X102.458 Y106.194 E6.86566
G1 X102.039 Y106.194 E6.8788
G1 X102.039 Y95.604 E7.21084
G1 X101.62 Y95.604 E7.22398
G1 X101.62 Y106.194 E7.55602
G1 X101.201 Y106.194 E7.56916
G1 X101.201 Y95.604 E7.9012
G1 X100.783 Y95.605 E7.91431
G1 X100.783 Y124.392 E8.81691
G1 X101.201 Y124.393 E8.83002
G1 X101.201 Y113.804 E9.16203
G1 X101.62 Y113.804 E9.17517
G1 X101.62 Y124.393 E9.50718
G1 X102.039 Y124.394 E9.52032
G1 X102.039 Y113.804 E9.85236
G1 X102.458 Y113.804 E9.8655
G1 X102.458 Y124.395 E10.19757
G1 X102.877 Y124.395 E10.21071
G1 X102.877 Y113.805 E10.54275
G1 X103.296 Y113.805 E10.55589
G1 X103.296 Y115.762 E10.61725
G1 X103.715 Y115.298 E10.63685
G1 X103.715 Y113.805 E10.68366
G1 X104.134 Y113.806 E10.6968
G1 X104.134 Y115.131 E10.73834
G1 X104.553 Y115.131 E10.75148
G1 X104.553 Y113.806 E10.79302
G1 X104.972 Y113.806 E10.80616
G1 X104.972 Y115.131 E10.8477
G1 X105.391 Y115.132 E10.86084
G1 X105.391 Y113.806 E10.90242
G1 X105.81 Y113.807 E10.91556
G1 X105.81 Y115.302 E10.96243
G1 E8.96243 F2400
G92 E0
G1 X105.81 Y115.302 Z.6 F30000
G1 X105.81 Y124.57
G1 Z.2
G1 E2 F2400
G1 F6000
G1 X105.81 Y123.069 E2.04706
G1 X105.391 Y123.069 E2.0602
G1 X105.391 Y124.4 E2.10193
G1 X104.972 Y124.399 E2.11507
G1 X104.972 Y123.07 E2.15674
G1 X104.553 Y123.07 E2.16988
G1 X104.553 Y124.398 E2.21152
G1 X104.134 Y124.398 E2.22466
G1 X104.134 Y122.96 E2.26975
G1 X103.715 Y122.793 E2.28389
G1 X103.715 Y124.397 E2.33418
G1 X103.296 Y124.396 E2.34732
G1 X103.296 Y122.299 E2.41307
G1 E.41307 F2400
G92 E0
G1 X103.296 Y122.299 Z.6 F30000
G1 X105.81 Y106.571
G1 Z.2
G1 E2 F2400
G1 F6000
G1 X105.81 Y104.869 E2.05337
G1 X105.391 Y104.869 E2.06651
G1 X105.391 Y106.368 E2.11351
G1 X104.972 Y106.335 E2.12669
G1 X104.972 Y104.869 E2.17266
G1 X104.553 Y104.87 E2.1858
G1 X104.553 Y106.302 E2.2307
G1 X104.134 Y106.269 E2.24388
G1 X104.134 Y104.757 E2.29129
G1 X103.951 Y104.692 E2.29738
G1 X103.715 Y104.734 E2.3049
G1 X103.715 Y106.406 E2.35732
G1 E.35732 F2400
G92 E0
G1 X103.715 Y106.406 Z.6 F30000
G1 X100.364 Y124.561
G1 Z.2
G1 E2 F2400
G1 F6000
G1 X100.364 Y95.605 E2.9079
G1 X99.945 Y95.605 E2.92104
G1 X99.945 Y124.391 E3.8236
G1 X99.526 Y124.39 E3.83674
G1 X99.526 Y95.605 E4.73927
G1 X99.107 Y95.605 E4.75241
G1 X99.107 Y124.389 E5.65491
G1 X98.688 Y124.389 E5.66805
G1 X98.688 Y95.606 E6.57052
G1 X98.269 Y95.606 E6.58366
G1 X98.269 Y124.388 E7.4861
G1 X97.85 Y124.388 E7.49924
G1 X97.85 Y95.606 E8.40168
G1 X97.431 Y95.606 E8.41482
G1 X97.431 Y124.388 E9.31726
G1 X97.012 Y124.388 E9.3304
G1 X97.012 Y95.606 E10.23284
G1 X96.593 Y95.606 E10.24598
G1 X96.593 Y124.388 E11.14842
G1 X96.174 Y124.388 E11.16156
G1 X96.174 Y95.606 E12.064
G1 X95.755 Y95.606 E12.07714
G1 X95.755 Y124.388 E12.97958
G1 X95.336 Y124.388 E12.99272
G1 X95.336 Y95.606 E13.89516
G1 X94.917 Y95.606 E13.9083
G1 X94.917 Y124.387 E14.81071
G1 X94.498 Y124.387 E14.82385
G1 X94.498 Y95.606 E15.72626
G1 X94.079 Y95.676 E15.73958
G1 X94.079 Y124.318 E16.63763
G1 X93.66 Y124.229 E16.65106
G1 X93.66 Y95.747 E17.54409
G1 X93.241 Y95.992 E17.55931
G1 X93.241 Y124.013 E18.43789
G1 X92.822 Y123.733 E18.45369
G1 X92.822 Y96.253 E19.31531
G1 X92.403 Y96.514 E19.33079
G1 X92.403 Y123.453 E20.17544
G1 X92.105 Y123.254 E20.18668
G1 X91.984 Y123.055 E20.19398
G1 X91.984 Y97.003 E21.01082
G1 X91.565 Y97.613 E21.03402
G1 X91.565 Y122.368 E21.8102
G1 X91.251 Y121.853 E21.82911
G1 X91.146 Y121.232 E21.84886
G1 X91.146 Y98.063 E22.57531
G1 E20.57531 F2400
G92 E0
G1 X91.146 Y98.063 Z.6 F30000
G1 X104.599 Y116.778
G1 Z.2
G1 E2 F2400
;TYPE:Perimeter
;WIDTH:0.419999
G1 F6000
G1 X104.604 Y116.768 E2.00035
G1 X115.256 Y116.773 E2.33434
G1 X115.414 Y116.825 E2.33956
G1 X115.43 Y121.337 E2.48103
G1 X115.377 Y121.432 E2.48444
G1 X104.757 Y121.434 E2.81742
G1 X104.59 Y121.38 E2.82292
G1 X104.578 Y116.834 E2.96546
G1 X104.578 Y116.834 F30000
G1 X104.405 Y116.394
;TYPE:External perimeter
G1 F6000
G1 X104.407 Y116.391 E2.96557
G1 X115.362 Y116.396 E3.30906
G1 X115.79 Y116.571 E3.32356
G1 X115.807 Y121.474 E3.47729
G1 X115.546 Y121.809 E3.49061
G1 X104.653 Y121.811 E3.83215
G1 X104.214 Y121.636 E3.84697
G1 X104.2 Y116.686 E4.00217
G1 X104.37 Y116.443 E4.01147
G1 X104.767 Y116.395 F30000
G1 E2.01147 F2400
G92 E0
G1 Z.6 F30000
G1 X115.304 Y117.66
G1 Z.2
G1 E2 F2400
;TYPE:Solid infill
;WIDTH:0.424466
G1 F6000
G1 X114.699 Y117.055 E2.02714
G1 X114.159 Y117.055 E2.04427
G1 X115.136 Y118.032 E2.0881
G1 X115.137 Y118.573 E2.10526
G1 X113.619 Y117.055 E2.17337
G1 X113.079 Y117.055 E2.1905
G1 X115.139 Y119.114 E2.2829
G1 X115.141 Y119.656 E2.3001
G1 X112.539 Y117.054 E2.41684
G1 X112 Y117.054 E2.43394
G1 X115.143 Y120.197 E2.57496
G1 X115.145 Y120.739 E2.59216
G1 X111.46 Y117.054 E2.75749
G1 X110.92 Y117.053 E2.77462
G1 X115.016 Y121.149 E2.95839
G1 X114.476 Y121.149 E2.97552
G1 X110.38 Y117.053 E3.15929
G1 X109.84 Y117.053 E3.17642
G1 X113.937 Y121.15 E3.36024
G1 X113.397 Y121.15 E3.37737
G1 X109.3 Y117.053 E3.56119
G1 X108.761 Y117.052 E3.57829
G1 X112.858 Y121.15 E3.76213
G1 X112.318 Y121.15 E3.77926
G1 X108.221 Y117.052 E3.9631
G1 X107.681 Y117.052 E3.98023
G1 X111.779 Y121.15 E4.16409
G1 X111.239 Y121.15 E4.18122
G1 X107.141 Y117.052 E4.36508
G1 X106.601 Y117.051 E4.38221
G1 X110.7 Y121.15 E4.56612
G1 X110.16 Y121.15 E4.58325
G1 X106.061 Y117.051 E4.76716
G1 X105.522 Y117.051 E4.78426
G1 X109.621 Y121.15 E4.96817
G1 X109.081 Y121.15 E4.9853
G1 X104.982 Y117.051 E5.16921
G1 X104.861 Y117.051 E5.17305
G1 X104.862 Y117.471 E5.18637
G1 X108.542 Y121.15 E5.35146
G1 X108.002 Y121.151 E5.36859
G1 X104.864 Y118.012 E5.5094
G1 X104.865 Y118.553 E5.52656
G1 X107.463 Y121.151 E5.64312
G1 X106.923 Y121.151 E5.66025
G1 X104.867 Y119.094 E5.75252
G1 X104.868 Y119.635 E5.76968
G1 X106.384 Y121.151 E5.8377
G1 X105.844 Y121.151 E5.85483
G1 X104.87 Y120.176 E5.89855
G1 X104.871 Y120.717 E5.91571
G1 X105.475 Y121.321 E5.94281
G1 E3.94281 F2400
G92 E0
G1 X105.475 Y121.321 Z.6 F30000
G1 X115.27 Y103.226
G1 Z.2
G1 E2 F2400
;TYPE:Perimeter
;WIDTH:0.419999
G1 F6000
G1 X104.771 Y103.233 E2.32919
G1 X104.591 Y103.178 E2.33509
G1 X104.591 Y98.796 E2.47248
G1 X104.685 Y98.574 E2.48004
G1 X112.04 Y98.562 E2.71065
G1 X115.311 Y98.588 E2.81321
G1 X115.411 Y98.624 E2.81654
G1 X115.411 Y98.689 E2.81858
G1 X115.411 Y103.081 E2.95629
G1 X115.312 Y103.183 E2.96075
G1 X115.312 Y103.183 F30000
G1 X115.429 Y103.603
;TYPE:External perimeter
G1 F6000
G1 X104.671 Y103.61 E3.29806
G1 X104.214 Y103.44 E3.31335
G1 X104.214 Y98.634 E3.46404
G1 X104.468 Y98.197 E3.47989
G1 X112.041 Y98.185 E3.71734
G1 X115.416 Y98.212 E3.82316
G1 X115.788 Y98.383 E3.836
G1 X115.788 Y98.689 E3.84559
G1 X115.788 Y102.982 E3.98019
G1 X115.761 Y103.222 E3.98776
G1 X115.469 Y103.558 E4.00172
G1 X115.071 Y103.599 F30000
G1 E2.00172 F2400
G92 E0
G1 Z.6 F30000
G1 X114.521 Y98.695
G1 Z.2
G1 E2 F2400
;TYPE:Solid infill
;WIDTH:0.423943
G1 F6000
G1 X115.128 Y99.302 E2.0272
G1 X115.128 Y99.841 E2.04428
G1 X114.149 Y98.862 E2.08814
G1 X113.606 Y98.857 E2.10534
G1 X115.128 Y100.38 E2.17356
G1 X115.128 Y100.919 E2.19064
G1 X113.063 Y98.853 E2.28319
G1 X112.519 Y98.849 E2.30043
G1 X115.128 Y101.458 E2.41733
G1 X115.128 Y101.996 E2.43438
G1 X111.977 Y98.845 E2.57556
G1 X111.439 Y98.846 E2.59261
G1 X115.128 Y102.535 E2.7579
G1 X115.128 Y102.943 E2.77083
G1 X114.997 Y102.943 E2.77498
G1 X110.901 Y98.847 E2.9585
G1 X110.363 Y98.848 E2.97555
G1 X114.459 Y102.944 E3.15907
G1 X113.92 Y102.944 E3.17615
G1 X109.825 Y98.849 E3.35963
G1 X109.287 Y98.85 E3.37668
G1 X113.382 Y102.944 E3.56014
G1 X112.843 Y102.945 E3.57722
G1 X108.749 Y98.851 E3.76065
G1 X108.211 Y98.851 E3.7777
G1 X112.305 Y102.945 E3.96113
G1 X111.766 Y102.946 E3.97821
G1 X107.673 Y98.852 E4.16162
G1 X107.135 Y98.853 E4.17867
G1 X111.228 Y102.946 E4.36206
